;FLAVOR:UltiGCode
;TIME:267
;MATERIAL:659
;MATERIAL2:0
;NOZZLE_DIAMETER:0.8
;MINX:95.694
;MINY:94.694
;MINZ:0.2
;MAXX:127.306
;MAXY:128.306
;MAXZ:8.914
;Generated with Cura_SteamEngine 4.8.0
M82 ;absolute extrusion mode
G0 F3000 Y50 ;avoid prime blob
G92 E0
G92 E0
G10
;LAYER_COUNT:46
;LAYER:0
M107
G0 F1320 X96.652 Y96.003 Z0.2
;TYPE:SKIRT
G11
G1 X97.047 Y95.614 E0.07761
G1 X97.494 Y95.285 E0.15532
G1 X97.983 Y95.024 E0.23292
G1 X98.505 Y94.837 E0.31055
G1 X99.049 Y94.726 E0.38828
G1 X99.544 Y94.694 E0.45772
G1 X123.456 Y94.694 E3.8054
G1 X124.009 Y94.734 E3.88302
G1 X124.551 Y94.853 E3.96071
G1 X125.07 Y95.049 E4.03838
G1 X125.555 Y95.317 E4.11596
G1 X125.997 Y95.652 E4.1936
G1 X126.386 Y96.047 E4.27121
G1 X126.715 Y96.494 E4.34892
G1 X126.976 Y96.983 E4.42652
G1 X127.163 Y97.505 E4.50415
G1 X127.274 Y98.049 E4.58188
G1 X127.306 Y98.544 E4.65132
G1 X127.306 Y124.456 E8.279
G1 X127.266 Y125.009 E8.35662
G1 X127.147 Y125.551 E8.43431
G1 X126.951 Y126.07 E8.51198
G1 X126.683 Y126.555 E8.58956
G1 X126.348 Y126.997 E8.6672
G1 X125.953 Y127.386 E8.74482
G1 X125.506 Y127.715 E8.82252
G1 X125.017 Y127.976 E8.90012
G1 X124.495 Y128.163 E8.97775
G1 X123.951 Y128.274 E9.05548
G1 X123.456 Y128.306 E9.12492
G1 X99.544 Y128.306 E12.4726
G1 X98.991 Y128.266 E12.55022
G1 X98.449 Y128.147 E12.62791
G1 X97.93 Y127.951 E12.70558
G1 X97.445 Y127.683 E12.78316
G1 X97.003 Y127.348 E12.8608
G1 X96.614 Y126.953 E12.93842
G1 X96.285 Y126.506 E13.01612
G1 X96.024 Y126.017 E13.09372
G1 X95.837 Y125.495 E13.17135
G1 X95.726 Y124.951 E13.24908
G1 X95.694 Y124.456 E13.31852
G1 X95.694 Y98.544 E16.9462
G1 X95.734 Y97.991 E17.02382
G1 X95.853 Y97.449 E17.10151
G1 X96.049 Y96.93 E17.17918
G1 X96.317 Y96.445 E17.25676
G1 X96.652 Y96.003 E17.3344
G0 X97.343 Y96.291
G1 X97.728 Y95.97 E17.40458
G1 X98.16 Y95.714 E17.47488
G1 X98.627 Y95.531 E17.5451
G1 X99.116 Y95.423 E17.61521
G1 X99.544 Y95.394 E17.67527
G1 X123.456 Y95.394 E21.02295
G1 X123.956 Y95.434 E21.09317
G1 X124.443 Y95.553 E21.16336
G1 X124.906 Y95.747 E21.23364
G1 X125.331 Y96.013 E21.30383
G1 X125.709 Y96.343 E21.37408
G1 X126.03 Y96.728 E21.44426
G1 X126.286 Y97.16 E21.51456
G1 X126.469 Y97.627 E21.58478
G1 X126.577 Y98.116 E21.65489
G1 X126.606 Y98.544 E21.71495
G1 X126.606 Y124.456 E25.34263
G1 X126.566 Y124.956 E25.41285
G1 X126.447 Y125.443 E25.48304
G1 X126.253 Y125.906 E25.55332
G1 X125.987 Y126.331 E25.62351
G1 X125.657 Y126.709 E25.69376
G1 X125.272 Y127.03 E25.76394
G1 X124.84 Y127.286 E25.83424
G1 X124.373 Y127.469 E25.90446
G1 X123.884 Y127.577 E25.97457
G1 X123.456 Y127.606 E26.03463
G1 X99.544 Y127.606 E29.38231
G1 X99.044 Y127.566 E29.45253
G1 X98.557 Y127.447 E29.52272
G1 X98.094 Y127.253 E29.593
G1 X97.669 Y126.987 E29.66319
G1 X97.291 Y126.657 E29.73344
G1 X96.97 Y126.272 E29.80362
G1 X96.714 Y125.84 E29.87392
G1 X96.531 Y125.373 E29.94414
G1 X96.423 Y124.884 E30.01425
G1 X96.394 Y124.456 E30.0743
G1 X96.394 Y98.544 E33.70198
G1 X96.434 Y98.044 E33.77221
G1 X96.553 Y97.557 E33.84239
G1 X96.747 Y97.094 E33.91267
G1 X97.013 Y96.669 E33.98287
G1 X97.343 Y96.291 E34.05312
G0 X97.707 Y96.923
G1 X98.028 Y96.619 E34.11501
G1 X98.399 Y96.378 E34.17695
G1 X98.807 Y96.207 E34.23888
G1 X99.239 Y96.113 E34.30078
G1 X99.544 Y96.094 E34.34356
G1 X123.456 Y96.094 E37.69124
G1 X123.896 Y96.134 E37.75309
G1 X124.323 Y96.252 E37.81511
G1 X124.72 Y96.446 E37.87698
G1 X125.077 Y96.707 E37.93889
G1 X125.381 Y97.028 E38.00078
G1 X125.622 Y97.399 E38.06272
G1 X125.793 Y97.807 E38.12465
G1 X125.887 Y98.239 E38.18655
G1 X125.906 Y98.544 E38.22933
G1 X125.906 Y124.456 E41.85701
G1 X125.866 Y124.896 E41.91887
G1 X125.748 Y125.323 E41.98089
G1 X125.554 Y125.72 E42.04275
G1 X125.293 Y126.077 E42.10466
G1 X124.972 Y126.381 E42.16656
G1 X124.601 Y126.622 E42.22849
G1 X124.193 Y126.793 E42.29043
G1 X123.761 Y126.887 E42.35232
G1 X123.456 Y126.906 E42.3951
G1 X99.544 Y126.906 E45.74278
G1 X99.104 Y126.866 E45.80464
G1 X98.677 Y126.748 E45.86666
G1 X98.28 Y126.554 E45.92852
G1 X97.923 Y126.293 E45.99043
G1 X97.619 Y125.972 E46.05233
G1 X97.378 Y125.601 E46.11426
G1 X97.207 Y125.193 E46.1762
G1 X97.113 Y124.761 E46.23809
G1 X97.094 Y124.456 E46.28088
G1 X97.094 Y98.544 E49.90856
G1 X97.134 Y98.104 E49.97041
G1 X97.252 Y97.677 E50.03243
G1 X97.446 Y97.28 E50.09429
G1 X97.707 Y96.923 E50.1562
G0 X98.142 Y97.496
G1 X98.396 Y97.223 E50.20841
G1 X98.703 Y97.009 E50.2608
G1 X99.048 Y96.866 E50.31308
G1 X99.544 Y96.794 E50.38325
G1 X123.456 Y96.794 E53.73093
G1 X123.827 Y96.834 E53.78317
G1 X124.182 Y96.952 E53.83555
G1 X124.504 Y97.142 E53.88789
G1 X124.777 Y97.396 E53.94009
G1 X124.991 Y97.703 E53.99249
G1 X125.134 Y98.048 E54.04477
G1 X125.206 Y98.544 E54.11494
G1 X125.206 Y124.456 E57.74262
G1 X125.166 Y124.827 E57.79486
G1 X125.048 Y125.182 E57.84723
G1 X124.858 Y125.504 E57.89958
G1 X124.604 Y125.777 E57.95178
G1 X124.297 Y125.991 E58.00417
G1 X123.952 Y126.134 E58.05646
G1 X123.456 Y126.206 E58.12662
G1 X99.544 Y126.206 E61.4743
G1 X99.173 Y126.166 E61.52654
G1 X98.818 Y126.048 E61.57892
G1 X98.496 Y125.858 E61.63126
G1 X98.223 Y125.604 E61.68347
G1 X98.009 Y125.297 E61.73586
G1 X97.866 Y124.952 E61.78814
G1 X97.794 Y124.456 E61.85831
G1 X97.794 Y98.544 E65.48599
G1 X97.834 Y98.173 E65.53823
G1 X97.952 Y97.818 E65.5906
G1 X98.142 Y97.496 E65.64295
G0 X98.834 Y97.77
G1 X99.072 Y97.606 E65.68341
G1 X99.346 Y97.513 E65.72392
G1 X99.544 Y97.494 E65.75177
G1 X123.456 Y97.494 E69.09945
G1 X123.742 Y97.534 E69.13988
G1 X124.007 Y97.65 E69.18038
G1 X124.23 Y97.834 E69.22085
G1 X124.394 Y98.072 E69.26132
G1 X124.487 Y98.346 E69.30183
G1 X124.506 Y98.544 E69.32967
G1 X124.506 Y124.456 E72.95735
G1 X124.466 Y124.742 E72.99778
G1 X124.35 Y125.007 E73.03828
G1 X124.166 Y125.23 E73.07876
G1 X123.928 Y125.394 E73.11922
G1 X123.654 Y125.487 E73.15973
G1 X123.456 Y125.506 E73.18758
G1 X99.544 Y125.506 E76.53526
G1 X99.258 Y125.466 E76.57569
G1 X98.993 Y125.35 E76.61619
G1 X98.77 Y125.166 E76.65666
G1 X98.606 Y124.928 E76.69713
G1 X98.513 Y124.654 E76.73764
G1 X98.494 Y124.456 E76.76548
G1 X98.494 Y98.544 E80.39316
G1 X98.534 Y98.258 E80.43359
G1 X98.65 Y97.993 E80.47409
G1 X98.834 Y97.77 E80.51457
G0 X99.233 Y98.383
G1 X99.343 Y98.258 E80.53788
G1 X99.544 Y98.194 E80.56741
G1 X123.456 Y98.194 E83.91509
G1 X123.617 Y98.233 E83.93828
G1 X123.742 Y98.343 E83.96159
G1 X123.806 Y98.544 E83.99113
G1 X123.806 Y124.456 E87.61881
G1 X123.767 Y124.617 E87.642
G1 X123.657 Y124.742 E87.66531
G1 X123.456 Y124.806 E87.69484
G1 X99.544 Y124.806 E91.04252
G1 X99.383 Y124.767 E91.06571
G1 X99.258 Y124.657 E91.08902
G1 X99.194 Y124.456 E91.11856
G1 X99.194 Y98.544 E94.74624
G1 X99.233 Y98.383 E94.76943
G10
;MESH:Blende.stl
G0 X100.608 Y99.608
G0 X100.664 Y123.336
G0 X99.944 Y124.056
;TYPE:WALL-OUTER
G11
G1 X99.944 Y98.944 E98.28511
G1 X123.056 Y98.944 E101.52079
G1 X123.056 Y124.056 E105.03647
G1 X99.944 Y124.056 E108.27215
G1 X99.944 Y98.944 Z0.252 E111.78784
G1 X123.056 Y98.944 Z0.3 E115.02352
G1 X123.056 Y124.056 Z0.352 E118.53921
G1 X99.944 Y124.056 Z0.4 E121.7749
;TIME_ELAPSED:48.642870
;LAYER:1
M106 S255
;TYPE:WALL-OUTER
;MESH:Blende.stl
G1 F1154.4 X99.955 Y98.989 Z0.452 E125.28429
G1 X123.011 Y98.966 Z0.5 E128.51213
G1 X123.011 Y124.022 Z0.552 E132.01998
G1 X99.989 Y124.011 Z0.6 E135.24307
;TIME_ELAPSED:53.648161
;LAYER:2
;TYPE:WALL-OUTER
;MESH:Blende.stl
G1 F1140 X100 Y99.033 Z0.652 E138.74
G1 X122.967 Y99.011 Z0.7 E141.95539
G1 X122.967 Y123.978 Z0.752 E145.45077
G1 X100.033 Y123.967 Z0.8 E148.66154
;TIME_ELAPSED:58.697802
;LAYER:3
;TYPE:WALL-OUTER
;MESH:Blende.stl
G1 X100.044 Y99.078 Z0.852 E152.14601
G1 X122.922 Y99.055 Z0.9 E155.34894
G1 X122.922 Y123.933 Z0.952 E158.83186
G1 X100.078 Y123.922 Z1 E162.03003
;TIME_ELAPSED:63.728653
;LAYER:4
;TYPE:WALL-OUTER
;MESH:Blende.stl
G1 X100.089 Y99.122 Z1.052 E165.50204
G1 X122.878 Y99.1 Z1.1 E168.69251
G1 X122.878 Y123.889 Z1.152 E172.16298
G1 X100.122 Y123.878 Z1.2 E175.34882
;TIME_ELAPSED:68.740820
;LAYER:5
;TYPE:WALL-OUTER
;MESH:Blende.stl
G1 F1137.4 X100.133 Y99.166 Z1.252 E178.80851
G1 X122.834 Y99.144 Z1.3 E181.98666
G1 X122.834 Y123.845 Z1.352 E185.44481
G1 X100.166 Y123.834 Z1.4 E188.61834
;TIME_ELAPSED:73.745902
;LAYER:6
;TYPE:WALL-OUTER
;MESH:Blende.stl
G1 F1133.1 X100.177 Y99.211 Z1.452 E192.06556
G1 X122.789 Y99.188 Z1.5 E195.23125
G1 X122.789 Y123.8 Z1.552 E198.67694
G1 X100.211 Y123.789 Z1.6 E201.83787
;TIME_ELAPSED:78.750932
;LAYER:7
;TYPE:WALL-OUTER
;MESH:Blende.stl
G1 F1128.8 X100.222 Y99.255 Z1.652 E205.27264
G1 X122.745 Y99.233 Z1.7 E208.42586
G1 X122.745 Y123.756 Z1.752 E211.85909
G1 X100.255 Y123.745 Z1.8 E215.0077
;TIME_ELAPSED:83.755911
;LAYER:8
;TYPE:WALL-OUTER
;MESH:Blende.stl
G1 F1124.6 X100.266 Y99.3 Z1.852 E218.43001
G1 X122.7 Y99.277 Z1.9 E221.57078
G1 X122.7 Y123.711 Z1.952 E224.99154
G1 X100.3 Y123.7 Z2 E228.12755
;TIME_ELAPSED:88.760838
;LAYER:9
;TYPE:WALL-OUTER
;MESH:Blende.stl
G1 F1120.3 X100.311 Y99.344 Z2.052 E231.5374
G1 X122.656 Y99.322 Z2.1 E234.66571
G1 X122.656 Y123.667 Z2.152 E238.07402
G1 X100.344 Y123.656 Z2.2 E241.1977
;TIME_ELAPSED:93.765715
;LAYER:10
;TYPE:WALL-OUTER
;MESH:Blende.stl
G1 F1116 X100.355 Y99.389 Z2.252 E244.59509
G1 X122.611 Y99.366 Z2.3 E247.71094
G1 X122.611 Y123.622 Z2.352 E251.10679
G1 X100.389 Y123.611 Z2.4 E254.21788
;TIME_ELAPSED:98.770541
;LAYER:11
;TYPE:WALL-OUTER
;MESH:Blende.stl
G1 F1111.8 X100.4 Y99.433 Z2.452 E257.6028
G1 X122.567 Y99.411 Z2.5 E260.70619
G1 X122.567 Y123.578 Z2.552 E264.08958
G1 X100.433 Y123.567 Z2.6 E267.18835
;TIME_ELAPSED:103.775317
;LAYER:12
;TYPE:WALL-OUTER
;MESH:Blende.stl
G1 F1107.5 X100.444 Y99.478 Z2.652 E270.56082
G1 X122.522 Y99.455 Z2.7 E273.65175
G1 X122.522 Y123.533 Z2.752 E277.02267
G1 X100.478 Y123.522 Z2.8 E280.10884
;TIME_ELAPSED:108.780044
;LAYER:13
;TYPE:WALL-OUTER
;MESH:Blende.stl
G1 F1103.2 X100.489 Y99.522 Z2.852 E283.46885
G1 X122.478 Y99.5 Z2.9 E286.54732
G1 X122.478 Y123.489 Z2.952 E289.90579
G1 X100.522 Y123.478 Z3 E292.97963
;TIME_ELAPSED:113.784721
;LAYER:14
;TYPE:WALL-OUTER
;MESH:Blende.stl
G1 F1099 X100.533 Y99.566 Z3.052 E296.32732
G1 X122.434 Y99.544 Z3.1 E299.39347
G1 X122.434 Y123.445 Z3.152 E302.73962
G1 X100.566 Y123.434 Z3.2 E305.80115
;TIME_ELAPSED:118.789350
;LAYER:15
;TYPE:WALL-OUTER
;MESH:Blende.stl
G1 F1094.7 X100.577 Y99.611 Z3.252 E309.13638
G1 X122.389 Y99.588 Z3.3 E312.19006
G1 X122.389 Y123.4 Z3.352 E315.52375
G1 X100.611 Y123.389 Z3.4 E318.57268
;TIME_ELAPSED:123.793930
;LAYER:16
;TYPE:WALL-OUTER
;MESH:Blende.stl
G1 F1090.4 X100.622 Y99.655 Z3.452 E321.89545
G1 X122.345 Y99.633 Z3.5 E324.93668
G1 X122.345 Y123.356 Z3.552 E328.25791
G1 X100.655 Y123.345 Z3.6 E331.29451
;TIME_ELAPSED:128.798461
;LAYER:17
;TYPE:WALL-OUTER
;MESH:Blende.stl
G1 F1086.2 X100.666 Y99.7 Z3.652 E334.60482
G1 X122.3 Y99.677 Z3.7 E337.63359
G1 X122.3 Y123.311 Z3.752 E340.94236
G1 X100.7 Y123.3 Z3.8 E343.96637
;TIME_ELAPSED:133.802945
;LAYER:18
;TYPE:WALL-OUTER
;MESH:Blende.stl
G1 F1081.9 X100.711 Y99.744 Z3.852 E347.26422
G1 X122.256 Y99.722 Z3.9 E350.28052
G1 X122.256 Y123.267 Z3.952 E353.57683
G1 X100.744 Y123.256 Z4 E356.58852
;TIME_ELAPSED:138.807381
;LAYER:19
;TYPE:WALL-OUTER
;MESH:Blende.stl
G1 F1077.6 X100.755 Y99.789 Z4.052 E359.87391
G1 X122.211 Y99.766 Z4.1 E362.87776
G1 X122.211 Y123.222 Z4.152 E366.16161
G1 X100.789 Y123.211 Z4.2 E369.16069
;TIME_ELAPSED:143.811770
;LAYER:20
;TYPE:WALL-OUTER
;MESH:Blende.stl
G1 F1073.4 X100.8 Y99.833 Z4.252 E372.43362
G1 X122.167 Y99.811 Z4.3 E375.42501
G1 X122.167 Y123.178 Z4.352 E378.6964
G1 X100.833 Y123.167 Z4.4 E381.68317
;TIME_ELAPSED:148.816112
;LAYER:21
;TYPE:WALL-OUTER
;MESH:Blende.stl
G1 F1069.1 X100.843 Y103.357 Z4.444 E384.45657
G1 X100.843 Y101.954 Z4.448 E384.653
G1 X100.844 Y99.878 Z4.452 E384.94364
G1 X118.969 Y99.854 Z4.493 E387.48114
G1 X120.251 Y99.854 Z4.496 E387.66063
G1 X122.122 Y99.855 Z4.5 E387.92257
G1 X122.134 Y119.643 Z4.544 E390.69289
G1 X122.135 Y121.046 Z4.548 E390.88931
G1 X122.122 Y123.133 Z4.552 E391.1815
G1 X100.878 Y123.122 Z4.6 E394.15567
;TIME_ELAPSED:153.820399
;LAYER:22
;TYPE:WALL-OUTER
;MESH:Blende.stl
G1 F1064.8 X100.922 Y99.889 Z4.652 E397.4083
G1 X122.1 Y99.922 Z4.7 E400.37323
G1 X122.078 Y123.089 Z4.752 E403.61662
G1 X100.922 Y123.078 Z4.8 E406.57847
;TIME_ELAPSED:158.824647
;LAYER:23
;TYPE:WALL-OUTER
;MESH:Blende.stl
G1 F1060.6 X100.933 Y99.966 Z4.852 E409.81416
G1 X122.034 Y99.944 Z4.9 E412.76831
G1 X122.034 Y123.045 Z4.952 E416.00246
G1 X100.966 Y123.034 Z5 E418.95199
;TIME_ELAPSED:163.828852
;LAYER:24
;TYPE:WALL-OUTER
;MESH:Blende.stl
G1 F1056.3 X100.977 Y100.011 Z5.052 E422.17521
G1 X121.989 Y99.988 Z5.1 E425.1169
G1 X121.989 Y123 Z5.152 E428.33859
G1 X101.011 Y122.989 Z5.2 E431.27552
;TIME_ELAPSED:168.833011
;LAYER:25
;TYPE:WALL-OUTER
;MESH:Blende.stl
G1 F1052 X101.022 Y100.055 Z5.252 E434.48629
G1 X121.945 Y100.033 Z5.3 E437.41552
G1 X121.945 Y122.956 Z5.352 E440.62475
G1 X101.055 Y122.945 Z5.4 E443.54935
;TIME_ELAPSED:173.837126
;LAYER:26
;TYPE:WALL-OUTER
;MESH:Blende.stl
G1 F1047.8 X101.066 Y100.1 Z5.452 E446.74766
G1 X121.9 Y100.077 Z5.5 E449.66443
G1 X121.9 Y122.911 Z5.552 E452.8612
G1 X101.1 Y122.9 Z5.6 E455.77321
;TIME_ELAPSED:178.841195
;LAYER:27
;TYPE:WALL-OUTER
;MESH:Blende.stl
G1 F1043.5 X101.111 Y100.144 Z5.652 E458.95906
G1 X121.856 Y100.122 Z5.7 E461.86337
G1 X121.856 Y122.867 Z5.752 E465.04768
G1 X101.144 Y122.856 Z5.8 E467.94736
;TIME_ELAPSED:183.845221
;LAYER:28
;TYPE:WALL-OUTER
;MESH:Blende.stl
G1 F1039.2 X101.155 Y100.189 Z5.852 E471.12075
G1 X121.811 Y100.166 Z5.9 E474.0126
G1 X121.811 Y122.822 Z5.952 E477.18445
G1 X101.189 Y122.811 Z6 E480.07154
;TIME_ELAPSED:188.849204
;LAYER:29
;TYPE:WALL-OUTER
;MESH:Blende.stl
G1 F1035 X101.2 Y100.233 Z6.052 E483.23247
G1 X121.767 Y100.211 Z6.1 E486.11186
G1 X121.767 Y122.778 Z6.152 E489.27124
G1 X101.233 Y122.767 Z6.2 E492.14601
;TIME_ELAPSED:193.853143
;LAYER:30
;TYPE:WALL-OUTER
;MESH:Blende.stl
G1 F1030.7 X101.244 Y100.278 Z6.252 E495.29448
G1 X107.534 Y100.248 Z6.267 E496.17509
G1 X121.722 Y100.255 Z6.3 E498.16142
G1 X121.722 Y122.733 Z6.352 E501.30835
G1 X101.278 Y122.721 Z6.4 E504.17052
;TIME_ELAPSED:198.857035
;LAYER:31
;TYPE:WALL-OUTER
;MESH:Blende.stl
G1 F1026.3 X101.289 Y100.323 Z6.452 E507.30625
G1 X121.676 Y100.301 Z6.5 E510.16044
G1 X121.688 Y122.677 Z6.552 E513.29308
G1 X101.323 Y122.677 Z6.6 E516.14419
;TIME_ELAPSED:203.860887
;LAYER:32
;TYPE:WALL-OUTER
;MESH:Blende.stl
G1 F1022.1 X101.334 Y100.367 Z6.652 E519.2676
G1 X121.633 Y100.345 Z6.7 E522.10947
G1 X121.633 Y122.644 Z6.752 E525.23134
G1 X101.367 Y122.633 Z6.8 E528.06859
;TIME_ELAPSED:208.864699
;LAYER:33
;TYPE:WALL-OUTER
;MESH:Blende.stl
G1 F1017.8 X101.378 Y100.412 Z6.852 E531.17954
G1 X121.588 Y100.389 Z6.9 E534.00895
G1 X121.588 Y122.599 Z6.952 E537.11835
G1 X101.412 Y122.588 Z7 E539.943
;TIME_ELAPSED:213.868469
;LAYER:34
;TYPE:WALL-OUTER
;MESH:Blende.stl
G1 F1013.5 X101.423 Y100.456 Z7.052 E543.04149
G1 X121.544 Y100.434 Z7.1 E545.85844
G1 X121.544 Y122.555 Z7.152 E548.95539
G1 X101.456 Y122.544 Z7.2 E551.76772
;TIME_ELAPSED:218.872198
;LAYER:35
;TYPE:WALL-OUTER
;MESH:Blende.stl
G1 F1009.3 X101.467 Y100.501 Z7.252 E554.85375
G1 X121.499 Y100.478 Z7.3 E557.65824
G1 X121.499 Y122.51 Z7.352 E560.74273
G1 X101.501 Y122.499 Z7.4 E563.54245
;TIME_ELAPSED:223.875887
;LAYER:36
;TYPE:WALL-OUTER
;MESH:Blende.stl
G1 F1005 X101.512 Y100.545 Z7.452 E566.61602
G1 X121.455 Y100.523 Z7.5 E569.40805
G1 X121.455 Y122.466 Z7.552 E572.48008
G1 X101.545 Y122.455 Z7.6 E575.26749
;TIME_ELAPSED:228.879536
;LAYER:37
;TYPE:WALL-OUTER
;MESH:Blende.stl
G1 F1000.7 X101.556 Y100.59 Z7.652 E578.3286
G1 X121.41 Y100.567 Z7.7 E581.10817
G1 X121.41 Y122.421 Z7.752 E584.16774
G1 X101.59 Y122.41 Z7.8 E586.94255
;TIME_ELAPSED:233.883144
;LAYER:38
;TYPE:WALL-OUTER
;MESH:Blende.stl
G1 F996.5 X101.601 Y100.634 Z7.852 E589.9912
G1 X121.366 Y100.612 Z7.9 E592.75831
G1 X121.366 Y122.377 Z7.952 E595.80541
G1 X101.634 Y122.366 Z8 E598.5679
;TIME_ELAPSED:238.886714
;LAYER:39
;TYPE:WALL-OUTER
;MESH:Blende.stl
G1 F992.2 X101.645 Y100.679 Z8.052 E601.60409
G1 X121.321 Y100.656 Z8.1 E604.35874
G1 X121.321 Y122.332 Z8.152 E607.39339
G1 X101.679 Y122.321 Z8.2 E610.14328
