;FLAVOR:UltiGCode
;TIME:914
;MATERIAL:1938
;MATERIAL2:0
;NOZZLE_DIAMETER:0.8
;MINX:77.978
;MINY:101.463
;MINZ:0.2
;MAXX:153.903
;MAXY:121.539
;MAXZ:15.99
;Generated with Cura_SteamEngine 4.8.0
M82 ;absolute extrusion mode
G0 F3000 Y50 ;avoid prime blob
G92 E0
G92 E0
G10
;LAYER_COUNT:93
;LAYER:0
M107
G0 F5280 X79.389 Y105.444 Z0.2
;TYPE:SKIRT
G11
G1 F1320 X79.961 Y105.03 E0.09885
G1 X80.656 Y104.615 E0.21218
G1 X84.675 Y102.296 E0.86179
G1 X85.214 Y101.994 E0.94829
G1 X85.672 Y101.774 E1.01942
G1 X86.211 Y101.592 E1.09907
G1 X86.771 Y101.488 E1.17881
G1 X87.339 Y101.463 E1.2584
G1 X87.905 Y101.519 E1.33803
G1 X88.652 Y101.708 E1.44591
G1 X91.309 Y102.439 E1.83171
G1 X94.003 Y103.102 E2.22012
G1 X96.604 Y103.659 E2.59252
G1 X99.287 Y104.157 E2.97455
G1 X101.966 Y104.577 E3.35419
G1 X104.657 Y104.921 E3.734
G1 X107.341 Y105.187 E4.1116
G1 X110.082 Y105.381 E4.4963
G1 X112.744 Y105.493 E4.86931
G1 X115.489 Y105.532 E5.25365
G1 X118.225 Y105.493 E5.63673
G1 X120.897 Y105.379 E6.01115
G1 X123.626 Y105.186 E6.39416
G1 X126.324 Y104.917 E6.77375
G1 X128.998 Y104.575 E7.15116
G1 X131.69 Y104.152 E7.53267
G1 X134.38 Y103.652 E7.91572
G1 X136.99 Y103.09 E8.28949
G1 X138.516 Y102.716 E8.50946
G1 X138.585 Y102.704 E8.51926
G1 X139.896 Y102.382 E8.70826
G1 X140.456 Y102.285 E8.78782
G1 X140.798 Y102.266 E8.83578
G1 X141.559 Y102.254 E8.94233
G1 X146.217 Y102.254 E9.59445
G1 X146.918 Y102.264 E9.6926
G1 X147.485 Y102.312 E9.77227
G1 X148.039 Y102.439 E9.85184
G1 X148.57 Y102.643 E9.93147
G1 X149.068 Y102.919 E10.01119
G1 X149.522 Y103.262 E10.09085
G1 X149.923 Y103.665 E10.17044
G1 X150.337 Y104.237 E10.26929
G1 X150.724 Y104.885 E10.37496
G1 X153.062 Y108.937 E11.0299
G1 X153.382 Y109.508 E11.12154
G1 X153.592 Y109.942 E11.18904
G1 X153.774 Y110.481 E11.26868
G1 X153.878 Y111.041 E11.34842
G1 X153.903 Y111.609 E11.42802
G1 X153.847 Y112.175 E11.50765
G1 X153.713 Y112.728 E11.58731
G1 X153.391 Y113.472 E11.7008
G1 X153.017 Y114.142 E11.80823
G1 X150.708 Y118.141 E12.45471
G1 X150.334 Y118.766 E12.55668
G1 X150.009 Y119.232 E12.63622
G1 X149.621 Y119.648 E12.71586
G1 X149.179 Y120.006 E12.79549
G1 X148.691 Y120.298 E12.87511
G1 X148.166 Y120.519 E12.95485
G1 X147.616 Y120.665 E13.03452
G1 X146.918 Y120.736 E13.13275
G1 X146.232 Y120.746 E13.2288
G1 X141.515 Y120.746 E13.88918
G1 X140.815 Y120.736 E13.98719
G1 X140.233 Y120.685 E14.06898
G1 X139.883 Y120.615 E14.11895
G1 X138.726 Y120.331 E14.28574
G1 X138.324 Y120.226 E14.3439
G1 X135.674 Y119.617 E14.72458
G1 X133.006 Y119.078 E15.10564
G1 X130.314 Y118.621 E15.48791
G1 X127.671 Y118.244 E15.86168
G1 X124.952 Y117.936 E16.24477
G1 X122.285 Y117.708 E16.61952
G1 X119.516 Y117.552 E17.00779
G1 X116.847 Y117.476 E17.3816
G1 X114.107 Y117.476 E17.7652
G1 X111.438 Y117.552 E18.13901
G1 X108.669 Y117.708 E18.52729
G1 X106.002 Y117.936 E18.90203
G1 X103.283 Y118.244 E19.28512
G1 X100.63 Y118.622 E19.6603
G1 X97.934 Y119.083 E20.04321
G1 X95.309 Y119.609 E20.41802
G1 X92.638 Y120.225 E20.80177
G1 X89.949 Y120.924 E21.19075
G1 X88.294 Y121.389 E21.43142
G1 X87.837 Y121.493 E21.49703
G1 X87.27 Y121.539 E21.57667
G1 X86.702 Y121.505 E21.65634
G1 X86.145 Y121.392 E21.73591
G1 X85.609 Y121.202 E21.81552
G1 X85.25 Y121.024 E21.87162
G1 X84.537 Y120.625 E21.98601
G1 X80.592 Y118.347 E22.62377
G1 X79.972 Y117.979 E22.72471
G1 X79.504 Y117.655 E22.8044
G1 X79.087 Y117.268 E22.88405
G1 X78.727 Y116.827 E22.96375
G1 X78.433 Y116.34 E23.04339
G1 X78.211 Y115.817 E23.12293
G1 X78.063 Y115.268 E23.20253
G1 X77.989 Y114.553 E23.30317
G1 X77.978 Y113.77 E23.4128
G1 X77.978 Y109.149 E24.05974
G1 X77.988 Y108.449 E24.15775
G1 X78.036 Y107.882 E24.23741
G1 X78.163 Y107.328 E24.31699
G1 X78.367 Y106.797 E24.39662
G1 X78.643 Y106.299 E24.47633
G1 X78.986 Y105.845 E24.556
G1 X79.389 Y105.444 E24.63559
G0 F5280 X79.673 Y106.134
G1 F1320 X80.067 Y105.798 E24.70808
G1 X80.32 Y105.631 E24.75052
G1 X81.006 Y105.222 E24.86234
G1 X85.018 Y102.906 E25.51089
G1 X85.557 Y102.604 E25.59738
G1 X85.942 Y102.42 E25.65712
G1 X86.433 Y102.258 E25.72951
G1 X86.943 Y102.174 E25.80187
G1 X87.461 Y102.17 E25.87439
G1 X88.164 Y102.295 E25.97435
G1 X88.467 Y102.383 E26.01853
G1 X91.155 Y103.123 E26.40885
G1 X93.819 Y103.778 E26.79292
G1 X96.474 Y104.346 E27.17303
G1 X99.154 Y104.844 E27.55465
G1 X101.878 Y105.271 E27.94067
G1 X104.568 Y105.615 E28.32033
G1 X107.293 Y105.885 E28.7037
G1 X110.039 Y106.08 E29.08911
G1 X112.741 Y106.193 E29.46772
G1 X115.489 Y106.232 E29.85248
G1 X118.23 Y106.194 E30.23626
G1 X120.94 Y106.078 E30.616
G1 X123.675 Y105.884 E30.99986
G1 X126.412 Y105.611 E31.38495
G1 X129.126 Y105.264 E31.768
G1 X131.783 Y104.847 E32.14453
G1 X134.511 Y104.339 E32.53302
G1 X137.134 Y103.775 E32.90863
G1 X138.683 Y103.395 E33.13192
G1 X138.757 Y103.383 E33.14242
G1 X140.063 Y103.062 E33.3307
G1 X140.809 Y102.965 E33.43602
G1 X141.506 Y102.954 E33.53361
G1 X146.207 Y102.954 E34.19175
G1 X146.908 Y102.964 E34.2899
G1 X147.423 Y103.012 E34.36231
G1 X147.925 Y103.138 E34.43477
G1 X148.401 Y103.339 E34.50711
G1 X148.841 Y103.612 E34.5796
G1 X149.233 Y103.949 E34.65198
G1 X149.569 Y104.343 E34.72447
G1 X149.736 Y104.596 E34.76691
G1 X150.117 Y105.235 E34.87107
G1 X152.451 Y109.279 E35.52475
G1 X152.771 Y109.85 E35.61639
G1 X152.946 Y110.212 E35.67268
G1 X153.108 Y110.703 E35.74507
G1 X153.192 Y111.213 E35.81743
G1 X153.196 Y111.731 E35.88995
G1 X153.121 Y112.242 E35.96226
G1 X152.967 Y112.737 E36.03484
G1 X152.78 Y113.131 E36.09589
G1 X152.411 Y113.792 E36.20188
G1 X150.108 Y117.781 E36.84673
G1 X149.734 Y118.406 E36.9487
G1 X149.435 Y118.828 E37.0211
G1 X149.074 Y119.199 E37.09357
G1 X148.661 Y119.51 E37.16595
G1 X148.204 Y119.754 E37.23848
G1 X147.716 Y119.925 E37.31087
G1 X147.207 Y120.018 E37.38331
G1 X146.908 Y120.036 E37.42525
G1 X146.222 Y120.046 E37.5213
G1 X141.525 Y120.046 E38.17888
G1 X140.825 Y120.036 E38.27689
G1 X140.319 Y119.99 E38.34802
G1 X140.049 Y119.935 E38.3866
G1 X138.902 Y119.654 E38.55193
G1 X138.479 Y119.544 E38.61312
G1 X135.818 Y118.932 E38.99538
G1 X133.132 Y118.39 E39.379
G1 X130.427 Y117.93 E39.76314
G1 X127.774 Y117.552 E40.13831
G1 X125.017 Y117.239 E40.52677
G1 X122.315 Y117.009 E40.90642
G1 X119.576 Y116.854 E41.29049
G1 X116.831 Y116.776 E41.67495
G1 X114.123 Y116.776 E42.05407
G1 X111.378 Y116.854 E42.43852
G1 X108.639 Y117.009 E42.8226
G1 X105.937 Y117.239 E43.20224
G1 X103.18 Y117.552 E43.5907
G1 X100.517 Y117.931 E43.96728
G1 X97.816 Y118.393 E44.35091
G1 X95.158 Y118.926 E44.73044
G1 X92.441 Y119.552 E45.12078
G1 X89.8 Y120.239 E45.50283
G1 X88.108 Y120.715 E45.7489
G1 X87.685 Y120.808 E45.80954
G1 X87.169 Y120.838 E45.8819
G1 X86.654 Y120.79 E45.95431
G1 X86.152 Y120.662 E46.02684
G1 X85.592 Y120.413 E46.11264
G1 X84.887 Y120.018 E46.22578
G1 X80.949 Y117.745 E46.86235
G1 X80.329 Y117.377 E46.96328
G1 X79.906 Y117.079 E47.03572
G1 X79.534 Y116.72 E47.1081
G1 X79.221 Y116.308 E47.18054
G1 X78.976 Y115.852 E47.25301
G1 X78.804 Y115.365 E47.32532
G1 X78.708 Y114.856 E47.39783
G1 X78.689 Y114.543 E47.44173
G1 X78.678 Y113.76 E47.55137
G1 X78.678 Y109.159 E48.19551
G1 X78.688 Y108.459 E48.29352
G1 X78.736 Y107.944 E48.36593
G1 X78.862 Y107.442 E48.43839
G1 X79.063 Y106.966 E48.51073
G1 X79.336 Y106.526 E48.58322
G1 X79.673 Y106.134 E48.65559
G10
;MESH:drehknopf-Schalter.stl
G0 F5280 X82.745 Y108.914
G0 X83.078 Y109.106
;TYPE:WALL-INNER
G11
G1 F1320 X83.433 Y108.901 E48.71298
G1 X84.096 Y108.519 E48.82011
G1 X84.797 Y108.114 E48.93345
G1 X85.514 Y107.7 E49.04936
G1 X86.216 Y107.295 E49.16282
G1 X86.874 Y106.915 E49.2692
G1 X87.225 Y106.712 E49.32597
G1 X87.423 Y106.826 E49.35795
G1 X88.067 Y107.198 E49.46208
G1 X88.764 Y107.601 E49.57479
G1 X89.438 Y107.99 E49.68374
G1 X88.746 Y107.634 E49.68669
G1 X87.947 Y107.408 E49.71194
G1 X87.177 Y107.35 E49.77722
G1 X87.124 Y107.346 E49.77876
G1 X86.305 Y107.448 E49.84397
G1 X85.52 Y107.709 E49.86267
G1 X84.803 Y108.123 E49.86419
G1 X84.183 Y108.669 E49.88085
G1 X83.681 Y109.33 E49.93992
G1 X83.655 Y109.384 E49.94216
G1 X83.322 Y110.075 E50.04955
G1 X83.117 Y110.875 E50.16517
G1 X83.078 Y111.593 E50.26583
G1 X83.078 Y110.875 E50.26864
G1 X83.078 Y110.075 E50.29059
G1 X83.078 Y109.33 E50.35245
G1 X83.078 Y109.106 E50.38135
G0 F5280 X83.078 Y111.743
G1 F1320 X83.197 Y112.523 E50.49181
G1 X83.479 Y113.299 E50.6074
G1 X83.634 Y113.554 E50.64918
G1 X83.91 Y114.005 E50.72321
G1 X84.471 Y114.612 E50.83892
G1 X85.072 Y115.045 E50.94263
G1 X84.434 Y114.677 E50.94788
G1 X83.751 Y114.282 E50.98176
G1 X83.078 Y113.894 E51.06335
G1 X83.078 Y113.299 E51.13169
G1 X83.078 Y112.523 E51.171
G1 X83.078 Y111.743 E51.18004
G0 F5280 X83.761 Y113.165
G0 X85.226 Y115.134
G1 F1320 X85.897 Y115.437 E51.28311
G1 X86.703 Y115.622 E51.39888
G1 X87.243 Y115.637 E51.47451
G1 X87.531 Y115.645 E51.51485
G1 X88.35 Y115.5 E51.63129
G1 X89.097 Y115.207 E51.74363
G1 X88.41 Y115.603 E51.75269
G1 X87.733 Y115.994 E51.79734
G1 X87.225 Y116.288 E51.86493
G1 X86.546 Y115.896 E51.9469
G1 X85.861 Y115.501 E51.97666
G1 X85.226 Y115.134 E51.98196
G0 F5280 X86.741 Y115.312
G0 X88.261 Y115.201
G0 X89.575 Y114.53
G0 X91.352 Y111.946
G1 F1320 X91.359 Y112.727 E52.0913
G1 X91.367 Y113.485 E52.19743
G1 X91.371 Y113.894 E52.25469
G1 X91.172 Y114.009 E52.28687
G1 X90.525 Y114.382 E52.39142
G1 X89.834 Y114.781 E52.50313
G1 X89.18 Y115.159 E52.60888
G1 X89.814 Y114.749 E52.61175
G1 X90.405 Y114.176 E52.63656
G1 X90.842 Y113.534 E52.70197
G1 X90.872 Y113.49 E52.70341
G1 X91.193 Y112.729 E52.76178
G1 X91.352 Y111.946 E52.77661
G0 F5280 X90.769 Y110.014
G0 X89.496 Y108.023
G1 F1320 X90.19 Y108.424 E52.88882
G1 X90.862 Y108.812 E52.99745
G1 X91.371 Y109.106 E53.07975
G1 X91.371 Y109.89 E53.18951
G1 X91.371 Y110.681 E53.30025
G1 X91.371 Y111.406 E53.40175
G1 X91.298 Y110.681 E53.40741
G1 X91.056 Y109.89 E53.44228
G1 X90.799 Y109.418 E53.48977
G1 X90.66 Y109.163 E53.51582
G1 X90.13 Y108.53 E53.5675
G1 X89.496 Y108.023 E53.57823
G0 F5280 X90.471 Y109.341
G0 X90.12 Y109.531
;TYPE:WALL-OUTER
G1 F1320 X89.673 Y108.997 E53.67572
G1 X89.128 Y108.561 E53.77344
G1 X88.507 Y108.242 E53.87118
G1 X87.833 Y108.051 E53.96925
G1 X87.14 Y107.999 E54.06654
G1 X86.449 Y108.085 E54.16403
G1 X85.788 Y108.305 E54.26156
G1 X85.184 Y108.654 E54.35922
G1 X84.661 Y109.114 E54.45673
G1 X84.238 Y109.671 E54.55465
G1 X83.936 Y110.299 E54.65221
G1 X83.763 Y110.974 E54.74976
G1 X83.725 Y111.672 E54.84763
G1 X83.83 Y112.361 E54.9452
G1 X84.068 Y113.016 E55.04277
G1 X84.431 Y113.611 E55.14035
G1 X84.904 Y114.123 E55.23793
G1 X85.471 Y114.531 E55.33573
G1 X86.106 Y114.818 E55.43329
G1 X86.785 Y114.974 E55.53082
G1 X87.483 Y114.993 E55.62858
G1 X88.173 Y114.871 E55.72668
G1 X88.822 Y114.617 E55.82425
G1 X89.407 Y114.238 E55.92183
G1 X89.905 Y113.755 E56.01896
G1 X90.298 Y113.178 E56.1167
G1 X90.569 Y112.536 E56.21426
G1 X90.706 Y111.863 E56.31041
G1 X90.726 Y111.491 E56.36256
G1 X90.658 Y110.81 E56.45838
G1 X90.454 Y110.143 E56.55603
G1 X90.12 Y109.531 E56.65364
G0 F5280 X89.864 Y109.225
G0 X90.454 Y108.732
G0 X92.021 Y108.731
G1 F1320 X92.021 Y114.269 E57.42896
G1 X87.225 Y117.039 E58.20434
G1 X82.428 Y114.269 E58.97985
G1 X82.428 Y108.731 E59.75517
G1 X87.225 Y105.961 E60.53067
G1 X92.021 Y108.731 E61.30606
G0 F5280 X92.021 Y109.131
G0 X91.251 Y109.131
G0 X91.021 Y109.363
G10
;MESH:drehknopf-Schalter2.stl
G0 X91.708 Y111.223
G0 X93.305 Y111.223
G0 X137.307 Y110.7
G0 X138.694 Y111.5
G0 X139.078 Y111.5
;TYPE:WALL-INNER
G11
G1 F1320 X139.179 Y111.324 E61.33447
G1 X139.556 Y110.672 E61.43991
G1 X139.941 Y110.005 E61.54773
G1 X139.725 Y110.769 E61.5652
G1 X139.667 Y111.544 E61.62405
G1 X139.662 Y111.602 E61.62871
G1 X139.765 Y112.431 E61.74567
G1 X139.969 Y113.043 E61.83598
G1 X139.654 Y112.496 E61.84363
G1 X139.269 Y111.83 E61.89308
G1 X139.078 Y111.5 E61.93883
G0 F5280 X140.558 Y108.936
G1 F1320 X140.796 Y108.524 E62.00545
G1 X141.189 Y107.844 E62.1154
G1 X141.472 Y107.354 E62.19462
G1 X141.501 Y107.354 E62.19868
G1 X142.235 Y107.354 E62.30144
G1 X143.038 Y107.354 E62.41386
G1 X143.262 Y107.354 E62.44522
G1 X143.038 Y107.376 E62.44585
G1 X142.235 Y107.622 E62.47324
G1 X141.761 Y107.881 E62.51528
G1 X141.501 Y108.023 E62.53847
G1 X140.86 Y108.56 E62.58316
G1 X140.558 Y108.936 E62.58728
G0 F5280 X142.358 Y107.91
G0 X144.473 Y107.354
G1 F1320 X145.109 Y107.354 E62.67632
G1 X145.879 Y107.354 E62.78412
G1 X146.26 Y107.354 E62.83746
G1 X146.361 Y107.53 E62.86587
G1 X146.739 Y108.184 E62.97162
G1 X147.121 Y108.845 E63.07851
G1 X146.572 Y108.281 E63.09589
G1 X145.928 Y107.843 E63.15464
G1 X145.879 Y107.809 E63.15532
G1 X145.109 Y107.484 E63.20823
G1 X144.473 Y107.354 E63.21795
G0 F5280 X146.371 Y108.521
G0 X147.739 Y109.915
G1 F1320 X147.975 Y110.325 E63.28418
G1 X148.371 Y111.01 E63.39495
G1 X148.654 Y111.5 E63.47417
G1 X148.641 Y111.523 E63.47787
G1 X148.272 Y112.163 E63.5813
G1 X147.872 Y112.855 E63.6932
G1 X147.748 Y113.069 E63.72782
G1 X147.85 Y112.843 E63.72845
G1 X148.038 Y112.029 E63.75603
G1 X148.052 Y111.484 E63.79874
G1 X148.061 Y111.19 E63.82171
G1 X147.914 Y110.361 E63.86621
G1 X147.739 Y109.915 E63.87016
G0 F5280 X147.728 Y111.991
G0 X146.811 Y114.033
G0 X144.442 Y115.646
G1 F1320 X144.9 Y115.577 E63.93501
G1 X145.687 Y115.291 E64.05224
G1 X145.946 Y115.133 E64.09471
G1 X146.402 Y114.855 E64.16948
G1 X147.015 Y114.285 E64.28667
G1 X147.168 Y114.074 E64.32316
G1 X147.039 Y114.298 E64.32372
G1 X146.639 Y114.991 E64.35023
G1 X146.271 Y115.627 E64.42018
G1 X146.26 Y115.646 E64.42101
G1 X145.687 Y115.646 E64.48251
G1 X144.9 Y115.646 E64.51471
G1 X144.442 Y115.646 E64.51774
G0 F5280 X142.533 Y115.157
G0 X140.579 Y114.1
G1 F1320 X141.001 Y114.578 E64.60701
G1 X141.669 Y115.086 E64.7245
G1 X141.728 Y115.114 E64.73364
G1 X142.424 Y115.45 E64.84184
G1 X143.19 Y115.646 E64.95254
G1 X142.424 Y115.646 E64.96685
G1 X141.669 Y115.646 E65.02282
G1 X141.472 Y115.646 E65.04692
G1 X141.279 Y115.312 E65.09301
G1 X140.892 Y114.642 E65.1362
G1 X140.579 Y114.1 E65.14365
G0 F5280 X142.533 Y115.157
G0 X144.774 Y115.279
G0 X146.211 Y114.606
G0 X147.528 Y112.792
G0 X147.809 Y111.249
G0 X147.409 Y111.238
;TYPE:WALL-OUTER
G1 F1320 X147.285 Y110.538 E65.24318
G1 X147.027 Y109.88 E65.34212
G1 X146.643 Y109.286 E65.44115
G1 X146.152 Y108.781 E65.53976
G1 X145.567 Y108.383 E65.63881
G1 X144.916 Y108.108 E65.73775
G1 X144.234 Y107.969 E65.83519
G1 X143.857 Y107.949 E65.88805
G1 X143.166 Y108.017 E65.98526
G1 X142.489 Y108.224 E66.08437
G1 X141.869 Y108.563 E66.1833
G1 X141.327 Y109.017 E66.28228
G1 X140.884 Y109.57 E66.38148
G1 X140.562 Y110.199 E66.4804
G1 X140.368 Y110.883 E66.57994
G1 X140.315 Y111.586 E66.67864
G1 X140.402 Y112.287 E66.77753
G1 X140.626 Y112.958 E66.87657
G1 X140.979 Y113.57 E66.97548
G1 X141.446 Y114.1 E67.07438
G1 X142.01 Y114.529 E67.17358
G1 X142.648 Y114.836 E67.27271
G1 X143.332 Y115.011 E67.37155
G1 X144.039 Y115.049 E67.47067
G1 X144.739 Y114.944 E67.56977
G1 X145.404 Y114.702 E67.66884
G1 X146.008 Y114.334 E67.76786
G1 X146.526 Y113.853 E67.86682
G1 X146.94 Y113.279 E67.96591
G1 X147.231 Y112.634 E68.06497
G1 X147.39 Y111.946 E68.16383
G1 X147.409 Y111.238 E68.26299
G0 F5280 X147.34 Y110.844
G0 X148.099 Y110.711
G0 X149.405 Y111.5
G1 F1320 X146.635 Y116.296 E69.03837
G1 X141.097 Y116.296 E69.81369
G1 X138.327 Y111.5 E70.58907
G1 X141.097 Y106.704 E71.36446
G1 X146.635 Y106.704 E72.13978
G1 X149.405 Y111.5 E72.91516
G0 F5280 X149.205 Y111.846
G0 X148.54 Y111.461
G0 X148.222 Y111.548
G10
;MESH:NONMESH
G0 F600 X148.222 Y111.548 Z0.4
G0 F5280 X146.811 Y114.033
G0 X145.552 Y115.01
G0 X143.333 Y115.349
G0 X141.831 Y114.819
G0 X138.694 Y111.5
G0 X137.307 Y110.7
G0 X93.305 Y111.223
G0 X91.708 Y111.223
G0 X90.401 Y109.338
G0 X89.309 Y108.286
G0 X87.889 Y107.716
G0 X86.371 Y107.753
G0 X83.078 Y109.106
;TIME_ELAPSED:32.138528
;LAYER:1
M106 S255
;TYPE:WALL-INNER
;MESH:drehknopf-Schalter.stl
G11
G1 F1860 X83.436 Y108.9 E72.97299
G1 X84.097 Y108.519 E73.0798
G1 X84.8 Y108.113 E73.19345
G1 X85.517 Y107.699 E73.30936
G1 X86.22 Y107.293 E73.42302
G1 X86.878 Y106.913 E73.5294
G1 X87.225 Y106.712 E73.58554
G1 X87.427 Y106.828 E73.61815
G1 X88.067 Y107.198 E73.72165
G1 X88.769 Y107.603 E73.83511
G1 X89.435 Y107.988 E73.94281
