;FLAVOR:UltiGCode
;TIME:1366
;MATERIAL:2872
;MATERIAL2:0
;NOZZLE_DIAMETER:0.8
;MINX:65.31
;MINY:72.66
;MINZ:0.2
;MAXX:158.718
;MAXY:143.891
;MAXZ:15.99
;Generated with Cura_SteamEngine 4.8.0
M82 ;absolute extrusion mode
G0 F3000 Y50 ;avoid prime blob
G92 E0
G92 E0
G10
;LAYER_COUNT:93
;LAYER:0
M107
G0 F5280 X66.663 Y76.574 Z0.2
;TYPE:SKIRT
G11
G1 F1320 X67.235 Y76.17 E0.09804
G1 X72.431 Y73.171 E0.93795
G1 X72.931 Y72.929 E1.01572
G1 X73.459 Y72.761 E1.09329
G1 X74.006 Y72.671 E1.1709
G1 X74.561 Y72.66 E1.24862
G1 X75.111 Y72.73 E1.32624
G1 X75.646 Y72.877 E1.40391
G1 X76.28 Y73.17 E1.50169
G1 X81.477 Y76.169 E2.34173
G1 X81.936 Y76.48 E2.41935
G1 X82.346 Y76.854 E2.49704
G1 X82.698 Y77.283 E2.57473
G1 X82.984 Y77.758 E2.65235
G1 X83.2 Y78.269 E2.73002
G1 X83.339 Y78.806 E2.80768
G1 X83.403 Y79.504 E2.90581
G1 X83.403 Y85.506 E3.74609
G1 X83.363 Y86.059 E3.82371
G1 X83.244 Y86.601 E3.9014
G1 X83.048 Y87.12 E3.97907
G1 X82.78 Y87.605 E4.05665
G1 X82.445 Y88.047 E4.13429
G1 X82.05 Y88.436 E4.21191
G1 X81.477 Y88.841 E4.31014
G1 X76.28 Y91.84 E5.15017
G1 X75.781 Y92.081 E5.22775
G1 X75.253 Y92.249 E5.30533
G1 X74.705 Y92.339 E5.38307
G1 X74.151 Y92.35 E5.46065
G1 X73.6 Y92.28 E5.53841
G1 X73.066 Y92.132 E5.61599
G1 X72.431 Y91.839 E5.71389
G1 X67.235 Y88.84 E6.55381
G1 X66.776 Y88.529 E6.63143
G1 X66.367 Y88.155 E6.70902
G1 X66.015 Y87.727 E6.7866
G1 X65.729 Y87.252 E6.86422
G1 X65.513 Y86.741 E6.94189
G1 X65.374 Y86.204 E7.01955
G1 X65.31 Y85.506 E7.11768
G1 X65.31 Y79.504 E7.95796
G1 X65.35 Y78.951 E8.03558
G1 X65.469 Y78.409 E8.11327
G1 X65.665 Y77.89 E8.19094
G1 X65.933 Y77.405 E8.26852
G1 X66.268 Y76.963 E8.34616
G1 X66.663 Y76.574 E8.42377
G0 F5280 X66.959 Y77.251
G1 F1320 X67.344 Y76.93 E8.49395
G1 X67.585 Y76.776 E8.53399
G1 X72.781 Y73.777 E9.3739
G1 X73.234 Y73.561 E9.44416
G1 X73.716 Y73.421 E9.51443
G1 X74.214 Y73.358 E9.58471
G1 X74.715 Y73.376 E9.65489
G1 X75.207 Y73.472 E9.72507
G1 X75.678 Y73.646 E9.79537
G1 X75.93 Y73.777 E9.83513
G1 X81.127 Y76.776 E10.67516
G1 X81.541 Y77.06 E10.74545
G1 X81.903 Y77.407 E10.81565
G1 X82.206 Y77.806 E10.88579
G1 X82.442 Y78.249 E10.95607
G1 X82.605 Y78.724 E11.02637
G1 X82.69 Y79.218 E11.09655
G1 X82.703 Y79.504 E11.13663
G1 X82.703 Y85.506 E11.97691
G1 X82.663 Y86.006 E12.04713
G1 X82.544 Y86.493 E12.11732
G1 X82.35 Y86.956 E12.1876
G1 X82.084 Y87.381 E12.25779
G1 X81.754 Y87.759 E12.32804
G1 X81.369 Y88.08 E12.39822
G1 X81.127 Y88.234 E12.43838
G1 X75.93 Y91.233 E13.27841
G1 X75.477 Y91.449 E13.34867
G1 X74.996 Y91.589 E13.41881
G1 X74.498 Y91.652 E13.48908
G1 X73.997 Y91.634 E13.55927
G1 X73.505 Y91.538 E13.62945
G1 X73.034 Y91.364 E13.69974
G1 X72.781 Y91.233 E13.73963
G1 X67.585 Y88.234 E14.57954
G1 X67.172 Y87.95 E14.64971
G1 X66.81 Y87.603 E14.71991
G1 X66.507 Y87.203 E14.79017
G1 X66.271 Y86.761 E14.86031
G1 X66.108 Y86.286 E14.93062
G1 X66.023 Y85.792 E15.0008
G1 X66.01 Y85.506 E15.04088
G1 X66.01 Y79.504 E15.88116
G1 X66.05 Y79.004 E15.95138
G1 X66.169 Y78.517 E16.02157
G1 X66.363 Y78.054 E16.09185
G1 X66.629 Y77.629 E16.16204
G1 X66.959 Y77.251 E16.23229
G0 F5280 X67.644 Y77.579
G1 F1320 X67.935 Y77.382 E16.28149
G1 X73.131 Y74.383 E17.1214
G1 X73.533 Y74.197 E17.18341
G1 X73.961 Y74.087 E17.24528
G1 X74.402 Y74.055 E17.30718
G1 X74.842 Y74.104 E17.36916
G1 X75.266 Y74.23 E17.43109
G1 X75.581 Y74.383 E17.48012
G1 X80.778 Y77.382 E18.32015
G1 X81.139 Y77.637 E18.38203
G1 X81.449 Y77.952 E18.4439
G1 X81.697 Y78.318 E18.50579
G1 X81.875 Y78.723 E18.56773
G1 X81.978 Y79.153 E18.62963
G1 X82.003 Y79.504 E18.6789
G1 X82.003 Y85.506 E19.51918
G1 X81.963 Y85.946 E19.58103
G1 X81.845 Y86.373 E19.64305
G1 X81.651 Y86.77 E19.70491
G1 X81.39 Y87.127 E19.76682
G1 X81.069 Y87.431 E19.82872
G1 X80.778 Y87.628 E19.87792
G1 X75.581 Y90.627 E20.71795
G1 X75.179 Y90.813 E20.77996
G1 X74.751 Y90.923 E20.84183
G1 X74.31 Y90.955 E20.90373
G1 X73.87 Y90.906 E20.96571
G1 X73.446 Y90.78 E21.02764
G1 X73.131 Y90.627 E21.07667
G1 X67.935 Y87.628 E21.91658
G1 X67.574 Y87.373 E21.97845
G1 X67.264 Y87.058 E22.04033
G1 X67.016 Y86.691 E22.10234
G1 X66.838 Y86.287 E22.16415
G1 X66.735 Y85.856 E22.22618
G1 X66.71 Y85.506 E22.27531
G1 X66.71 Y79.504 E23.11559
G1 X66.75 Y79.064 E23.17744
G1 X66.868 Y78.637 E23.23946
G1 X67.062 Y78.24 E23.30132
G1 X67.323 Y77.883 E23.36324
G1 X67.644 Y77.579 E23.42513
G0 F5280 X68.012 Y78.183
G1 F1320 X68.285 Y77.988 E23.4721
G1 X73.481 Y74.989 E24.31201
G1 X73.823 Y74.838 E24.36435
G1 X74.189 Y74.763 E24.41666
G1 X74.562 Y74.767 E24.46888
G1 X74.927 Y74.851 E24.52132
G1 X75.231 Y74.989 E24.56806
G1 X80.428 Y77.988 E25.40809
G1 X80.73 Y78.208 E25.4604
G1 X80.978 Y78.488 E25.51276
G1 X81.161 Y78.813 E25.56498
G1 X81.271 Y79.17 E25.61728
G1 X81.303 Y79.504 E25.66425
G1 X81.303 Y85.506 E26.50453
G1 X81.263 Y85.877 E26.55677
G1 X81.145 Y86.232 E26.60915
G1 X80.955 Y86.554 E26.66149
G1 X80.701 Y86.827 E26.71369
G1 X80.428 Y87.022 E26.76066
G1 X75.231 Y90.021 E27.6007
G1 X74.889 Y90.172 E27.65303
G1 X74.523 Y90.247 E27.70534
G1 X74.149 Y90.243 E27.7577
G1 X73.785 Y90.159 E27.81
G1 X73.481 Y90.021 E27.85674
G1 X68.285 Y87.022 E28.69665
G1 X67.983 Y86.801 E28.74904
G1 X67.735 Y86.522 E28.80131
G1 X67.552 Y86.196 E28.85364
G1 X67.442 Y85.839 E28.90594
G1 X67.41 Y85.506 E28.95278
G1 X67.41 Y79.504 E29.79306
G1 X67.45 Y79.133 E29.8453
G1 X67.568 Y78.778 E29.89767
G1 X67.758 Y78.456 E29.95002
G1 X68.012 Y78.183 E30.00222
G0 F5280 X68.45 Y78.73
G1 F1320 X68.635 Y78.595 E30.03428
G1 X73.831 Y75.596 E30.87419
G1 X74.099 Y75.487 E30.9147
G1 X74.386 Y75.455 E30.95513
G1 X74.672 Y75.504 E30.99575
G1 X74.881 Y75.596 E31.02772
G1 X80.078 Y78.595 E31.86775
G1 X80.306 Y78.772 E31.90816
G1 X80.477 Y79.005 E31.94862
G1 X80.578 Y79.276 E31.98911
G1 X80.603 Y79.504 E32.02123
G1 X80.603 Y85.506 E32.86151
G1 X80.563 Y85.792 E32.90194
G1 X80.447 Y86.057 E32.94243
G1 X80.263 Y86.28 E32.98291
G1 X80.078 Y86.415 E33.01497
G1 X74.881 Y89.414 E33.855
G1 X74.613 Y89.523 E33.89551
G1 X74.325 Y89.555 E33.93608
G1 X74.04 Y89.506 E33.97656
G1 X73.831 Y89.414 E34.00853
G1 X68.635 Y86.415 E34.84844
G1 X68.407 Y86.238 E34.88885
G1 X68.236 Y86.005 E34.92932
G1 X68.135 Y85.734 E34.96981
G1 X68.11 Y85.506 E35.00192
G1 X68.11 Y79.504 E35.8422
G1 X68.15 Y79.218 E35.88263
G1 X68.266 Y78.953 E35.92312
G1 X68.45 Y78.73 E35.9636
G0 F5280 X68.985 Y79.201
G1 F1320 X74.181 Y76.202 E36.80351
G1 X74.341 Y76.155 E36.82686
G1 X74.531 Y76.202 E36.85426
G1 X79.728 Y79.201 E37.69429
G1 X79.848 Y79.316 E37.71756
G1 X79.903 Y79.504 E37.74499
G1 X79.903 Y85.506 E38.58527
G1 X79.864 Y85.667 E38.60846
G1 X79.728 Y85.809 E38.63598
G1 X74.531 Y88.808 E39.47602
G1 X74.371 Y88.855 E39.49936
G1 X74.181 Y88.808 E39.52676
G1 X68.985 Y85.809 E40.36668
G1 X68.865 Y85.694 E40.38995
G1 X68.81 Y85.506 E40.41737
G1 X68.81 Y79.504 E41.25765
G1 X68.849 Y79.343 E41.28084
G1 X68.985 Y79.201 E41.30837
G10
G0 F5280 X68.718 Y78.741
G0 X68.282 Y86.011
G0 X103.316 Y128.115
G11
G1 F1320 X103.889 Y127.71 E41.4066
G1 X109.086 Y124.711 E42.24664
G1 X109.585 Y124.47 E42.32422
G1 X110.113 Y124.302 E42.40179
G1 X110.661 Y124.212 E42.47954
G1 X111.215 Y124.201 E42.55711
G1 X111.766 Y124.271 E42.63487
G1 X112.3 Y124.419 E42.71245
G1 X112.935 Y124.712 E42.81036
G1 X118.131 Y127.711 E43.65027
G1 X118.59 Y128.022 E43.72789
G1 X118.999 Y128.396 E43.80548
G1 X119.351 Y128.824 E43.88306
G1 X119.637 Y129.299 E43.96069
G1 X119.853 Y129.81 E44.03835
G1 X119.992 Y130.347 E44.11601
G1 X120.056 Y131.045 E44.21414
G1 X120.056 Y137.047 E45.05442
G1 X120.016 Y137.6 E45.13204
G1 X119.897 Y138.142 E45.20973
G1 X119.701 Y138.661 E45.2874
G1 X119.433 Y139.146 E45.36498
G1 X119.098 Y139.588 E45.44262
G1 X118.703 Y139.977 E45.52024
G1 X118.131 Y140.381 E45.61828
G1 X112.935 Y143.38 E46.45819
G1 X112.435 Y143.622 E46.53596
G1 X111.907 Y143.79 E46.61353
G1 X111.36 Y143.88 E46.69114
G1 X110.805 Y143.891 E46.76885
G1 X110.255 Y143.821 E46.84647
G1 X109.72 Y143.674 E46.92415
G1 X109.086 Y143.381 E47.02193
G1 X103.889 Y140.382 E47.86196
G1 X103.43 Y140.071 E47.93958
G1 X103.02 Y139.697 E48.01728
G1 X102.668 Y139.268 E48.09497
G1 X102.382 Y138.793 E48.17259
G1 X102.166 Y138.282 E48.25026
G1 X102.027 Y137.745 E48.32792
G1 X101.963 Y137.047 E48.42605
G1 X101.963 Y131.045 E49.26633
G1 X102.003 Y130.492 E49.34395
G1 X102.122 Y129.95 E49.42164
G1 X102.318 Y129.431 E49.49931
G1 X102.586 Y128.946 E49.57688
G1 X102.921 Y128.504 E49.65453
G1 X103.316 Y128.115 E49.73214
G0 F5280 X103.997 Y128.471
G1 F1320 X104.239 Y128.317 E49.7723
G1 X109.436 Y125.318 E50.61233
G1 X109.889 Y125.102 E50.68259
G1 X110.37 Y124.962 E50.75273
G1 X110.868 Y124.899 E50.823
G1 X111.369 Y124.917 E50.89319
G1 X111.861 Y125.013 E50.96337
G1 X112.332 Y125.187 E51.03366
G1 X112.585 Y125.318 E51.07355
G1 X117.781 Y128.317 E51.91346
G1 X118.194 Y128.601 E51.98363
G1 X118.556 Y128.948 E52.05384
G1 X118.859 Y129.348 E52.12409
G1 X119.095 Y129.79 E52.19424
G1 X119.258 Y130.265 E52.26454
G1 X119.343 Y130.759 E52.33472
G1 X119.356 Y131.045 E52.3748
G1 X119.356 Y137.047 E53.21508
G1 X119.316 Y137.547 E53.28531
G1 X119.197 Y138.034 E53.35549
G1 X119.003 Y138.497 E53.42577
G1 X118.737 Y138.922 E53.49596
G1 X118.407 Y139.3 E53.56621
G1 X118.022 Y139.621 E53.63639
G1 X117.781 Y139.775 E53.67643
G1 X112.585 Y142.774 E54.51634
G1 X112.132 Y142.99 E54.5866
G1 X111.65 Y143.13 E54.65687
G1 X111.152 Y143.193 E54.72715
G1 X110.651 Y143.175 E54.79733
G1 X110.159 Y143.079 E54.86751
G1 X109.688 Y142.905 E54.93781
G1 X109.436 Y142.774 E54.97757
G1 X104.239 Y139.775 E55.8176
G1 X103.825 Y139.491 E55.88789
G1 X103.463 Y139.144 E55.95809
G1 X103.16 Y138.745 E56.02823
G1 X102.924 Y138.302 E56.09851
G1 X102.761 Y137.827 E56.16881
G1 X102.676 Y137.333 E56.23899
G1 X102.663 Y137.047 E56.27907
G1 X102.663 Y131.045 E57.11935
G1 X102.703 Y130.545 E57.18957
G1 X102.822 Y130.058 E57.25976
G1 X103.016 Y129.595 E57.33004
G1 X103.282 Y129.17 E57.40023
G1 X103.612 Y128.792 E57.47048
G1 X103.997 Y128.471 E57.54066
G0 F5280 X104.297 Y129.12
G1 F1320 X104.588 Y128.923 E57.58986
G1 X109.785 Y125.924 E58.42989
G1 X110.187 Y125.738 E58.4919
G1 X110.615 Y125.628 E58.55377
G1 X111.056 Y125.596 E58.61567
G1 X111.496 Y125.645 E58.67765
G1 X111.92 Y125.771 E58.73958
G1 X112.235 Y125.924 E58.7886
G1 X117.431 Y128.923 E59.62852
G1 X117.792 Y129.178 E59.69039
G1 X118.102 Y129.493 E59.75227
G1 X118.35 Y129.86 E59.81428
G1 X118.528 Y130.264 E59.87608
G1 X118.631 Y130.695 E59.93812
G1 X118.656 Y131.045 E59.98725
G1 X118.656 Y137.047 E60.82753
G1 X118.616 Y137.487 E60.88938
G1 X118.498 Y137.914 E60.9514
G1 X118.304 Y138.311 E61.01326
G1 X118.043 Y138.668 E61.07518
G1 X117.722 Y138.972 E61.13707
G1 X117.431 Y139.169 E61.18627
G1 X112.235 Y142.168 E62.02618
G1 X111.833 Y142.354 E62.08819
G1 X111.405 Y142.464 E62.15006
G1 X110.964 Y142.496 E62.21196
G1 X110.524 Y142.447 E62.27394
G1 X110.1 Y142.321 E62.33587
G1 X109.785 Y142.168 E62.3849
G1 X104.588 Y139.169 E63.22493
G1 X104.227 Y138.914 E63.28681
G1 X103.917 Y138.599 E63.34868
G1 X103.669 Y138.233 E63.41057
G1 X103.491 Y137.828 E63.47251
G1 X103.388 Y137.398 E63.53441
G1 X103.363 Y137.047 E63.58368
G1 X103.363 Y131.045 E64.42396
G1 X103.403 Y130.605 E64.48581
G1 X103.521 Y130.178 E64.54783
G1 X103.715 Y129.781 E64.60969
G1 X103.976 Y129.424 E64.67161
G1 X104.297 Y129.12 E64.7335
G0 F5280 X104.665 Y129.724
G1 F1320 X104.938 Y129.529 E64.78047
G1 X110.135 Y126.53 E65.6205
G1 X110.477 Y126.379 E65.67284
G1 X110.843 Y126.304 E65.72515
G1 X111.217 Y126.308 E65.77751
G1 X111.581 Y126.392 E65.82981
G1 X111.885 Y126.53 E65.87655
G1 X117.081 Y129.529 E66.71646
G1 X117.383 Y129.75 E66.76885
G1 X117.631 Y130.029 E66.82111
G1 X117.814 Y130.355 E66.87345
G1 X117.924 Y130.712 E66.92575
G1 X117.956 Y131.045 E66.97258
G1 X117.956 Y137.047 E67.81286
G1 X117.916 Y137.418 E67.86511
G1 X117.798 Y137.773 E67.91748
G1 X117.608 Y138.095 E67.96982
G1 X117.354 Y138.368 E68.02203
G1 X117.081 Y138.563 E68.06899
G1 X111.885 Y141.562 E68.90891
G1 X111.543 Y141.713 E68.96125
G1 X111.177 Y141.788 E69.01355
G1 X110.804 Y141.784 E69.06577
G1 X110.439 Y141.7 E69.11821
G1 X110.135 Y141.562 E69.16495
G1 X104.938 Y138.563 E70.00498
G1 X104.636 Y138.343 E70.05729
G1 X104.388 Y138.063 E70.10966
G1 X104.205 Y137.738 E70.16187
G1 X104.095 Y137.381 E70.21417
G1 X104.063 Y137.047 E70.26115
G1 X104.063 Y131.045 E71.10143
G1 X104.103 Y130.674 E71.15367
G1 X104.221 Y130.319 E71.20604
G1 X104.411 Y129.997 E71.25838
G1 X104.665 Y129.724 E71.31059
G0 F5280 X105.288 Y130.136
G1 F1320 X110.485 Y127.137 E72.15062
G1 X110.753 Y127.028 E72.19112
G1 X111.041 Y126.996 E72.23169
G1 X111.326 Y127.045 E72.27218
G1 X111.535 Y127.137 E72.30415
G1 X116.731 Y130.136 E73.14406
G1 X116.959 Y130.313 E73.18447
G1 X117.13 Y130.546 E73.22493
G1 X117.231 Y130.817 E73.26542
G1 X117.256 Y131.045 E73.29753
G1 X117.256 Y137.047 E74.13781
G1 X117.216 Y137.333 E74.17824
G1 X117.1 Y137.598 E74.21874
G1 X116.916 Y137.821 E74.25922
G1 X116.731 Y137.956 E74.29128
G1 X111.535 Y140.955 E75.13119
G1 X111.267 Y141.064 E75.17169
G1 X110.98 Y141.096 E75.21212
G1 X110.694 Y141.047 E75.25275
G1 X110.485 Y140.955 E75.28472
G1 X105.288 Y137.956 E76.12475
G1 X105.06 Y137.779 E76.16516
G1 X104.889 Y137.546 E76.20562
G1 X104.788 Y137.275 E76.24611
G1 X104.763 Y137.047 E76.27822
G1 X104.763 Y131.045 E77.1185
G1 X104.803 Y130.759 E77.15893
G1 X104.919 Y130.494 E77.19943
G1 X105.103 Y130.271 E77.23991
G1 X105.288 Y130.136 E77.27197
G0 F5280 X105.638 Y130.742
G1 F1320 X110.835 Y127.743 E78.112
G1 X110.995 Y127.696 E78.13535
G1 X111.185 Y127.743 E78.16275
G1 X116.381 Y130.742 E79.00266
G1 X116.501 Y130.857 E79.02593
G1 X116.556 Y131.045 E79.05335
G1 X116.556 Y137.047 E79.89363
G1 X116.517 Y137.208 E79.91682
G1 X116.381 Y137.35 E79.94435
G1 X111.185 Y140.349 E80.78426
G1 X111.025 Y140.396 E80.80761
G1 X110.835 Y140.349 E80.83501
G1 X105.638 Y137.35 E81.67504
G1 X105.518 Y137.235 E81.69831
G1 X105.463 Y137.047 E81.72574
G1 X105.463 Y131.045 E82.56602
G1 X105.502 Y130.884 E82.58921
G1 X105.638 Y130.742 E82.61674
G10
G0 F5280 X105.371 Y130.282
G0 X139.028 Y84.753
G11
G1 F1320 X139.098 Y84.203 E82.69436
G1 X139.245 Y83.668 E82.77203
G1 X139.539 Y83.033 E82.87
G1 X142.538 Y77.837 E83.70991
G1 X142.849 Y77.378 E83.78753
G1 X143.223 Y76.969 E83.86512
G1 X143.651 Y76.617 E83.9427
G1 X144.126 Y76.331 E84.02033
G1 X144.637 Y76.115 E84.098
G1 X145.174 Y75.976 E84.17565
G1 X145.872 Y75.912 E84.27378
G1 X151.874 Y75.912 E85.11406
G1 X152.427 Y75.952 E85.19169
G1 X152.969 Y76.071 E85.26937
G1 X153.488 Y76.267 E85.34704
G1 X153.973 Y76.535 E85.42462
G1 X154.415 Y76.87 E85.50226
G1 X154.804 Y77.265 E85.57988
G1 X155.208 Y77.837 E85.67792
G1 X158.207 Y83.033 E86.51783
G1 X158.449 Y83.533 E86.5956
G1 X158.617 Y84.061 E86.67317
G1 X158.707 Y84.608 E86.75078
G1 X158.718 Y85.163 E86.82849
G1 X158.648 Y85.713 E86.90612
G1 X158.501 Y86.248 E86.98379
G1 X158.207 Y86.883 E87.08176
G1 X155.208 Y92.079 E87.92167
G1 X154.897 Y92.538 E87.99929
G1 X154.523 Y92.947 E88.07688
G1 X154.095 Y93.299 E88.15446
G1 X153.62 Y93.585 E88.23209
G1 X153.109 Y93.801 E88.30975
G1 X152.572 Y93.94 E88.38741
G1 X151.874 Y94.004 E88.48554
G1 X145.872 Y94.004 E89.32582
G1 X145.319 Y93.964 E89.40344
G1 X144.777 Y93.845 E89.48113
G1 X144.258 Y93.649 E89.5588
G1 X143.773 Y93.381 E89.63638
G1 X143.331 Y93.046 E89.71402
G1 X142.942 Y92.651 E89.79164
G1 X142.538 Y92.079 E89.88968
G1 X139.539 Y86.883 E90.72959
G1 X139.297 Y86.383 E90.80736
G1 X139.129 Y85.855 E90.88493
G1 X139.039 Y85.308 E90.96254
G1 X139.028 Y84.753 E91.04025
G0 F5280 X139.744 Y84.599
G1 F1320 X139.84 Y84.107 E91.11043
G1 X140.014 Y83.636 E91.18073
G1 X140.145 Y83.383 E91.22061
G1 X143.144 Y78.187 E92.06053
G1 X143.428 Y77.774 E92.1307
G1 X143.775 Y77.412 E92.2009
G1 X144.175 Y77.109 E92.27115
G1 X144.617 Y76.873 E92.3413
G1 X145.092 Y76.71 E92.41161
G1 X145.586 Y76.625 E92.48178
G1 X145.872 Y76.612 E92.52187
G1 X151.874 Y76.612 E93.36215
G1 X152.374 Y76.652 E93.43237
G1 X152.861 Y76.771 E93.50255
G1 X153.324 Y76.965 E93.57284
G1 X153.749 Y77.231 E93.64303
G1 X154.127 Y77.561 E93.71328
G1 X154.448 Y77.946 E93.78345
G1 X154.602 Y78.187 E93.82349
G1 X157.601 Y83.383 E94.66341
