(Exported by FreeCAD)
(Post Processor: grbl_post)
(Output Time:2021-05-13 16:59:48.806688)
(Begin preamble)
G17 G90
G21
(Begin operation: Fixture)
(Path: Fixture)
G54
(Finish operation: Fixture)
(Begin operation: 1/8 Straight005)
(Path: 1/8 Straight005)
(1/8 Straight005)
(Begin toolchange)
( M6 T1.0 )
M3 S10000.0
(Finish operation: 1/8 Straight005)
(Begin operation: MillFace)
(Path: MillFace)
(MillFace)
G0 Z5.000
G0 X-12.860 Y16.160
G0 Z3.000
G1 X-12.860 Y16.160 Z-0.600 F120.000
G1 X-12.222 Y16.797 Z-0.600 F300.000
G1 X-12.860 Y16.797 Z-0.600 F300.000
G1 X-12.860 Y16.160 Z-0.600 F300.000
G1 X-12.860 Y13.915 Z-0.600 F300.000
G1 X-9.977 Y16.797 Z-0.600 F300.000
G1 X-7.732 Y16.797 Z-0.600 F300.000
G1 X-12.860 Y11.670 Z-0.600 F300.000
G1 X-12.860 Y9.425 Z-0.600 F300.000
G1 X-5.487 Y16.797 Z-0.600 F300.000
G1 X-3.242 Y16.797 Z-0.600 F300.000
G1 X-12.860 Y7.179 Z-0.600 F300.000
G1 X-12.860 Y4.934 Z-0.600 F300.000
G1 X-0.997 Y16.797 Z-0.600 F300.000
G1 X1.248 Y16.797 Z-0.600 F300.000
G1 X-12.860 Y2.689 Z-0.600 F300.000
G1 X-12.860 Y0.444 Z-0.600 F300.000
G1 X3.493 Y16.797 Z-0.600 F300.000
G1 X5.738 Y16.797 Z-0.600 F300.000
G1 X-12.860 Y-1.801 Z-0.600 F300.000
G1 X-12.860 Y-4.046 Z-0.600 F300.000
G1 X7.983 Y16.797 Z-0.600 F300.000
G1 X10.228 Y16.797 Z-0.600 F300.000
G1 X-12.860 Y-6.291 Z-0.600 F300.000
G1 X-12.860 Y-8.536 Z-0.600 F300.000
G1 X12.473 Y16.797 Z-0.600 F300.000
G1 X12.555 Y16.797 Z-0.600 F300.000
G1 X12.555 Y14.634 Z-0.600 F300.000
G1 X-12.860 Y-10.781 Z-0.600 F300.000
G1 X-12.860 Y-13.026 Z-0.600 F300.000
G1 X12.555 Y12.389 Z-0.600 F300.000
G1 X12.555 Y10.143 Z-0.600 F300.000
G1 X-12.860 Y-15.271 Z-0.600 F300.000
G1 X-12.860 Y-16.797 Z-0.600 F300.000
G1 X-12.141 Y-16.797 Z-0.600 F300.000
G1 X12.555 Y7.898 Z-0.600 F300.000
G1 X12.555 Y5.653 Z-0.600 F300.000
G1 X-9.896 Y-16.797 Z-0.600 F300.000
G1 X-7.651 Y-16.797 Z-0.600 F300.000
G1 X12.555 Y3.408 Z-0.600 F300.000
G1 X12.555 Y1.163 Z-0.600 F300.000
G1 X-5.406 Y-16.797 Z-0.600 F300.000
G1 X-3.161 Y-16.797 Z-0.600 F300.000
G1 X12.555 Y-1.082 Z-0.600 F300.000
G1 X12.555 Y-3.327 Z-0.600 F300.000
G1 X-0.916 Y-16.797 Z-0.600 F300.000
G1 X1.329 Y-16.797 Z-0.600 F300.000
G1 X12.555 Y-5.572 Z-0.600 F300.000
G1 X12.555 Y-7.817 Z-0.600 F300.000
G1 X3.574 Y-16.797 Z-0.600 F300.000
G1 X5.819 Y-16.797 Z-0.600 F300.000
G1 X12.555 Y-10.062 Z-0.600 F300.000
G1 X12.555 Y-12.307 Z-0.600 F300.000
G1 X8.065 Y-16.797 Z-0.600 F300.000
G1 X10.310 Y-16.797 Z-0.600 F300.000
G1 X12.555 Y-14.552 Z-0.600 F300.000
G1 X12.555 Y-16.797 Z-0.600 F300.000
G1 X12.555 Y-16.797 Z-1.200 F120.000
G1 X12.555 Y-14.552 Z-1.200 F300.000
G1 X10.310 Y-16.797 Z-1.200 F300.000
G1 X8.065 Y-16.797 Z-1.200 F300.000
G1 X12.555 Y-12.307 Z-1.200 F300.000
G1 X12.555 Y-10.062 Z-1.200 F300.000
G1 X5.819 Y-16.797 Z-1.200 F300.000
G1 X3.574 Y-16.797 Z-1.200 F300.000
G1 X12.555 Y-7.817 Z-1.200 F300.000
G1 X12.555 Y-5.572 Z-1.200 F300.000
G1 X1.329 Y-16.797 Z-1.200 F300.000
G1 X-0.916 Y-16.797 Z-1.200 F300.000
G1 X12.555 Y-3.327 Z-1.200 F300.000
G1 X12.555 Y-1.082 Z-1.200 F300.000
G1 X-3.161 Y-16.797 Z-1.200 F300.000
G1 X-5.406 Y-16.797 Z-1.200 F300.000
G1 X12.555 Y1.163 Z-1.200 F300.000
G1 X12.555 Y3.408 Z-1.200 F300.000
G1 X-7.651 Y-16.797 Z-1.200 F300.000
G1 X-9.896 Y-16.797 Z-1.200 F300.000
G1 X12.555 Y5.653 Z-1.200 F300.000
G1 X12.555 Y7.898 Z-1.200 F300.000
G1 X-12.141 Y-16.797 Z-1.200 F300.000
G1 X-12.860 Y-16.797 Z-1.200 F300.000
G1 X-12.860 Y-15.271 Z-1.200 F300.000
G1 X12.555 Y10.143 Z-1.200 F300.000
G1 X12.555 Y12.389 Z-1.200 F300.000
G1 X-12.860 Y-13.026 Z-1.200 F300.000
G1 X-12.860 Y-10.781 Z-1.200 F300.000
G1 X12.555 Y14.634 Z-1.200 F300.000
G1 X12.555 Y16.797 Z-1.200 F300.000
G1 X12.473 Y16.797 Z-1.200 F300.000
G1 X-12.860 Y-8.536 Z-1.200 F300.000
G1 X-12.860 Y-6.291 Z-1.200 F300.000
G1 X10.228 Y16.797 Z-1.200 F300.000
G1 X7.983 Y16.797 Z-1.200 F300.000
G1 X-12.860 Y-4.046 Z-1.200 F300.000
G1 X-12.860 Y-1.801 Z-1.200 F300.000
G1 X5.738 Y16.797 Z-1.200 F300.000
G1 X3.493 Y16.797 Z-1.200 F300.000
G1 X-12.860 Y0.444 Z-1.200 F300.000
G1 X-12.860 Y2.689 Z-1.200 F300.000
G1 X1.248 Y16.797 Z-1.200 F300.000
G1 X-0.997 Y16.797 Z-1.200 F300.000
G1 X-12.860 Y4.934 Z-1.200 F300.000
G1 X-12.860 Y7.179 Z-1.200 F300.000
G1 X-3.242 Y16.797 Z-1.200 F300.000
G1 X-5.487 Y16.797 Z-1.200 F300.000
G1 X-12.860 Y9.425 Z-1.200 F300.000
G1 X-12.860 Y11.670 Z-1.200 F300.000
G1 X-7.732 Y16.797 Z-1.200 F300.000
G1 X-9.977 Y16.797 Z-1.200 F300.000
G1 X-12.860 Y13.915 Z-1.200 F300.000
G1 X-12.860 Y16.160 Z-1.200 F300.000
G1 X-12.860 Y16.797 Z-1.200 F300.000
G1 X-12.222 Y16.797 Z-1.200 F300.000
G1 X-12.860 Y16.160 Z-1.200 F300.000
G1 X-12.860 Y16.160 Z-1.800 F120.000
G1 X-12.222 Y16.797 Z-1.800 F300.000
G1 X-12.860 Y16.797 Z-1.800 F300.000
G1 X-12.860 Y16.160 Z-1.800 F300.000
G1 X-12.860 Y13.915 Z-1.800 F300.000
G1 X-9.977 Y16.797 Z-1.800 F300.000
G1 X-7.732 Y16.797 Z-1.800 F300.000
G1 X-12.860 Y11.670 Z-1.800 F300.000
G1 X-12.860 Y9.425 Z-1.800 F300.000
G1 X-5.487 Y16.797 Z-1.800 F300.000
G1 X-3.242 Y16.797 Z-1.800 F300.000
G1 X-12.860 Y7.179 Z-1.800 F300.000
G1 X-12.860 Y4.934 Z-1.800 F300.000
G1 X-0.997 Y16.797 Z-1.800 F300.000
G1 X1.248 Y16.797 Z-1.800 F300.000
G1 X-12.860 Y2.689 Z-1.800 F300.000
G1 X-12.860 Y0.444 Z-1.800 F300.000
G1 X3.493 Y16.797 Z-1.800 F300.000
G1 X5.738 Y16.797 Z-1.800 F300.000
G1 X-12.860 Y-1.801 Z-1.800 F300.000
G1 X-12.860 Y-4.046 Z-1.800 F300.000
G1 X7.983 Y16.797 Z-1.800 F300.000
G1 X10.228 Y16.797 Z-1.800 F300.000
G1 X-12.860 Y-6.291 Z-1.800 F300.000
G1 X-12.860 Y-8.536 Z-1.800 F300.000
G1 X12.473 Y16.797 Z-1.800 F300.000
G1 X12.555 Y16.797 Z-1.800 F300.000
G1 X12.555 Y14.634 Z-1.800 F300.000
G1 X-12.860 Y-10.781 Z-1.800 F300.000
G1 X-12.860 Y-13.026 Z-1.800 F300.000
G1 X12.555 Y12.389 Z-1.800 F300.000
G1 X12.555 Y10.143 Z-1.800 F300.000
G1 X-12.860 Y-15.271 Z-1.800 F300.000
G1 X-12.860 Y-16.797 Z-1.800 F300.000
G1 X-12.141 Y-16.797 Z-1.800 F300.000
G1 X12.555 Y7.898 Z-1.800 F300.000
G1 X12.555 Y5.653 Z-1.800 F300.000
G1 X-9.896 Y-16.797 Z-1.800 F300.000
G1 X-7.651 Y-16.797 Z-1.800 F300.000
G1 X12.555 Y3.408 Z-1.800 F300.000
G1 X12.555 Y1.163 Z-1.800 F300.000
G1 X-5.406 Y-16.797 Z-1.800 F300.000
G1 X-3.161 Y-16.797 Z-1.800 F300.000
G1 X12.555 Y-1.082 Z-1.800 F300.000
G1 X12.555 Y-3.327 Z-1.800 F300.000
G1 X-0.916 Y-16.797 Z-1.800 F300.000
G1 X1.329 Y-16.797 Z-1.800 F300.000
G1 X12.555 Y-5.572 Z-1.800 F300.000
G1 X12.555 Y-7.817 Z-1.800 F300.000
G1 X3.574 Y-16.797 Z-1.800 F300.000
G1 X5.819 Y-16.797 Z-1.800 F300.000
G1 X12.555 Y-10.062 Z-1.800 F300.000
G1 X12.555 Y-12.307 Z-1.800 F300.000
G1 X8.065 Y-16.797 Z-1.800 F300.000
G1 X10.310 Y-16.797 Z-1.800 F300.000
G1 X12.555 Y-14.552 Z-1.800 F300.000
G1 X12.555 Y-16.797 Z-1.800 F300.000
G1 X12.555 Y-16.797 Z-2.400 F120.000
G1 X12.555 Y-14.552 Z-2.400 F300.000
G1 X10.310 Y-16.797 Z-2.400 F300.000
G1 X8.065 Y-16.797 Z-2.400 F300.000
G1 X12.555 Y-12.307 Z-2.400 F300.000
G1 X12.555 Y-10.062 Z-2.400 F300.000
G1 X5.819 Y-16.797 Z-2.400 F300.000
G1 X3.574 Y-16.797 Z-2.400 F300.000
G1 X12.555 Y-7.817 Z-2.400 F300.000
G1 X12.555 Y-5.572 Z-2.400 F300.000
G1 X1.329 Y-16.797 Z-2.400 F300.000
G1 X-0.916 Y-16.797 Z-2.400 F300.000
G1 X12.555 Y-3.327 Z-2.400 F300.000
G1 X12.555 Y-1.082 Z-2.400 F300.000
G1 X-3.161 Y-16.797 Z-2.400 F300.000
G1 X-5.406 Y-16.797 Z-2.400 F300.000
G1 X12.555 Y1.163 Z-2.400 F300.000
G1 X12.555 Y3.408 Z-2.400 F300.000
G1 X-7.651 Y-16.797 Z-2.400 F300.000
G1 X-9.896 Y-16.797 Z-2.400 F300.000
G1 X12.555 Y5.653 Z-2.400 F300.000
G1 X12.555 Y7.898 Z-2.400 F300.000
G1 X-12.141 Y-16.797 Z-2.400 F300.000
G1 X-12.860 Y-16.797 Z-2.400 F300.000
G1 X-12.860 Y-15.271 Z-2.400 F300.000
G1 X12.555 Y10.143 Z-2.400 F300.000
G1 X12.555 Y12.389 Z-2.400 F300.000
G1 X-12.860 Y-13.026 Z-2.400 F300.000
G1 X-12.860 Y-10.781 Z-2.400 F300.000
G1 X12.555 Y14.634 Z-2.400 F300.000
G1 X12.555 Y16.797 Z-2.400 F300.000
G1 X12.473 Y16.797 Z-2.400 F300.000
G1 X-12.860 Y-8.536 Z-2.400 F300.000
G1 X-12.860 Y-6.291 Z-2.400 F300.000
G1 X10.228 Y16.797 Z-2.400 F300.000
G1 X7.983 Y16.797 Z-2.400 F300.000
G1 X-12.860 Y-4.046 Z-2.400 F300.000
G1 X-12.860 Y-1.801 Z-2.400 F300.000
G1 X5.738 Y16.797 Z-2.400 F300.000
G1 X3.493 Y16.797 Z-2.400 F300.000
G1 X-12.860 Y0.444 Z-2.400 F300.000
G1 X-12.860 Y2.689 Z-2.400 F300.000
G1 X1.248 Y16.797 Z-2.400 F300.000
G1 X-0.997 Y16.797 Z-2.400 F300.000
G1 X-12.860 Y4.934 Z-2.400 F300.000
G1 X-12.860 Y7.179 Z-2.400 F300.000
G1 X-3.242 Y16.797 Z-2.400 F300.000
G1 X-5.487 Y16.797 Z-2.400 F300.000
G1 X-12.860 Y9.425 Z-2.400 F300.000
G1 X-12.860 Y11.670 Z-2.400 F300.000
G1 X-7.732 Y16.797 Z-2.400 F300.000
G1 X-9.977 Y16.797 Z-2.400 F300.000
G1 X-12.860 Y13.915 Z-2.400 F300.000
G1 X-12.860 Y16.160 Z-2.400 F300.000
G1 X-12.860 Y16.797 Z-2.400 F300.000
G1 X-12.222 Y16.797 Z-2.400 F300.000
G1 X-12.860 Y16.160 Z-2.400 F300.000
G1 X-12.860 Y16.160 Z-3.000 F120.000
G1 X-12.222 Y16.797 Z-3.000 F300.000
G1 X-12.860 Y16.797 Z-3.000 F300.000
G1 X-12.860 Y16.160 Z-3.000 F300.000
G1 X-12.860 Y13.915 Z-3.000 F300.000
G1 X-9.977 Y16.797 Z-3.000 F300.000
G1 X-7.732 Y16.797 Z-3.000 F300.000
G1 X-12.860 Y11.670 Z-3.000 F300.000
G1 X-12.860 Y9.425 Z-3.000 F300.000
G1 X-5.487 Y16.797 Z-3.000 F300.000
G1 X-3.242 Y16.797 Z-3.000 F300.000
G1 X-12.860 Y7.179 Z-3.000 F300.000
G1 X-12.860 Y4.934 Z-3.000 F300.000
G1 X-0.997 Y16.797 Z-3.000 F300.000
G1 X1.248 Y16.797 Z-3.000 F300.000
G1 X-12.860 Y2.689 Z-3.000 F300.000
G1 X-12.860 Y0.444 Z-3.000 F300.000
G1 X3.493 Y16.797 Z-3.000 F300.000
G1 X5.738 Y16.797 Z-3.000 F300.000
G1 X-12.860 Y-1.801 Z-3.000 F300.000
G1 X-12.860 Y-4.046 Z-3.000 F300.000
G1 X7.983 Y16.797 Z-3.000 F300.000
G1 X10.228 Y16.797 Z-3.000 F300.000
G1 X-12.860 Y-6.291 Z-3.000 F300.000
G1 X-12.860 Y-8.536 Z-3.000 F300.000
G1 X12.473 Y16.797 Z-3.000 F300.000
G1 X12.555 Y16.797 Z-3.000 F300.000
G1 X12.555 Y14.634 Z-3.000 F300.000
G1 X-12.860 Y-10.781 Z-3.000 F300.000
G1 X-12.860 Y-13.026 Z-3.000 F300.000
G1 X12.555 Y12.389 Z-3.000 F300.000
G1 X12.555 Y10.143 Z-3.000 F300.000
G1 X-12.860 Y-15.271 Z-3.000 F300.000
G1 X-12.860 Y-16.797 Z-3.000 F300.000
G1 X-12.141 Y-16.797 Z-3.000 F300.000
G1 X12.555 Y7.898 Z-3.000 F300.000
G1 X12.555 Y5.653 Z-3.000 F300.000
G1 X-9.896 Y-16.797 Z-3.000 F300.000
G1 X-7.651 Y-16.797 Z-3.000 F300.000
G1 X12.555 Y3.408 Z-3.000 F300.000
G1 X12.555 Y1.163 Z-3.000 F300.000
G1 X-5.406 Y-16.797 Z-3.000 F300.000
G1 X-3.161 Y-16.797 Z-3.000 F300.000
G1 X12.555 Y-1.082 Z-3.000 F300.000
G1 X12.555 Y-3.327 Z-3.000 F300.000
G1 X-0.916 Y-16.797 Z-3.000 F300.000
G1 X1.329 Y-16.797 Z-3.000 F300.000
G1 X12.555 Y-5.572 Z-3.000 F300.000
G1 X12.555 Y-7.817 Z-3.000 F300.000
G1 X3.574 Y-16.797 Z-3.000 F300.000
G1 X5.819 Y-16.797 Z-3.000 F300.000
G1 X12.555 Y-10.062 Z-3.000 F300.000
G1 X12.555 Y-12.307 Z-3.000 F300.000
G1 X8.065 Y-16.797 Z-3.000 F300.000
G1 X10.310 Y-16.797 Z-3.000 F300.000
G1 X12.555 Y-14.552 Z-3.000 F300.000
G1 X12.555 Y-16.797 Z-3.000 F300.000
G1 X12.555 Y-16.797 Z-3.600 F120.000
G1 X12.555 Y-14.552 Z-3.600 F300.000
G1 X10.310 Y-16.797 Z-3.600 F300.000
G1 X8.065 Y-16.797 Z-3.600 F300.000
G1 X12.555 Y-12.307 Z-3.600 F300.000
G1 X12.555 Y-10.062 Z-3.600 F300.000
G1 X5.819 Y-16.797 Z-3.600 F300.000
G1 X3.574 Y-16.797 Z-3.600 F300.000
G1 X12.555 Y-7.817 Z-3.600 F300.000
G1 X12.555 Y-5.572 Z-3.600 F300.000
G1 X1.329 Y-16.797 Z-3.600 F300.000
G1 X-0.916 Y-16.797 Z-3.600 F300.000
G1 X12.555 Y-3.327 Z-3.600 F300.000
G1 X12.555 Y-1.082 Z-3.600 F300.000
G1 X-3.161 Y-16.797 Z-3.600 F300.000
G1 X-5.406 Y-16.797 Z-3.600 F300.000
G1 X12.555 Y1.163 Z-3.600 F300.000
G1 X12.555 Y3.408 Z-3.600 F300.000
G1 X-7.651 Y-16.797 Z-3.600 F300.000
G1 X-9.896 Y-16.797 Z-3.600 F300.000
G1 X12.555 Y5.653 Z-3.600 F300.000
G1 X12.555 Y7.898 Z-3.600 F300.000
G1 X-12.141 Y-16.797 Z-3.600 F300.000
G1 X-12.860 Y-16.797 Z-3.600 F300.000
G1 X-12.860 Y-15.271 Z-3.600 F300.000
G1 X12.555 Y10.143 Z-3.600 F300.000
G1 X12.555 Y12.389 Z-3.600 F300.000
G1 X-12.860 Y-13.026 Z-3.600 F300.000
G1 X-12.860 Y-10.781 Z-3.600 F300.000
G1 X12.555 Y14.634 Z-3.600 F300.000
G1 X12.555 Y16.797 Z-3.600 F300.000
G1 X12.473 Y16.797 Z-3.600 F300.000
G1 X-12.860 Y-8.536 Z-3.600 F300.000
G1 X-12.860 Y-6.291 Z-3.600 F300.000
G1 X10.228 Y16.797 Z-3.600 F300.000
G1 X7.983 Y16.797 Z-3.600 F300.000
G1 X-12.860 Y-4.046 Z-3.600 F300.000
G1 X-12.860 Y-1.801 Z-3.600 F300.000
G1 X5.738 Y16.797 Z-3.600 F300.000
G1 X3.493 Y16.797 Z-3.600 F300.000
G1 X-12.860 Y0.444 Z-3.600 F300.000
G1 X-12.860 Y2.689 Z-3.600 F300.000
G1 X1.248 Y16.797 Z-3.600 F300.000
G1 X-0.997 Y16.797 Z-3.600 F300.000
G1 X-12.860 Y4.934 Z-3.600 F300.000
G1 X-12.860 Y7.179 Z-3.600 F300.000
G1 X-3.242 Y16.797 Z-3.600 F300.000
G1 X-5.487 Y16.797 Z-3.600 F300.000
G1 X-12.860 Y9.425 Z-3.600 F300.000
G1 X-12.860 Y11.670 Z-3.600 F300.000
G1 X-7.732 Y16.797 Z-3.600 F300.000
G1 X-9.977 Y16.797 Z-3.600 F300.000
G1 X-12.860 Y13.915 Z-3.600 F300.000
G1 X-12.860 Y16.160 Z-3.600 F300.000
G1 X-12.860 Y16.797 Z-3.600 F300.000
G1 X-12.222 Y16.797 Z-3.600 F300.000
G1 X-12.860 Y16.160 Z-3.600 F300.000
G0 Z5.000
G0 Z5.000
(Finish operation: MillFace)
(Begin operation: Profile002)
(Path: Profile002)
(Profile002)
(Compensated Tool Path. Diameter: 3.175)
G0 Z5.000
G0 X13.143 Y17.386
G0 Z3.000
G1 X13.143 Y17.386 Z-0.600 F120.000
G1 X15.265 Y15.265 Z-0.600 F300.000
G2 X15.265 Y13.020 Z-0.600 I-1.123 J-1.123 K0.000 F300.000
G1 X2.245 Y0.000 Z-0.600 F300.000
G1 X15.265 Y-13.020 Z-0.600 F300.000
G2 X15.265 Y-15.265 Z-0.600 I-1.123 J-1.123 K0.000 F300.000
G1 X11.022 Y-19.507 Z-0.600 F300.000
G1 X10.744 Y-19.729 Z-0.600 F300.000
G2 X8.777 Y-19.507 Z-0.600 I-0.845 J1.344 K0.000 F300.000
G1 X2.828 Y-13.559 Z-0.600 F300.000
G1 X-0.292 Y-16.679 Z-0.600 F300.000
G2 X-2.537 Y-16.679 Z-0.600 I-1.123 J1.123 K0.000 F300.000
G1 X-13.850 Y-5.365 Z-0.600 F300.000
G2 X-13.912 Y5.300 Z-0.600 I5.369 J5.364 K0.000 F300.000
G1 X-2.537 Y16.679 Z-0.600 F300.000
G2 X-0.292 Y16.679 Z-0.600 I1.123 J-1.123 K0.000 F300.000
G1 X2.828 Y13.559 Z-0.600 F300.000
G1 X8.777 Y19.507 Z-0.600 F300.000
G2 X11.022 Y19.507 Z-0.600 I1.123 J-1.123 K0.000 F300.000
G1 X13.143 Y17.386 Z-0.600 F300.000
G1 X13.143 Y17.386 Z-1.200 F120.000
G1 X15.265 Y15.265 Z-1.200 F300.000
G2 X15.265 Y13.020 Z-1.200 I-1.123 J-1.123 K0.000 F300.000
G1 X2.245 Y0.000 Z-1.200 F300.000
G1 X15.265 Y-13.020 Z-1.200 F300.000
G2 X15.265 Y-15.265 Z-1.200 I-1.123 J-1.123 K0.000 F300.000
G1 X11.022 Y-19.507 Z-1.200 F300.000
G1 X10.744 Y-19.729 Z-1.200 F300.000
G2 X8.777 Y-19.507 Z-1.200 I-0.845 J1.344 K0.000 F300.000
G1 X2.828 Y-13.559 Z-1.200 F300.000
G1 X-0.292 Y-16.679 Z-1.200 F300.000
G2 X-2.537 Y-16.679 Z-1.200 I-1.123 J1.123 K0.000 F300.000
G1 X-13.850 Y-5.365 Z-1.200 F300.000
G2 X-13.912 Y5.300 Z-1.200 I5.369 J5.364 K0.000 F300.000
G1 X-2.537 Y16.679 Z-1.200 F300.000
G2 X-0.292 Y16.679 Z-1.200 I1.123 J-1.123 K0.000 F300.000
G1 X2.828 Y13.559 Z-1.200 F300.000
G1 X8.777 Y19.507 Z-1.200 F300.000
G2 X11.022 Y19.507 Z-1.200 I1.123 J-1.123 K0.000 F300.000
G1 X13.143 Y17.386 Z-1.200 F300.000
G1 X13.143 Y17.386 Z-1.800 F120.000
G1 X15.265 Y15.265 Z-1.800 F300.000
G2 X15.265 Y13.020 Z-1.800 I-1.123 J-1.123 K0.000 F300.000
G1 X2.245 Y0.000 Z-1.800 F300.000
G1 X15.265 Y-13.020 Z-1.800 F300.000
G2 X15.265 Y-15.265 Z-1.800 I-1.123 J-1.123 K0.000 F300.000
G1 X11.022 Y-19.507 Z-1.800 F300.000
G1 X10.744 Y-19.729 Z-1.800 F300.000
G2 X8.777 Y-19.507 Z-1.800 I-0.845 J1.344 K0.000 F300.000
G1 X2.828 Y-13.559 Z-1.800 F300.000
G1 X-0.292 Y-16.679 Z-1.800 F300.000
G2 X-2.537 Y-16.679 Z-1.800 I-1.123 J1.123 K0.000 F300.000
G1 X-13.850 Y-5.365 Z-1.800 F300.000
G2 X-13.912 Y5.300 Z-1.800 I5.369 J5.364 K0.000 F300.000
G1 X-2.537 Y16.679 Z-1.800 F300.000
G2 X-0.292 Y16.679 Z-1.800 I1.123 J-1.123 K0.000 F300.000
G1 X2.828 Y13.559 Z-1.800 F300.000
G1 X8.777 Y19.507 Z-1.800 F300.000
G2 X11.022 Y19.507 Z-1.800 I1.123 J-1.123 K0.000 F300.000
G1 X13.143 Y17.386 Z-1.800 F300.000
G1 X13.143 Y17.386 Z-2.400 F120.000
G1 X15.265 Y15.265 Z-2.400 F300.000
G2 X15.265 Y13.020 Z-2.400 I-1.123 J-1.123 K0.000 F300.000
G1 X2.245 Y0.000 Z-2.400 F300.000
G1 X15.265 Y-13.020 Z-2.400 F300.000
G2 X15.265 Y-15.265 Z-2.400 I-1.123 J-1.123 K0.000 F300.000
G1 X11.022 Y-19.507 Z-2.400 F300.000
G1 X10.744 Y-19.729 Z-2.400 F300.000
G2 X8.777 Y-19.507 Z-2.400 I-0.845 J1.344 K0.000 F300.000
G1 X2.828 Y-13.559 Z-2.400 F300.000
G1 X-0.292 Y-16.679 Z-2.400 F300.000
G2 X-2.537 Y-16.679 Z-2.400 I-1.123 J1.123 K0.000 F300.000
G1 X-13.850 Y-5.365 Z-2.400 F300.000
G2 X-13.912 Y5.300 Z-2.400 I5.369 J5.364 K0.000 F300.000
G1 X-2.537 Y16.679 Z-2.400 F300.000
G2 X-0.292 Y16.679 Z-2.400 I1.123 J-1.123 K0.000 F300.000
G1 X2.828 Y13.559 Z-2.400 F300.000
G1 X8.777 Y19.507 Z-2.400 F300.000
G2 X11.022 Y19.507 Z-2.400 I1.123 J-1.123 K0.000 F300.000
G1 X13.143 Y17.386 Z-2.400 F300.000
G1 X13.143 Y17.386 Z-3.000 F120.000
G1 X15.265 Y15.265 Z-3.000 F300.000
G2 X15.265 Y13.020 Z-3.000 I-1.123 J-1.123 K0.000 F300.000
G1 X2.245 Y0.000 Z-3.000 F300.000
G1 X15.265 Y-13.020 Z-3.000 F300.000
G2 X15.265 Y-15.265 Z-3.000 I-1.123 J-1.123 K0.000 F300.000
G1 X11.022 Y-19.507 Z-3.000 F300.000
G1 X10.744 Y-19.729 Z-3.000 F300.000
G2 X8.777 Y-19.507 Z-3.000 I-0.845 J1.344 K0.000 F300.000
G1 X2.828 Y-13.559 Z-3.000 F300.000
G1 X-0.292 Y-16.679 Z-3.000 F300.000
G2 X-2.537 Y-16.679 Z-3.000 I-1.123 J1.123 K0.000 F300.000
G1 X-13.850 Y-5.365 Z-3.000 F300.000
G2 X-13.912 Y5.300 Z-3.000 I5.369 J5.364 K0.000 F300.000
G1 X-2.537 Y16.679 Z-3.000 F300.000
G2 X-0.292 Y16.679 Z-3.000 I1.123 J-1.123 K0.000 F300.000
G1 X2.828 Y13.559 Z-3.000 F300.000
G1 X8.777 Y19.507 Z-3.000 F300.000
G2 X11.022 Y19.507 Z-3.000 I1.123 J-1.123 K0.000 F300.000
G1 X13.143 Y17.386 Z-3.000 F300.000
G1 X13.143 Y17.386 Z-3.600 F120.000
G1 X15.265 Y15.265 Z-3.600 F300.000
G2 X15.265 Y13.020 Z-3.600 I-1.123 J-1.123 K0.000 F300.000
G1 X2.245 Y0.000 Z-3.600 F300.000
G1 X15.265 Y-13.020 Z-3.600 F300.000
G2 X15.265 Y-15.265 Z-3.600 I-1.123 J-1.123 K0.000 F300.000
G1 X11.022 Y-19.507 Z-3.600 F300.000
G1 X10.744 Y-19.729 Z-3.600 F300.000
G2 X8.777 Y-19.507 Z-3.600 I-0.845 J1.344 K0.000 F300.000
G1 X2.828 Y-13.559 Z-3.600 F300.000
G1 X-0.292 Y-16.679 Z-3.600 F300.000
G2 X-2.537 Y-16.679 Z-3.600 I-1.123 J1.123 K0.000 F300.000
G1 X-13.850 Y-5.365 Z-3.600 F300.000
G2 X-13.912 Y5.300 Z-3.600 I5.369 J5.364 K0.000 F300.000
G1 X-2.537 Y16.679 Z-3.600 F300.000
G2 X-0.292 Y16.679 Z-3.600 I1.123 J-1.123 K0.000 F300.000
G1 X2.828 Y13.559 Z-3.600 F300.000
G1 X8.777 Y19.507 Z-3.600 F300.000
G2 X11.022 Y19.507 Z-3.600 I1.123 J-1.123 K0.000 F300.000
G1 X13.143 Y17.386 Z-3.600 F300.000
G1 X13.143 Y17.386 Z-4.200 F120.000
G1 X15.265 Y15.265 Z-4.200 F300.000
G2 X15.265 Y13.020 Z-4.200 I-1.123 J-1.123 K0.000 F300.000
G1 X2.245 Y0.000 Z-4.200 F300.000
G1 X15.265 Y-13.020 Z-4.200 F300.000
G2 X15.265 Y-15.265 Z-4.200 I-1.123 J-1.123 K0.000 F300.000
G1 X11.022 Y-19.507 Z-4.200 F300.000
G1 X10.744 Y-19.729 Z-4.200 F300.000
G2 X8.777 Y-19.507 Z-4.200 I-0.845 J1.344 K0.000 F300.000
G1 X2.828 Y-13.559 Z-4.200 F300.000
G1 X-0.292 Y-16.679 Z-4.200 F300.000
G2 X-2.537 Y-16.679 Z-4.200 I-1.123 J1.123 K0.000 F300.000
G1 X-13.850 Y-5.365 Z-4.200 F300.000
G2 X-13.912 Y5.300 Z-4.200 I5.369 J5.364 K0.000 F300.000
G1 X-2.537 Y16.679 Z-4.200 F300.000
G2 X-0.292 Y16.679 Z-4.200 I1.123 J-1.123 K0.000 F300.000
G1 X2.828 Y13.559 Z-4.200 F300.000
G1 X8.777 Y19.507 Z-4.200 F300.000
G2 X11.022 Y19.507 Z-4.200 I1.123 J-1.123 K0.000 F300.000
G1 X13.143 Y17.386 Z-4.200 F300.000
G1 X13.143 Y17.386 Z-4.800 F120.000
G1 X15.265 Y15.265 Z-4.800 F300.000
G2 X15.265 Y13.020 Z-4.800 I-1.123 J-1.123 K0.000 F300.000
G1 X2.245 Y0.000 Z-4.800 F300.000
G1 X15.265 Y-13.020 Z-4.800 F300.000
G2 X15.265 Y-15.265 Z-4.800 I-1.123 J-1.123 K0.000 F300.000
G1 X11.022 Y-19.507 Z-4.800 F300.000
G1 X10.744 Y-19.729 Z-4.800 F300.000
G2 X8.777 Y-19.507 Z-4.800 I-0.845 J1.344 K0.000 F300.000
G1 X2.828 Y-13.559 Z-4.800 F300.000
G1 X-0.292 Y-16.679 Z-4.800 F300.000
G2 X-2.537 Y-16.679 Z-4.800 I-1.123 J1.123 K0.000 F300.000
G1 X-13.850 Y-5.365 Z-4.800 F300.000
G2 X-13.912 Y5.300 Z-4.800 I5.369 J5.364 K0.000 F300.000
G1 X-2.537 Y16.679 Z-4.800 F300.000
G2 X-0.292 Y16.679 Z-4.800 I1.123 J-1.123 K0.000 F300.000
G1 X2.828 Y13.559 Z-4.800 F300.000
G1 X8.777 Y19.507 Z-4.800 F300.000
G2 X11.022 Y19.507 Z-4.800 I1.123 J-1.123 K0.000 F300.000
G1 X13.143 Y17.386 Z-4.800 F300.000
G1 X13.143 Y17.386 Z-5.400 F120.000
G1 X15.265 Y15.265 Z-5.400 F300.000
G2 X15.265 Y13.020 Z-5.400 I-1.123 J-1.123 K0.000 F300.000
G1 X2.245 Y0.000 Z-5.400 F300.000
G1 X15.265 Y-13.020 Z-5.400 F300.000
G2 X15.265 Y-15.265 Z-5.400 I-1.123 J-1.123 K0.000 F300.000
G1 X11.022 Y-19.507 Z-5.400 F300.000
G1 X10.744 Y-19.729 Z-5.400 F300.000
G2 X8.777 Y-19.507 Z-5.400 I-0.845 J1.344 K0.000 F300.000
G1 X2.828 Y-13.559 Z-5.400 F300.000
G1 X-0.292 Y-16.679 Z-5.400 F300.000
G2 X-2.537 Y-16.679 Z-5.400 I-1.123 J1.123 K0.000 F300.000
G1 X-13.850 Y-5.365 Z-5.400 F300.000
G2 X-13.912 Y5.300 Z-5.400 I5.369 J5.364 K0.000 F300.000
G1 X-2.537 Y16.679 Z-5.400 F300.000
G2 X-0.292 Y16.679 Z-5.400 I1.123 J-1.123 K0.000 F300.000
G1 X2.828 Y13.559 Z-5.400 F300.000
G1 X8.777 Y19.507 Z-5.400 F300.000
G2 X11.022 Y19.507 Z-5.400 I1.123 J-1.123 K0.000 F300.000
G1 X13.143 Y17.386 Z-5.400 F300.000
G1 X13.143 Y17.386 Z-6.000 F120.000
G1 X15.265 Y15.265 Z-6.000 F300.000
G2 X15.265 Y13.020 Z-6.000 I-1.123 J-1.123 K0.000 F300.000
G1 X2.245 Y0.000 Z-6.000 F300.000
G1 X15.265 Y-13.020 Z-6.000 F300.000
G2 X15.265 Y-15.265 Z-6.000 I-1.123 J-1.123 K0.000 F300.000
G1 X11.022 Y-19.507 Z-6.000 F300.000
G1 X10.744 Y-19.729 Z-6.000 F300.000
G2 X8.777 Y-19.507 Z-6.000 I-0.845 J1.344 K0.000 F300.000
G1 X2.828 Y-13.559 Z-6.000 F300.000
G1 X-0.292 Y-16.679 Z-6.000 F300.000
G2 X-2.537 Y-16.679 Z-6.000 I-1.123 J1.123 K0.000 F300.000
G1 X-13.850 Y-5.365 Z-6.000 F300.000
G2 X-13.912 Y5.300 Z-6.000 I5.369 J5.364 K0.000 F300.000
G1 X-2.537 Y16.679 Z-6.000 F300.000
G2 X-0.292 Y16.679 Z-6.000 I1.123 J-1.123 K0.000 F300.000
G1 X2.828 Y13.559 Z-6.000 F300.000
G1 X8.777 Y19.507 Z-6.000 F300.000
G2 X11.022 Y19.507 Z-6.000 I1.123 J-1.123 K0.000 F300.000
G1 X13.143 Y17.386 Z-6.000 F300.000
G0 Z5.000
G0 Z5.000
(Finish operation: Profile002)
(Begin postamble)
M5
G17 G90
M2
M30
