
;Exported by FreeCAD
;Post Processor: centroid_post
;CAM file: /home/stl/Arduino/Projekte/ESP32_Web_Radio_Philco/philco_45c/Philco_45c-Eckverbinder.FCStd
;Output Time: 2021-05-10 13:15:39.647795
G90 G80 G40 G49
;T1=__8_Straight
;begin preamble
G53 G00 G17
G21
;begin operation
G54
;end operation: Fixture
;begin operation
;1/8 Straight001
M6 T1
M3 S10000
;end operation: 1/8 Straight001
;begin operation
;Profile
;Compensated Tool Path. Diameter: 3.175
G0 Z5.0000
G0 X13.1433 Y17.3860
G0 Z3.0000
G1 X13.1433 Y17.3860 Z-0.6000 F120.0
G1 X15.2647 Y15.2647 Z-0.6000 F300.0
G2 X15.2647 Y13.0196 Z-0.6000 I-1.1225 J-1.1225 F300.0
G1 X2.2451 Y0.0000 Z-0.6000 F300.0
G1 X15.2647 Y-13.0196 Z-0.6000 F300.0
G2 X15.2647 Y-15.2647 Z-0.6000 I-1.1225 J-1.1225 F300.0
G1 X11.0220 Y-19.5073 Z-0.6000 F300.0
G1 X10.7441 Y-19.7290 Z-0.6000 F300.0
G2 X8.7770 Y-19.5073 Z-0.6000 I-0.8446 J1.3442 F300.0
G1 X2.8284 Y-13.5588 Z-0.6000 F300.0
G1 X-0.2917 Y-16.6789 Z-0.6000 F300.0
G2 X-2.5367 Y-16.6789 Z-0.6000 I-1.1225 J1.1225 F300.0
G1 X-13.8505 Y-5.3652 Z-0.6000 F300.0
G2 X-13.9116 Y5.3005 Z-0.6000 I5.3686 J5.3638 F300.0
G1 X-2.5367 Y16.6789 Z-0.6000 F300.0
G2 X-0.2917 Y16.6789 Z-0.6000 I1.1225 J-1.1225 F300.0
G1 X2.8284 Y13.5588 Z-0.6000 F300.0
G1 X8.7770 Y19.5073 Z-0.6000 F300.0
G2 X11.0220 Y19.5073 Z-0.6000 I1.1225 J-1.1225 F300.0
G1 X13.1433 Y17.3860 Z-0.6000 F300.0
G1 X13.1433 Y17.3860 Z-1.2000 F120.0
G1 X15.2647 Y15.2647 Z-1.2000 F300.0
G2 X15.2647 Y13.0196 Z-1.2000 I-1.1225 J-1.1225 F300.0
G1 X2.2451 Y0.0000 Z-1.2000 F300.0
G1 X15.2647 Y-13.0196 Z-1.2000 F300.0
G2 X15.2647 Y-15.2647 Z-1.2000 I-1.1225 J-1.1225 F300.0
G1 X11.0220 Y-19.5073 Z-1.2000 F300.0
G1 X10.7441 Y-19.7290 Z-1.2000 F300.0
G2 X8.7770 Y-19.5073 Z-1.2000 I-0.8446 J1.3442 F300.0
G1 X2.8284 Y-13.5588 Z-1.2000 F300.0
G1 X-0.2917 Y-16.6789 Z-1.2000 F300.0
G2 X-2.5367 Y-16.6789 Z-1.2000 I-1.1225 J1.1225 F300.0
G1 X-13.8505 Y-5.3652 Z-1.2000 F300.0
G2 X-13.9116 Y5.3005 Z-1.2000 I5.3686 J5.3638 F300.0
G1 X-2.5367 Y16.6789 Z-1.2000 F300.0
G2 X-0.2917 Y16.6789 Z-1.2000 I1.1225 J-1.1225 F300.0
G1 X2.8284 Y13.5588 Z-1.2000 F300.0
G1 X8.7770 Y19.5073 Z-1.2000 F300.0
G2 X11.0220 Y19.5073 Z-1.2000 I1.1225 J-1.1225 F300.0
G1 X13.1433 Y17.3860 Z-1.2000 F300.0
G1 X13.1433 Y17.3860 Z-1.8000 F120.0
G1 X15.2647 Y15.2647 Z-1.8000 F300.0
G2 X15.2647 Y13.0196 Z-1.8000 I-1.1225 J-1.1225 F300.0
G1 X2.2451 Y0.0000 Z-1.8000 F300.0
G1 X15.2647 Y-13.0196 Z-1.8000 F300.0
G2 X15.2647 Y-15.2647 Z-1.8000 I-1.1225 J-1.1225 F300.0
G1 X11.0220 Y-19.5073 Z-1.8000 F300.0
G1 X10.7441 Y-19.7290 Z-1.8000 F300.0
G2 X8.7770 Y-19.5073 Z-1.8000 I-0.8446 J1.3442 F300.0
G1 X2.8284 Y-13.5588 Z-1.8000 F300.0
G1 X-0.2917 Y-16.6789 Z-1.8000 F300.0
G2 X-2.5367 Y-16.6789 Z-1.8000 I-1.1225 J1.1225 F300.0
G1 X-13.8505 Y-5.3652 Z-1.8000 F300.0
G2 X-13.9116 Y5.3005 Z-1.8000 I5.3686 J5.3638 F300.0
G1 X-2.5367 Y16.6789 Z-1.8000 F300.0
G2 X-0.2917 Y16.6789 Z-1.8000 I1.1225 J-1.1225 F300.0
G1 X2.8284 Y13.5588 Z-1.8000 F300.0
G1 X8.7770 Y19.5073 Z-1.8000 F300.0
G2 X11.0220 Y19.5073 Z-1.8000 I1.1225 J-1.1225 F300.0
G1 X13.1433 Y17.3860 Z-1.8000 F300.0
G1 X13.1433 Y17.3860 Z-2.4000 F120.0
G1 X15.2647 Y15.2647 Z-2.4000 F300.0
G2 X15.2647 Y13.0196 Z-2.4000 I-1.1225 J-1.1225 F300.0
G1 X2.2451 Y0.0000 Z-2.4000 F300.0
G1 X15.2647 Y-13.0196 Z-2.4000 F300.0
G2 X15.2647 Y-15.2647 Z-2.4000 I-1.1225 J-1.1225 F300.0
G1 X11.0220 Y-19.5073 Z-2.4000 F300.0
G1 X10.7441 Y-19.7290 Z-2.4000 F300.0
G2 X8.7770 Y-19.5073 Z-2.4000 I-0.8446 J1.3442 F300.0
G1 X2.8284 Y-13.5588 Z-2.4000 F300.0
G1 X-0.2917 Y-16.6789 Z-2.4000 F300.0
G2 X-2.5367 Y-16.6789 Z-2.4000 I-1.1225 J1.1225 F300.0
G1 X-13.8505 Y-5.3652 Z-2.4000 F300.0
G2 X-13.9116 Y5.3005 Z-2.4000 I5.3686 J5.3638 F300.0
G1 X-2.5367 Y16.6789 Z-2.4000 F300.0
G2 X-0.2917 Y16.6789 Z-2.4000 I1.1225 J-1.1225 F300.0
G1 X2.8284 Y13.5588 Z-2.4000 F300.0
G1 X8.7770 Y19.5073 Z-2.4000 F300.0
G2 X11.0220 Y19.5073 Z-2.4000 I1.1225 J-1.1225 F300.0
G1 X13.1433 Y17.3860 Z-2.4000 F300.0
G1 X13.1433 Y17.3860 Z-3.0000 F120.0
G1 X15.2647 Y15.2647 Z-3.0000 F300.0
G2 X15.2647 Y13.0196 Z-3.0000 I-1.1225 J-1.1225 F300.0
G1 X2.2451 Y0.0000 Z-3.0000 F300.0
G1 X15.2647 Y-13.0196 Z-3.0000 F300.0
G2 X15.2647 Y-15.2647 Z-3.0000 I-1.1225 J-1.1225 F300.0
G1 X11.0220 Y-19.5073 Z-3.0000 F300.0
G1 X10.7441 Y-19.7290 Z-3.0000 F300.0
G2 X8.7770 Y-19.5073 Z-3.0000 I-0.8446 J1.3442 F300.0
G1 X2.8284 Y-13.5588 Z-3.0000 F300.0
G1 X-0.2917 Y-16.6789 Z-3.0000 F300.0
G2 X-2.5367 Y-16.6789 Z-3.0000 I-1.1225 J1.1225 F300.0
G1 X-13.8505 Y-5.3652 Z-3.0000 F300.0
G2 X-13.9116 Y5.3005 Z-3.0000 I5.3686 J5.3638 F300.0
G1 X-2.5367 Y16.6789 Z-3.0000 F300.0
G2 X-0.2917 Y16.6789 Z-3.0000 I1.1225 J-1.1225 F300.0
G1 X2.8284 Y13.5588 Z-3.0000 F300.0
G1 X8.7770 Y19.5073 Z-3.0000 F300.0
G2 X11.0220 Y19.5073 Z-3.0000 I1.1225 J-1.1225 F300.0
G1 X13.1433 Y17.3860 Z-3.0000 F300.0
G1 X13.1433 Y17.3860 Z-3.6000 F120.0
G1 X15.2647 Y15.2647 Z-3.6000 F300.0
G2 X15.2647 Y13.0196 Z-3.6000 I-1.1225 J-1.1225 F300.0
G1 X2.2451 Y0.0000 Z-3.6000 F300.0
G1 X15.2647 Y-13.0196 Z-3.6000 F300.0
G2 X15.2647 Y-15.2647 Z-3.6000 I-1.1225 J-1.1225 F300.0
G1 X11.0220 Y-19.5073 Z-3.6000 F300.0
G1 X10.7441 Y-19.7290 Z-3.6000 F300.0
G2 X8.7770 Y-19.5073 Z-3.6000 I-0.8446 J1.3442 F300.0
G1 X2.8284 Y-13.5588 Z-3.6000 F300.0
G1 X-0.2917 Y-16.6789 Z-3.6000 F300.0
G2 X-2.5367 Y-16.6789 Z-3.6000 I-1.1225 J1.1225 F300.0
G1 X-13.8505 Y-5.3652 Z-3.6000 F300.0
G2 X-13.9116 Y5.3005 Z-3.6000 I5.3686 J5.3638 F300.0
G1 X-2.5367 Y16.6789 Z-3.6000 F300.0
G2 X-0.2917 Y16.6789 Z-3.6000 I1.1225 J-1.1225 F300.0
G1 X2.8284 Y13.5588 Z-3.6000 F300.0
G1 X8.7770 Y19.5073 Z-3.6000 F300.0
G2 X11.0220 Y19.5073 Z-3.6000 I1.1225 J-1.1225 F300.0
G1 X13.1433 Y17.3860 Z-3.6000 F300.0
G1 X13.1433 Y17.3860 Z-4.2000 F120.0
G1 X15.2647 Y15.2647 Z-4.2000 F300.0
G2 X15.2647 Y13.0196 Z-4.2000 I-1.1225 J-1.1225 F300.0
G1 X2.2451 Y0.0000 Z-4.2000 F300.0
G1 X15.2647 Y-13.0196 Z-4.2000 F300.0
G2 X15.2647 Y-15.2647 Z-4.2000 I-1.1225 J-1.1225 F300.0
G1 X11.0220 Y-19.5073 Z-4.2000 F300.0
G1 X10.7441 Y-19.7290 Z-4.2000 F300.0
G2 X8.7770 Y-19.5073 Z-4.2000 I-0.8446 J1.3442 F300.0
G1 X2.8284 Y-13.5588 Z-4.2000 F300.0
G1 X-0.2917 Y-16.6789 Z-4.2000 F300.0
G2 X-2.5367 Y-16.6789 Z-4.2000 I-1.1225 J1.1225 F300.0
G1 X-13.8505 Y-5.3652 Z-4.2000 F300.0
G2 X-13.9116 Y5.3005 Z-4.2000 I5.3686 J5.3638 F300.0
G1 X-2.5367 Y16.6789 Z-4.2000 F300.0
G2 X-0.2917 Y16.6789 Z-4.2000 I1.1225 J-1.1225 F300.0
G1 X2.8284 Y13.5588 Z-4.2000 F300.0
G1 X8.7770 Y19.5073 Z-4.2000 F300.0
G2 X11.0220 Y19.5073 Z-4.2000 I1.1225 J-1.1225 F300.0
G1 X13.1433 Y17.3860 Z-4.2000 F300.0
G1 X13.1433 Y17.3860 Z-4.8000 F120.0
G1 X15.2647 Y15.2647 Z-4.8000 F300.0
G2 X15.2647 Y13.0196 Z-4.8000 I-1.1225 J-1.1225 F300.0
G1 X2.2451 Y0.0000 Z-4.8000 F300.0
G1 X15.2647 Y-13.0196 Z-4.8000 F300.0
G2 X15.2647 Y-15.2647 Z-4.8000 I-1.1225 J-1.1225 F300.0
G1 X11.0220 Y-19.5073 Z-4.8000 F300.0
G1 X10.7441 Y-19.7290 Z-4.8000 F300.0
G2 X8.7770 Y-19.5073 Z-4.8000 I-0.8446 J1.3442 F300.0
G1 X2.8284 Y-13.5588 Z-4.8000 F300.0
G1 X-0.2917 Y-16.6789 Z-4.8000 F300.0
G2 X-2.5367 Y-16.6789 Z-4.8000 I-1.1225 J1.1225 F300.0
G1 X-13.8505 Y-5.3652 Z-4.8000 F300.0
G2 X-13.9116 Y5.3005 Z-4.8000 I5.3686 J5.3638 F300.0
G1 X-2.5367 Y16.6789 Z-4.8000 F300.0
G2 X-0.2917 Y16.6789 Z-4.8000 I1.1225 J-1.1225 F300.0
G1 X2.8284 Y13.5588 Z-4.8000 F300.0
G1 X8.7770 Y19.5073 Z-4.8000 F300.0
G2 X11.0220 Y19.5073 Z-4.8000 I1.1225 J-1.1225 F300.0
G1 X13.1433 Y17.3860 Z-4.8000 F300.0
G1 X13.1433 Y17.3860 Z-5.4000 F120.0
G1 X15.2647 Y15.2647 Z-5.4000 F300.0
G2 X15.2647 Y13.0196 Z-5.4000 I-1.1225 J-1.1225 F300.0
G1 X2.2451 Y0.0000 Z-5.4000 F300.0
G1 X15.2647 Y-13.0196 Z-5.4000 F300.0
G2 X15.2647 Y-15.2647 Z-5.4000 I-1.1225 J-1.1225 F300.0
G1 X11.0220 Y-19.5073 Z-5.4000 F300.0
G1 X10.7441 Y-19.7290 Z-5.4000 F300.0
G2 X8.7770 Y-19.5073 Z-5.4000 I-0.8446 J1.3442 F300.0
G1 X2.8284 Y-13.5588 Z-5.4000 F300.0
G1 X-0.2917 Y-16.6789 Z-5.4000 F300.0
G2 X-2.5367 Y-16.6789 Z-5.4000 I-1.1225 J1.1225 F300.0
G1 X-13.8505 Y-5.3652 Z-5.4000 F300.0
G2 X-13.9116 Y5.3005 Z-5.4000 I5.3686 J5.3638 F300.0
G1 X-2.5367 Y16.6789 Z-5.4000 F300.0
G2 X-0.2917 Y16.6789 Z-5.4000 I1.1225 J-1.1225 F300.0
G1 X2.8284 Y13.5588 Z-5.4000 F300.0
G1 X8.7770 Y19.5073 Z-5.4000 F300.0
G2 X11.0220 Y19.5073 Z-5.4000 I1.1225 J-1.1225 F300.0
G1 X13.1433 Y17.3860 Z-5.4000 F300.0
G1 X13.1433 Y17.3860 Z-6.0000 F120.0
G1 X15.2647 Y15.2647 Z-6.0000 F300.0
G2 X15.2647 Y13.0196 Z-6.0000 I-1.1225 J-1.1225 F300.0
G1 X2.2451 Y0.0000 Z-6.0000 F300.0
G1 X15.2647 Y-13.0196 Z-6.0000 F300.0
G2 X15.2647 Y-15.2647 Z-6.0000 I-1.1225 J-1.1225 F300.0
G1 X11.0220 Y-19.5073 Z-6.0000 F300.0
G1 X10.7441 Y-19.7290 Z-6.0000 F300.0
G2 X8.7770 Y-19.5073 Z-6.0000 I-0.8446 J1.3442 F300.0
G1 X2.8284 Y-13.5588 Z-6.0000 F300.0
G1 X-0.2917 Y-16.6789 Z-6.0000 F300.0
G2 X-2.5367 Y-16.6789 Z-6.0000 I-1.1225 J1.1225 F300.0
G1 X-13.8505 Y-5.3652 Z-6.0000 F300.0
G2 X-13.9116 Y5.3005 Z-6.0000 I5.3686 J5.3638 F300.0
G1 X-2.5367 Y16.6789 Z-6.0000 F300.0
G2 X-0.2917 Y16.6789 Z-6.0000 I1.1225 J-1.1225 F300.0
G1 X2.8284 Y13.5588 Z-6.0000 F300.0
G1 X8.7770 Y19.5073 Z-6.0000 F300.0
G2 X11.0220 Y19.5073 Z-6.0000 I1.1225 J-1.1225 F300.0
G1 X13.1433 Y17.3860 Z-6.0000 F300.0
G0 Z5.0000
G0 Z5.0000
;end operation: Profile
;begin postamble
M5
M25
G49 H0
G90 G80 G40 G49
M99
M30
