(Exported by FreeCAD)
(Post Processor: grbl_post)
(Output Time:2021-05-10 13:19:32.243621)
(Begin preamble)
G17 G90
G21
(Begin operation: Fixture)
(Path: Fixture)
G54
(Finish operation: Fixture)
(Begin operation: 1/8 Straight003)
(Path: 1/8 Straight003)
(1/8 Straight003)
(Begin toolchange)
( M6 T1.0 )
M3 S10000.0
(Finish operation: 1/8 Straight003)
(Begin operation: Pocket_3D)
(Path: Pocket_3D)
(Pocket_3D)
G0 Z5.000
G0 X18.412 Y4.412
G0 Z3.000
G1 X18.412 Y4.412 Z-0.600 F120.000
G1 X18.412 Y1.587 Z-0.600 F300.000
G1 X0.000 Y1.588 Z-0.600 F300.000
G3 X-1.587 Y-0.000 Z-0.600 I0.000 J-1.588 K0.000 F300.000
G1 X-1.588 Y-18.413 Z-0.600 F300.000
G1 X-3.365 Y-18.413 Z-0.600 F300.000
G1 X-3.365 Y-17.365 Z-0.600 F300.000
G1 X-2.635 Y-17.365 Z-0.600 F300.000
G1 X-2.635 Y0.000 Z-0.600 F300.000
G1 X-2.635 Y-17.365 Z-0.600 F300.000
G1 X-3.365 Y-17.365 Z-0.600 F300.000
G1 X-3.365 Y3.365 Z-0.600 F300.000
G1 X-3.365 Y-17.365 Z-0.600 F300.000
G1 X-3.365 Y-18.413 Z-0.600 F300.000
G1 X-4.412 Y-18.413 Z-0.600 F300.000
G1 X-4.412 Y4.412 Z-0.600 F300.000
G1 X18.412 Y4.412 Z-0.600 F300.000
G0 Z5.000
G0 X17.365 Y3.365 Z5.000
G0 X17.365 Y3.365 Z3.000
G1 X17.365 Y3.365 Z-0.600 F120.000
G1 X-3.365 Y3.365 Z-0.600 F300.000
G1 X17.365 Y3.365 Z-0.600 F300.000
G1 X17.365 Y2.635 Z-0.600 F300.000
G1 X0.000 Y2.635 Z-0.600 F300.000
G3 X-2.635 Y0.000 Z-0.600 I0.010 J-2.645 K0.000 F300.000
G2 X0.000 Y2.635 Z-0.600 I2.645 J-0.010 K0.000 F300.000
G1 X17.365 Y2.635 Z-0.600 F300.000
G1 X17.365 Y3.365 Z-0.600 F300.000
G1 X17.365 Y3.365 Z-1.200 F120.000
G1 X-3.365 Y3.365 Z-1.200 F300.000
G1 X17.365 Y3.365 Z-1.200 F300.000
G1 X17.365 Y2.635 Z-1.200 F300.000
G1 X0.000 Y2.635 Z-1.200 F300.000
G3 X-2.635 Y0.000 Z-1.200 I0.010 J-2.645 K0.000 F300.000
G2 X0.000 Y2.635 Z-1.200 I2.645 J-0.010 K0.000 F300.000
G1 X17.365 Y2.635 Z-1.200 F300.000
G1 X17.365 Y3.365 Z-1.200 F300.000
G0 Z5.000
G0 X18.412 Z5.000
G0 X18.412 Z3.000
G1 X18.412 Y3.365 Z-1.200 F120.000
G1 X18.412 Y1.587 Z-1.200 F300.000
G1 X0.000 Y1.588 Z-1.200 F300.000
G3 X-1.587 Y-0.000 Z-1.200 I0.000 J-1.588 K0.000 F300.000
G1 X-1.588 Y-18.413 Z-1.200 F300.000
G1 X-3.365 Y-18.413 Z-1.200 F300.000
G1 X-3.365 Y-17.365 Z-1.200 F300.000
G1 X-2.635 Y-17.365 Z-1.200 F300.000
G1 X-2.635 Y0.000 Z-1.200 F300.000
G1 X-2.635 Y-17.365 Z-1.200 F300.000
G1 X-3.365 Y-17.365 Z-1.200 F300.000
G1 X-3.365 Y3.365 Z-1.200 F300.000
G1 X-3.365 Y-17.365 Z-1.200 F300.000
G1 X-3.365 Y-18.413 Z-1.200 F300.000
G1 X-4.412 Y-18.413 Z-1.200 F300.000
G1 X-4.412 Y4.412 Z-1.200 F300.000
G1 X18.412 Y4.412 Z-1.200 F300.000
G1 X18.412 Y3.365 Z-1.200 F300.000
G1 X18.412 Y3.365 Z-1.800 F120.000
G1 X18.412 Y1.587 Z-1.800 F300.000
G1 X0.000 Y1.588 Z-1.800 F300.000
G3 X-1.587 Y-0.000 Z-1.800 I0.000 J-1.588 K0.000 F300.000
G1 X-1.588 Y-18.413 Z-1.800 F300.000
G1 X-3.365 Y-18.413 Z-1.800 F300.000
G1 X-3.365 Y-17.365 Z-1.800 F300.000
G1 X-2.635 Y-17.365 Z-1.800 F300.000
G1 X-2.635 Y0.000 Z-1.800 F300.000
G1 X-2.635 Y-17.365 Z-1.800 F300.000
G1 X-3.365 Y-17.365 Z-1.800 F300.000
G1 X-3.365 Y3.365 Z-1.800 F300.000
G1 X-3.365 Y-17.365 Z-1.800 F300.000
G1 X-3.365 Y-18.413 Z-1.800 F300.000
G1 X-4.412 Y-18.413 Z-1.800 F300.000
G1 X-4.412 Y4.412 Z-1.800 F300.000
G1 X18.412 Y4.412 Z-1.800 F300.000
G1 X18.412 Y3.365 Z-1.800 F300.000
G0 Z5.000
G0 X17.365 Z5.000
G0 X17.365 Z3.000
G1 X17.365 Y3.365 Z-1.800 F120.000
G1 X-3.365 Y3.365 Z-1.800 F300.000
G1 X17.365 Y3.365 Z-1.800 F300.000
G1 X17.365 Y2.635 Z-1.800 F300.000
G1 X0.000 Y2.635 Z-1.800 F300.000
G3 X-2.635 Y0.000 Z-1.800 I0.010 J-2.645 K0.000 F300.000
G2 X0.000 Y2.635 Z-1.800 I2.645 J-0.010 K0.000 F300.000
G1 X17.365 Y2.635 Z-1.800 F300.000
G1 X17.365 Y3.365 Z-1.800 F300.000
G1 X17.365 Y3.365 Z-2.400 F120.000
G1 X-3.365 Y3.365 Z-2.400 F300.000
G1 X17.365 Y3.365 Z-2.400 F300.000
G1 X17.365 Y2.635 Z-2.400 F300.000
G1 X0.000 Y2.635 Z-2.400 F300.000
G3 X-2.635 Y0.000 Z-2.400 I0.010 J-2.645 K0.000 F300.000
G2 X0.000 Y2.635 Z-2.400 I2.645 J-0.010 K0.000 F300.000
G1 X17.365 Y2.635 Z-2.400 F300.000
G1 X17.365 Y3.365 Z-2.400 F300.000
G0 Z5.000
G0 X18.412 Z5.000
G0 X18.412 Z3.000
G1 X18.412 Y3.365 Z-2.400 F120.000
G1 X18.412 Y1.587 Z-2.400 F300.000
G1 X0.000 Y1.588 Z-2.400 F300.000
G3 X-1.587 Y-0.000 Z-2.400 I0.000 J-1.588 K0.000 F300.000
G1 X-1.588 Y-18.413 Z-2.400 F300.000
G1 X-3.365 Y-18.413 Z-2.400 F300.000
G1 X-3.365 Y-17.365 Z-2.400 F300.000
G1 X-2.635 Y-17.365 Z-2.400 F300.000
G1 X-2.635 Y0.000 Z-2.400 F300.000
G1 X-2.635 Y-17.365 Z-2.400 F300.000
G1 X-3.365 Y-17.365 Z-2.400 F300.000
G1 X-3.365 Y3.365 Z-2.400 F300.000
G1 X-3.365 Y-17.365 Z-2.400 F300.000
G1 X-3.365 Y-18.413 Z-2.400 F300.000
G1 X-4.412 Y-18.413 Z-2.400 F300.000
G1 X-4.412 Y4.412 Z-2.400 F300.000
G1 X18.412 Y4.412 Z-2.400 F300.000
G1 X18.412 Y3.365 Z-2.400 F300.000
G1 X18.412 Y3.365 Z-3.000 F120.000
G1 X18.412 Y1.587 Z-3.000 F300.000
G1 X0.000 Y1.588 Z-3.000 F300.000
G3 X-1.587 Y-0.000 Z-3.000 I0.000 J-1.588 K0.000 F300.000
G1 X-1.588 Y-18.413 Z-3.000 F300.000
G1 X-3.365 Y-18.413 Z-3.000 F300.000
G1 X-3.365 Y-17.365 Z-3.000 F300.000
G1 X-2.635 Y-17.365 Z-3.000 F300.000
G1 X-2.635 Y0.000 Z-3.000 F300.000
G1 X-2.635 Y-17.365 Z-3.000 F300.000
G1 X-3.365 Y-17.365 Z-3.000 F300.000
G1 X-3.365 Y3.365 Z-3.000 F300.000
G1 X-3.365 Y-17.365 Z-3.000 F300.000
G1 X-3.365 Y-18.413 Z-3.000 F300.000
G1 X-4.412 Y-18.413 Z-3.000 F300.000
G1 X-4.412 Y4.412 Z-3.000 F300.000
G1 X18.412 Y4.412 Z-3.000 F300.000
G1 X18.412 Y3.365 Z-3.000 F300.000
G0 Z5.000
G0 X17.365 Z5.000
G0 X17.365 Z3.000
G1 X17.365 Y3.365 Z-3.000 F120.000
G1 X-3.365 Y3.365 Z-3.000 F300.000
G1 X17.365 Y3.365 Z-3.000 F300.000
G1 X17.365 Y2.635 Z-3.000 F300.000
G1 X0.000 Y2.635 Z-3.000 F300.000
G3 X-2.635 Y0.000 Z-3.000 I0.010 J-2.645 K0.000 F300.000
G2 X0.000 Y2.635 Z-3.000 I2.645 J-0.010 K0.000 F300.000
G1 X17.365 Y2.635 Z-3.000 F300.000
G1 X17.365 Y3.365 Z-3.000 F300.000
G0 Z5.000
G0 Z5.000
(Finish operation: Pocket_3D)
(Begin operation: Profile001)
(Path: Profile001)
(Profile001)
(Compensated Tool Path. Diameter: 3.175)
G0 Z5.000
G0 X20.325 Y7.554
G0 Z3.000
G1 X20.325 Y7.554 Z-0.600 F120.000
G2 X21.587 Y6.000 Z-0.600 I-0.325 J-1.554 K0.000 F300.000
G1 X21.587 Y-0.000 Z-0.600 F300.000
G2 X20.000 Y-1.588 Z-0.600 I-1.587 J-0.000 K0.000 F300.000
G1 X1.588 Y-1.588 Z-0.600 F300.000
G1 X1.588 Y-20.000 Z-0.600 F300.000
G2 X0.000 Y-21.587 Z-0.600 I-1.587 J-0.000 K0.000 F300.000
G1 X-6.000 Y-21.587 Z-0.600 F300.000
G2 X-7.588 Y-20.000 Z-0.600 I-0.000 J1.587 K0.000 F300.000
G1 X-7.588 Y-11.588 Z-0.600 F300.000
G1 X-12.000 Y-11.588 Z-0.600 F300.000
G2 X-13.587 Y-10.000 Z-0.600 I-0.000 J1.587 K0.000 F300.000
G1 X-13.587 Y6.000 Z-0.600 F300.000
G2 X-6.089 Y13.585 Z-0.600 I7.589 J-0.003 K0.000 F300.000
G1 X10.000 Y13.587 Z-0.600 F300.000
G2 X11.588 Y12.000 Z-0.600 I0.000 J-1.587 K0.000 F300.000
G1 X11.588 Y7.588 Z-0.600 F300.000
G1 X20.000 Y7.588 Z-0.600 F300.000
G2 X20.325 Y7.554 Z-0.600 I0.000 J-1.587 K0.000 F300.000
G1 X20.325 Y7.554 Z-1.200 F120.000
G2 X21.587 Y6.000 Z-1.200 I-0.325 J-1.554 K0.000 F300.000
G1 X21.587 Y-0.000 Z-1.200 F300.000
G2 X20.000 Y-1.588 Z-1.200 I-1.587 J-0.000 K0.000 F300.000
G1 X1.588 Y-1.588 Z-1.200 F300.000
G1 X1.588 Y-20.000 Z-1.200 F300.000
G2 X0.000 Y-21.587 Z-1.200 I-1.587 J-0.000 K0.000 F300.000
G1 X-6.000 Y-21.587 Z-1.200 F300.000
G2 X-7.588 Y-20.000 Z-1.200 I-0.000 J1.587 K0.000 F300.000
G1 X-7.588 Y-11.588 Z-1.200 F300.000
G1 X-12.000 Y-11.588 Z-1.200 F300.000
G2 X-13.587 Y-10.000 Z-1.200 I-0.000 J1.587 K0.000 F300.000
G1 X-13.587 Y6.000 Z-1.200 F300.000
G2 X-6.089 Y13.585 Z-1.200 I7.589 J-0.003 K0.000 F300.000
G1 X10.000 Y13.587 Z-1.200 F300.000
G2 X11.588 Y12.000 Z-1.200 I0.000 J-1.587 K0.000 F300.000
G1 X11.588 Y7.588 Z-1.200 F300.000
G1 X20.000 Y7.588 Z-1.200 F300.000
G2 X20.325 Y7.554 Z-1.200 I0.000 J-1.587 K0.000 F300.000
G1 X20.325 Y7.554 Z-1.800 F120.000
G2 X21.587 Y6.000 Z-1.800 I-0.325 J-1.554 K0.000 F300.000
G1 X21.587 Y-0.000 Z-1.800 F300.000
G2 X20.000 Y-1.588 Z-1.800 I-1.587 J-0.000 K0.000 F300.000
G1 X1.588 Y-1.588 Z-1.800 F300.000
G1 X1.588 Y-20.000 Z-1.800 F300.000
G2 X0.000 Y-21.587 Z-1.800 I-1.587 J-0.000 K0.000 F300.000
G1 X-6.000 Y-21.587 Z-1.800 F300.000
G2 X-7.588 Y-20.000 Z-1.800 I-0.000 J1.587 K0.000 F300.000
G1 X-7.588 Y-11.588 Z-1.800 F300.000
G1 X-12.000 Y-11.588 Z-1.800 F300.000
G2 X-13.587 Y-10.000 Z-1.800 I-0.000 J1.587 K0.000 F300.000
G1 X-13.587 Y6.000 Z-1.800 F300.000
G2 X-6.089 Y13.585 Z-1.800 I7.589 J-0.003 K0.000 F300.000
G1 X10.000 Y13.587 Z-1.800 F300.000
G2 X11.588 Y12.000 Z-1.800 I0.000 J-1.587 K0.000 F300.000
G1 X11.588 Y7.588 Z-1.800 F300.000
G1 X20.000 Y7.588 Z-1.800 F300.000
G2 X20.325 Y7.554 Z-1.800 I0.000 J-1.587 K0.000 F300.000
G1 X20.325 Y7.554 Z-2.400 F120.000
G2 X21.587 Y6.000 Z-2.400 I-0.325 J-1.554 K0.000 F300.000
G1 X21.587 Y-0.000 Z-2.400 F300.000
G2 X20.000 Y-1.588 Z-2.400 I-1.587 J-0.000 K0.000 F300.000
G1 X1.588 Y-1.588 Z-2.400 F300.000
G1 X1.588 Y-20.000 Z-2.400 F300.000
G2 X0.000 Y-21.587 Z-2.400 I-1.587 J-0.000 K0.000 F300.000
G1 X-6.000 Y-21.587 Z-2.400 F300.000
G2 X-7.588 Y-20.000 Z-2.400 I-0.000 J1.587 K0.000 F300.000
G1 X-7.588 Y-11.588 Z-2.400 F300.000
G1 X-12.000 Y-11.588 Z-2.400 F300.000
G2 X-13.587 Y-10.000 Z-2.400 I-0.000 J1.587 K0.000 F300.000
G1 X-13.587 Y6.000 Z-2.400 F300.000
G2 X-6.089 Y13.585 Z-2.400 I7.589 J-0.003 K0.000 F300.000
G1 X10.000 Y13.587 Z-2.400 F300.000
G2 X11.588 Y12.000 Z-2.400 I0.000 J-1.587 K0.000 F300.000
G1 X11.588 Y7.588 Z-2.400 F300.000
G1 X20.000 Y7.588 Z-2.400 F300.000
G2 X20.325 Y7.554 Z-2.400 I0.000 J-1.587 K0.000 F300.000
G1 X20.325 Y7.554 Z-3.000 F120.000
G2 X21.587 Y6.000 Z-3.000 I-0.325 J-1.554 K0.000 F300.000
G1 X21.587 Y-0.000 Z-3.000 F300.000
G2 X20.000 Y-1.588 Z-3.000 I-1.587 J-0.000 K0.000 F300.000
G1 X1.588 Y-1.588 Z-3.000 F300.000
G1 X1.588 Y-20.000 Z-3.000 F300.000
G2 X0.000 Y-21.587 Z-3.000 I-1.587 J-0.000 K0.000 F300.000
G1 X-6.000 Y-21.587 Z-3.000 F300.000
G2 X-7.588 Y-20.000 Z-3.000 I-0.000 J1.587 K0.000 F300.000
G1 X-7.588 Y-11.588 Z-3.000 F300.000
G1 X-12.000 Y-11.588 Z-3.000 F300.000
G2 X-13.587 Y-10.000 Z-3.000 I-0.000 J1.587 K0.000 F300.000
G1 X-13.587 Y6.000 Z-3.000 F300.000
G2 X-6.089 Y13.585 Z-3.000 I7.589 J-0.003 K0.000 F300.000
G1 X10.000 Y13.587 Z-3.000 F300.000
G2 X11.588 Y12.000 Z-3.000 I0.000 J-1.587 K0.000 F300.000
G1 X11.588 Y7.588 Z-3.000 F300.000
G1 X20.000 Y7.588 Z-3.000 F300.000
G2 X20.325 Y7.554 Z-3.000 I0.000 J-1.587 K0.000 F300.000
G1 X20.325 Y7.554 Z-3.600 F120.000
G2 X21.587 Y6.000 Z-3.600 I-0.325 J-1.554 K0.000 F300.000
G1 X21.587 Y-0.000 Z-3.600 F300.000
G2 X20.000 Y-1.588 Z-3.600 I-1.587 J-0.000 K0.000 F300.000
G1 X1.588 Y-1.588 Z-3.600 F300.000
G1 X1.588 Y-20.000 Z-3.600 F300.000
G2 X0.000 Y-21.587 Z-3.600 I-1.587 J-0.000 K0.000 F300.000
G1 X-6.000 Y-21.587 Z-3.600 F300.000
G2 X-7.588 Y-20.000 Z-3.600 I-0.000 J1.587 K0.000 F300.000
G1 X-7.588 Y-11.588 Z-3.600 F300.000
G1 X-12.000 Y-11.588 Z-3.600 F300.000
G2 X-13.587 Y-10.000 Z-3.600 I-0.000 J1.587 K0.000 F300.000
G1 X-13.587 Y6.000 Z-3.600 F300.000
G2 X-6.089 Y13.585 Z-3.600 I7.589 J-0.003 K0.000 F300.000
G1 X10.000 Y13.587 Z-3.600 F300.000
G2 X11.588 Y12.000 Z-3.600 I0.000 J-1.587 K0.000 F300.000
G1 X11.588 Y7.588 Z-3.600 F300.000
G1 X20.000 Y7.588 Z-3.600 F300.000
G2 X20.325 Y7.554 Z-3.600 I0.000 J-1.587 K0.000 F300.000
G1 X20.325 Y7.554 Z-4.200 F120.000
G2 X21.587 Y6.000 Z-4.200 I-0.325 J-1.554 K0.000 F300.000
G1 X21.587 Y-0.000 Z-4.200 F300.000
G2 X20.000 Y-1.588 Z-4.200 I-1.587 J-0.000 K0.000 F300.000
G1 X1.588 Y-1.588 Z-4.200 F300.000
G1 X1.588 Y-20.000 Z-4.200 F300.000
G2 X0.000 Y-21.587 Z-4.200 I-1.587 J-0.000 K0.000 F300.000
G1 X-6.000 Y-21.587 Z-4.200 F300.000
G2 X-7.588 Y-20.000 Z-4.200 I-0.000 J1.587 K0.000 F300.000
G1 X-7.588 Y-11.588 Z-4.200 F300.000
G1 X-12.000 Y-11.588 Z-4.200 F300.000
G2 X-13.587 Y-10.000 Z-4.200 I-0.000 J1.587 K0.000 F300.000
G1 X-13.587 Y6.000 Z-4.200 F300.000
G2 X-6.089 Y13.585 Z-4.200 I7.589 J-0.003 K0.000 F300.000
G1 X10.000 Y13.587 Z-4.200 F300.000
G2 X11.588 Y12.000 Z-4.200 I0.000 J-1.587 K0.000 F300.000
G1 X11.588 Y7.588 Z-4.200 F300.000
G1 X20.000 Y7.588 Z-4.200 F300.000
G2 X20.325 Y7.554 Z-4.200 I0.000 J-1.587 K0.000 F300.000
G1 X20.325 Y7.554 Z-4.800 F120.000
G2 X21.587 Y6.000 Z-4.800 I-0.325 J-1.554 K0.000 F300.000
G1 X21.587 Y-0.000 Z-4.800 F300.000
G2 X20.000 Y-1.588 Z-4.800 I-1.587 J-0.000 K0.000 F300.000
G1 X1.588 Y-1.588 Z-4.800 F300.000
G1 X1.588 Y-20.000 Z-4.800 F300.000
G2 X0.000 Y-21.587 Z-4.800 I-1.587 J-0.000 K0.000 F300.000
G1 X-6.000 Y-21.587 Z-4.800 F300.000
G2 X-7.588 Y-20.000 Z-4.800 I-0.000 J1.587 K0.000 F300.000
G1 X-7.588 Y-11.588 Z-4.800 F300.000
G1 X-12.000 Y-11.588 Z-4.800 F300.000
G2 X-13.587 Y-10.000 Z-4.800 I-0.000 J1.587 K0.000 F300.000
G1 X-13.587 Y6.000 Z-4.800 F300.000
G2 X-6.089 Y13.585 Z-4.800 I7.589 J-0.003 K0.000 F300.000
G1 X10.000 Y13.587 Z-4.800 F300.000
G2 X11.588 Y12.000 Z-4.800 I0.000 J-1.587 K0.000 F300.000
G1 X11.588 Y7.588 Z-4.800 F300.000
G1 X20.000 Y7.588 Z-4.800 F300.000
G2 X20.325 Y7.554 Z-4.800 I0.000 J-1.587 K0.000 F300.000
G1 X20.325 Y7.554 Z-5.400 F120.000
G2 X21.587 Y6.000 Z-5.400 I-0.325 J-1.554 K0.000 F300.000
G1 X21.587 Y-0.000 Z-5.400 F300.000
G2 X20.000 Y-1.588 Z-5.400 I-1.587 J-0.000 K0.000 F300.000
G1 X1.588 Y-1.588 Z-5.400 F300.000
G1 X1.588 Y-20.000 Z-5.400 F300.000
G2 X0.000 Y-21.587 Z-5.400 I-1.587 J-0.000 K0.000 F300.000
G1 X-6.000 Y-21.587 Z-5.400 F300.000
G2 X-7.588 Y-20.000 Z-5.400 I-0.000 J1.587 K0.000 F300.000
G1 X-7.588 Y-11.588 Z-5.400 F300.000
G1 X-12.000 Y-11.588 Z-5.400 F300.000
G2 X-13.587 Y-10.000 Z-5.400 I-0.000 J1.587 K0.000 F300.000
G1 X-13.587 Y6.000 Z-5.400 F300.000
G2 X-6.089 Y13.585 Z-5.400 I7.589 J-0.003 K0.000 F300.000
G1 X10.000 Y13.587 Z-5.400 F300.000
G2 X11.588 Y12.000 Z-5.400 I0.000 J-1.587 K0.000 F300.000
G1 X11.588 Y7.588 Z-5.400 F300.000
G1 X20.000 Y7.588 Z-5.400 F300.000
G2 X20.325 Y7.554 Z-5.400 I0.000 J-1.587 K0.000 F300.000
G1 X20.325 Y7.554 Z-6.000 F120.000
G2 X21.587 Y6.000 Z-6.000 I-0.325 J-1.554 K0.000 F300.000
G1 X21.587 Y-0.000 Z-6.000 F300.000
G2 X20.000 Y-1.588 Z-6.000 I-1.587 J-0.000 K0.000 F300.000
G1 X1.588 Y-1.588 Z-6.000 F300.000
G1 X1.588 Y-20.000 Z-6.000 F300.000
G2 X0.000 Y-21.587 Z-6.000 I-1.587 J-0.000 K0.000 F300.000
G1 X-6.000 Y-21.587 Z-6.000 F300.000
G2 X-7.588 Y-20.000 Z-6.000 I-0.000 J1.587 K0.000 F300.000
G1 X-7.588 Y-11.588 Z-6.000 F300.000
G1 X-12.000 Y-11.588 Z-6.000 F300.000
G2 X-13.587 Y-10.000 Z-6.000 I-0.000 J1.587 K0.000 F300.000
G1 X-13.587 Y6.000 Z-6.000 F300.000
G2 X-6.089 Y13.585 Z-6.000 I7.589 J-0.003 K0.000 F300.000
G1 X10.000 Y13.587 Z-6.000 F300.000
G2 X11.588 Y12.000 Z-6.000 I0.000 J-1.587 K0.000 F300.000
G1 X11.588 Y7.588 Z-6.000 F300.000
G1 X20.000 Y7.588 Z-6.000 F300.000
G2 X20.325 Y7.554 Z-6.000 I0.000 J-1.587 K0.000 F300.000
G0 Z5.000
G0 Z5.000
(Finish operation: Profile001)
(Begin postamble)
M5
G17 G90
M2
M30
