(Exported by FreeCAD)
(Post Processor: grbl_post)
(Output Time:2021-05-08 14:41:56.762256)
(Begin preamble)
G17 G90
G21
(Begin operation: Fixture)
(Path: Fixture)
G54
(Finish operation: Fixture)
(Begin operation: 1,15mm Endmill003)
(Path: 1,15mm Endmill003)
(1,15mm Endmill003)
(Begin toolchange)
( M6 T1.0 )
M3 S10000.0
(Finish operation: 1,15mm Endmill003)
(Begin operation: Nut 1)
(Path: Nut 1)
(Nut 1)
G0 Z5.000
G0 X140.425 Y17.415
G0 Z3.000
G1 X140.425 Y17.415 Z-0.300 F120.000
G1 X140.425 Y16.565 Z-0.300 F200.000
G1 X98.345 Y16.565 Z-0.300 F200.000
G1 X98.345 Y17.415 Z-0.300 F200.000
G1 X140.425 Y17.415 Z-0.300 F200.000
G0 Z5.000
G0 Z5.000
G0 X140.425 Y17.415
G0 Y38.185
G0 Y38.185 Z3.000
G1 X140.425 Y38.185 Z-0.300 F120.000
G1 X140.425 Y39.035 Z-0.300 F200.000
G1 X139.390 Y39.035 Z-0.300 F200.000
G1 X139.390 Y38.185 Z-0.300 F200.000
G1 X138.355 Y38.185 Z-0.300 F200.000
G1 X138.355 Y39.035 Z-0.300 F200.000
G1 X137.320 Y39.035 Z-0.300 F200.000
G1 X137.320 Y38.185 Z-0.300 F200.000
G1 X136.285 Y38.185 Z-0.300 F200.000
G1 X136.285 Y39.035 Z-0.300 F200.000
G1 X135.250 Y39.035 Z-0.300 F200.000
G1 X135.250 Y38.185 Z-0.300 F200.000
G1 X134.215 Y38.185 Z-0.300 F200.000
G1 X134.215 Y39.035 Z-0.300 F200.000
G1 X133.180 Y39.035 Z-0.300 F200.000
G1 X133.180 Y38.185 Z-0.300 F200.000
G1 X132.145 Y38.185 Z-0.300 F200.000
G1 X132.145 Y39.035 Z-0.300 F200.000
G1 X131.110 Y39.035 Z-0.300 F200.000
G1 X131.110 Y38.185 Z-0.300 F200.000
G1 X130.075 Y38.185 Z-0.300 F200.000
G1 X130.075 Y39.035 Z-0.300 F200.000
G1 X129.040 Y39.035 Z-0.300 F200.000
G1 X129.040 Y38.185 Z-0.300 F200.000
G1 X128.005 Y38.185 Z-0.300 F200.000
G1 X128.005 Y39.035 Z-0.300 F200.000
G1 X126.970 Y39.035 Z-0.300 F200.000
G1 X126.970 Y38.185 Z-0.300 F200.000
G1 X125.935 Y38.185 Z-0.300 F200.000
G1 X125.935 Y39.035 Z-0.300 F200.000
G1 X124.900 Y39.035 Z-0.300 F200.000
G1 X124.900 Y38.185 Z-0.300 F200.000
G1 X123.865 Y38.185 Z-0.300 F200.000
G1 X123.865 Y39.035 Z-0.300 F200.000
G1 X122.830 Y39.035 Z-0.300 F200.000
G1 X122.830 Y38.185 Z-0.300 F200.000
G1 X121.795 Y38.185 Z-0.300 F200.000
G1 X121.795 Y39.035 Z-0.300 F200.000
G1 X120.760 Y39.035 Z-0.300 F200.000
G1 X120.760 Y38.185 Z-0.300 F200.000
G1 X119.725 Y38.185 Z-0.300 F200.000
G1 X119.725 Y39.035 Z-0.300 F200.000
G1 X118.690 Y39.035 Z-0.300 F200.000
G1 X118.690 Y38.185 Z-0.300 F200.000
G1 X117.655 Y38.185 Z-0.300 F200.000
G1 X117.655 Y39.035 Z-0.300 F200.000
G1 X116.620 Y39.035 Z-0.300 F200.000
G1 X116.620 Y38.185 Z-0.300 F200.000
G1 X115.585 Y38.185 Z-0.300 F200.000
G1 X115.585 Y39.035 Z-0.300 F200.000
G1 X114.550 Y39.035 Z-0.300 F200.000
G1 X114.550 Y38.185 Z-0.300 F200.000
G1 X113.515 Y38.185 Z-0.300 F200.000
G1 X113.515 Y39.035 Z-0.300 F200.000
G1 X112.480 Y39.035 Z-0.300 F200.000
G1 X112.480 Y38.185 Z-0.300 F200.000
G1 X111.445 Y38.185 Z-0.300 F200.000
G1 X111.445 Y39.035 Z-0.300 F200.000
G1 X110.410 Y39.035 Z-0.300 F200.000
G1 X110.410 Y38.185 Z-0.300 F200.000
G1 X109.375 Y38.185 Z-0.300 F200.000
G1 X109.375 Y39.035 Z-0.300 F200.000
G1 X108.340 Y39.035 Z-0.300 F200.000
G1 X108.340 Y38.185 Z-0.300 F200.000
G1 X107.305 Y38.185 Z-0.300 F200.000
G1 X107.305 Y39.035 Z-0.300 F200.000
G1 X106.270 Y39.035 Z-0.300 F200.000
G1 X106.270 Y38.185 Z-0.300 F200.000
G1 X105.235 Y38.185 Z-0.300 F200.000
G1 X105.235 Y39.035 Z-0.300 F200.000
G1 X104.200 Y39.035 Z-0.300 F200.000
G1 X104.200 Y38.185 Z-0.300 F200.000
G1 X103.165 Y38.185 Z-0.300 F200.000
G1 X103.165 Y39.035 Z-0.300 F200.000
G1 X102.130 Y39.035 Z-0.300 F200.000
G1 X102.130 Y38.185 Z-0.300 F200.000
G1 X101.095 Y38.185 Z-0.300 F200.000
G1 X101.095 Y39.035 Z-0.300 F200.000
G1 X100.060 Y39.035 Z-0.300 F200.000
G1 X100.060 Y38.185 Z-0.300 F200.000
G1 X99.025 Y38.185 Z-0.300 F200.000
G1 X99.025 Y39.035 Z-0.300 F200.000
G1 X97.990 Y39.035 Z-0.300 F200.000
G1 X97.990 Y38.185 Z-0.300 F200.000
G1 X96.955 Y38.185 Z-0.300 F200.000
G1 X96.955 Y39.035 Z-0.300 F200.000
G1 X95.920 Y39.035 Z-0.300 F200.000
G1 X95.920 Y38.185 Z-0.300 F200.000
G1 X94.885 Y38.185 Z-0.300 F200.000
G1 X94.885 Y39.035 Z-0.300 F200.000
G1 X93.850 Y39.035 Z-0.300 F200.000
G1 X93.850 Y38.185 Z-0.300 F200.000
G1 X92.815 Y38.185 Z-0.300 F200.000
G1 X92.815 Y39.035 Z-0.300 F200.000
G1 X91.780 Y39.035 Z-0.300 F200.000
G1 X91.780 Y38.185 Z-0.300 F200.000
G1 X90.745 Y38.185 Z-0.300 F200.000
G1 X90.745 Y39.035 Z-0.300 F200.000
G1 X89.710 Y39.035 Z-0.300 F200.000
G1 X89.710 Y38.185 Z-0.300 F200.000
G1 X88.675 Y38.185 Z-0.300 F200.000
G1 X88.675 Y39.035 Z-0.300 F200.000
G1 X87.640 Y39.035 Z-0.300 F200.000
G1 X87.640 Y38.185 Z-0.300 F200.000
G1 X86.605 Y38.185 Z-0.300 F200.000
G1 X86.605 Y39.035 Z-0.300 F200.000
G1 X85.570 Y39.035 Z-0.300 F200.000
G1 X85.570 Y38.185 Z-0.300 F200.000
G1 X84.535 Y38.185 Z-0.300 F200.000
G1 X84.535 Y39.035 Z-0.300 F200.000
G1 X83.500 Y39.035 Z-0.300 F200.000
G1 X83.500 Y38.185 Z-0.300 F200.000
G1 X82.465 Y38.185 Z-0.300 F200.000
G1 X82.465 Y39.035 Z-0.300 F200.000
G1 X81.430 Y39.035 Z-0.300 F200.000
G1 X81.430 Y38.185 Z-0.300 F200.000
G1 X80.395 Y38.185 Z-0.300 F200.000
G1 X80.395 Y39.035 Z-0.300 F200.000
G1 X79.360 Y39.035 Z-0.300 F200.000
G1 X79.360 Y38.185 Z-0.300 F200.000
G1 X78.325 Y38.185 Z-0.300 F200.000
G1 X78.325 Y39.035 Z-0.300 F200.000
G1 X77.290 Y39.035 Z-0.300 F200.000
G1 X77.290 Y38.185 Z-0.300 F200.000
G1 X76.255 Y38.185 Z-0.300 F200.000
G1 X76.255 Y39.035 Z-0.300 F200.000
G1 X75.220 Y39.035 Z-0.300 F200.000
G1 X75.220 Y38.185 Z-0.300 F200.000
G1 X74.185 Y38.185 Z-0.300 F200.000
G1 X74.185 Y39.035 Z-0.300 F200.000
G1 X73.150 Y39.035 Z-0.300 F200.000
G1 X73.150 Y38.185 Z-0.300 F200.000
G1 X72.115 Y38.185 Z-0.300 F200.000
G1 X72.115 Y39.035 Z-0.300 F200.000
G1 X71.080 Y39.035 Z-0.300 F200.000
G1 X71.080 Y38.185 Z-0.300 F200.000
G1 X70.045 Y38.185 Z-0.300 F200.000
G1 X70.045 Y39.035 Z-0.300 F200.000
G1 X69.010 Y39.035 Z-0.300 F200.000
G1 X69.010 Y38.185 Z-0.300 F200.000
G1 X67.975 Y38.185 Z-0.300 F200.000
G1 X67.975 Y39.035 Z-0.300 F200.000
G1 X66.940 Y39.035 Z-0.300 F200.000
G1 X66.940 Y38.185 Z-0.300 F200.000
G1 X65.905 Y38.185 Z-0.300 F200.000
G1 X65.905 Y39.035 Z-0.300 F200.000
G1 X64.870 Y39.035 Z-0.300 F200.000
G1 X64.870 Y38.185 Z-0.300 F200.000
G1 X63.835 Y38.185 Z-0.300 F200.000
G1 X63.835 Y39.035 Z-0.300 F200.000
G1 X62.800 Y39.035 Z-0.300 F200.000
G1 X62.800 Y38.185 Z-0.300 F200.000
G1 X61.765 Y38.185 Z-0.300 F200.000
G1 X61.765 Y39.035 Z-0.300 F200.000
G1 X60.730 Y39.035 Z-0.300 F200.000
G1 X60.730 Y38.185 Z-0.300 F200.000
G1 X59.695 Y38.185 Z-0.300 F200.000
G1 X59.695 Y39.035 Z-0.300 F200.000
G1 X58.660 Y39.035 Z-0.300 F200.000
G1 X58.660 Y38.185 Z-0.300 F200.000
G1 X57.625 Y38.185 Z-0.300 F200.000
G1 X57.625 Y39.035 Z-0.300 F200.000
G1 X56.590 Y39.035 Z-0.300 F200.000
G1 X56.590 Y38.185 Z-0.300 F200.000
G1 X55.555 Y38.185 Z-0.300 F200.000
G1 X55.555 Y39.035 Z-0.300 F200.000
G1 X54.520 Y39.035 Z-0.300 F200.000
G1 X54.520 Y38.185 Z-0.300 F200.000
G1 X53.485 Y38.185 Z-0.300 F200.000
G1 X53.485 Y39.035 Z-0.300 F200.000
G1 X52.450 Y39.035 Z-0.300 F200.000
G1 X52.450 Y38.185 Z-0.300 F200.000
G1 X51.415 Y38.185 Z-0.300 F200.000
G1 X51.415 Y39.035 Z-0.300 F200.000
G1 X50.380 Y39.035 Z-0.300 F200.000
G1 X50.380 Y38.185 Z-0.300 F200.000
G1 X49.345 Y38.185 Z-0.300 F200.000
G1 X49.345 Y39.035 Z-0.300 F200.000
G1 X48.310 Y39.035 Z-0.300 F200.000
G1 X48.310 Y38.185 Z-0.300 F200.000
G1 X47.275 Y38.185 Z-0.300 F200.000
G1 X47.275 Y39.035 Z-0.300 F200.000
G1 X46.240 Y39.035 Z-0.300 F200.000
G1 X46.240 Y38.185 Z-0.300 F200.000
G1 X45.205 Y38.185 Z-0.300 F200.000
G1 X45.205 Y39.035 Z-0.300 F200.000
G1 X44.585 Y39.035 Z-0.300 F200.000
G1 X44.585 Y38.185 Z-0.300 F200.000
G1 X45.205 Y38.185 Z-0.300 F200.000
G0 Z5.000
G0 Z5.000
(Finish operation: Nut 1)
(Begin operation: Nut 2)
(Path: Nut 2)
(Nut 2)
G0 Z5.000
G0 X140.425 Y136.345
G0 Z3.000
G1 X140.425 Y136.345 Z-0.300 F120.000
G1 X140.425 Y135.495 Z-0.300 F200.000
G1 X8.315 Y135.495 Z-0.300 F200.000
G1 X8.315 Y136.345 Z-0.300 F200.000
G1 X140.425 Y136.345 Z-0.300 F200.000
G0 Z5.000
G0 Z5.000
(Finish operation: Nut 2)
(Begin operation: Ausschnitte)
(Path: Ausschnitte)
(Ausschnitte)
(Compensated Tool Path. Diameter: 1.15)
G0 Z5.000
G0 X109.962 Y130.354
G0 Z3.000
G1 X109.962 Y130.354 Z-0.500 F120.000
G2 X117.945 Y85.369 Z-0.500 I-145.742 J-49.066 K0.000 F200.000
G1 X117.945 Y44.808 Z-0.500 F200.000
G2 X115.665 Y42.005 Z-0.500 I-2.674 J-0.153 K0.000 F200.000
G2 X114.554 Y41.965 Z-0.500 I-0.890 J9.202 K0.000 F200.000
G2 X111.622 Y44.808 Z-0.500 I-0.223 J2.704 K0.000 F200.000
G1 X111.622 Y85.240 Z-0.500 F200.000
G3 X96.136 Y127.866 Z-0.500 I-81.821 J-5.599 K0.000 F200.000
G2 X96.917 Y130.999 Z-0.500 I2.492 J1.043 K0.000 F200.000
G2 X108.409 Y132.553 Z-0.500 I7.646 J-13.277 K0.000 F200.000
G2 X109.665 Y131.226 Z-0.500 I-0.937 J-2.145 K0.000 F200.000
G2 X109.962 Y130.354 Z-0.500 I-145.445 J-49.937 K0.000 F200.000
G0 Z5.000
G0 X92.534 Y115.200 Z5.000
G0 X92.534 Y115.200 Z3.000
G1 X92.534 Y115.200 Z-0.500 F120.000
G2 X104.904 Y82.247 Z-0.500 I-38.044 J-33.080 K0.000 F200.000
G2 X103.515 Y79.306 Z-0.500 I-2.279 J-0.722 K0.000 F200.000
G2 X100.751 Y80.120 Z-0.500 I-0.856 J2.195 K0.000 F200.000
G3 X84.843 Y86.824 Z-0.500 I-16.614 J-17.197 K0.000 F200.000
G1 X40.300 Y86.825 Z-0.500 F200.000
G2 X34.041 Y91.718 Z-0.500 I-0.541 J5.757 K0.000 F200.000
G3 X26.886 Y129.263 Z-0.500 I-146.249 J-8.415 K0.000 F200.000
G2 X29.423 Y132.515 Z-0.500 I2.525 J0.646 K0.000 F200.000
G1 X55.886 Y132.515 Z-0.500 F200.000
G2 X92.534 Y115.200 Z-0.500 I-1.396 J-50.395 K0.000 F200.000
G0 Z5.000
G0 X87.734 Y79.441 Z5.000
G0 X87.734 Y79.441 Z3.000
G1 X87.734 Y79.441 Z-0.500 F120.000
G2 X103.833 Y69.301 Z-0.500 I-3.044 J-22.682 K0.000 F200.000
G2 X102.797 Y65.054 Z-0.500 I-1.792 J-1.813 K0.000 F200.000
G2 X100.324 Y65.619 Z-0.500 I-0.747 J2.426 K0.000 F200.000
G3 X90.304 Y69.905 Z-0.500 I-9.871 J-9.220 K0.000 F200.000
G1 X45.940 Y69.905 Z-0.500 F200.000
G2 X38.166 Y75.796 Z-0.500 I-0.752 J7.082 K0.000 F200.000
G2 X41.111 Y79.595 Z-0.500 I2.701 J0.947 K0.000 F200.000
G1 X86.193 Y79.595 Z-0.500 F200.000
G2 X87.734 Y79.441 Z-0.500 I-1.503 J-22.836 K0.000 F200.000
G0 Z5.000
G0 X87.734 Y63.385 Z5.000
G0 X87.734 Y63.385 Z3.000
G1 X87.734 Y63.385 Z-0.500 F120.000
G1 X90.937 Y63.385 Z-0.500 F200.000
G2 X105.533 Y55.842 Z-0.500 I0.392 J-17.135 K0.000 F200.000
G2 X103.859 Y52.808 Z-0.500 I-2.409 J-0.649 K0.000 F200.000
G2 X101.594 Y53.208 Z-0.500 I-0.743 J2.409 K0.000 F200.000
G3 X94.104 Y54.751 Z-0.500 I-7.968 J-19.733 K0.000 F200.000
G2 X54.012 Y54.746 Z-0.500 I-21.505 J12863.398 K0.000 F200.000
G2 X45.049 Y58.972 Z-0.500 I0.477 J12.628 K0.000 F200.000
G2 X47.516 Y63.385 Z-0.500 I2.160 J1.689 K0.000 F200.000
G1 X87.734 Y63.385 Z-0.500 F200.000
G0 Z5.000
G0 X87.734 Y49.535 Z5.000
G0 X87.734 Y49.535 Z3.000
G1 X87.734 Y49.535 Z-0.500 F120.000
G1 X94.520 Y49.535 Z-0.500 F200.000
G2 X105.924 Y45.307 Z-0.500 I0.987 J-14.831 K0.000 F200.000
G2 X106.138 Y43.835 Z-0.500 I-1.359 J-0.949 K0.000 F200.000
G2 X103.292 Y42.073 Z-0.500 I-3.965 J3.224 K0.000 F200.000
G2 X101.515 Y41.984 Z-0.500 I-1.144 J5.076 K0.000 F200.000
G1 X63.086 Y41.985 Z-0.500 F200.000
G2 X53.245 Y46.201 Z-0.500 I0.260 J14.199 K0.000 F200.000
G2 X55.016 Y49.535 Z-0.500 I1.539 J1.320 K0.000 F200.000
G1 X87.734 Y49.535 Z-0.500 F200.000
G0 Z5.000
G0 X99.495 Y28.657 Z5.000
G0 X99.495 Y28.657 Z3.000
G1 X99.495 Y28.657 Z-0.500 F120.000
G2 X99.862 Y28.831 Z-0.500 I1.435 J-2.547 K0.000 F200.000
G2 X103.651 Y27.178 Z-0.500 I1.068 J-2.721 K0.000 F200.000
G2 X101.998 Y23.389 Z-0.500 I-2.721 J-1.068 K0.000 F200.000
G2 X99.495 Y28.657 Z-0.500 I-1.068 J2.721 K0.000 F200.000
G1 X99.495 Y28.657 Z-1.000 F120.000
G2 X99.862 Y28.831 Z-1.000 I1.435 J-2.547 K0.000 F200.000
G2 X103.651 Y27.178 Z-1.000 I1.068 J-2.721 K0.000 F200.000
G2 X101.998 Y23.389 Z-1.000 I-2.721 J-1.068 K0.000 F200.000
G2 X99.495 Y28.657 Z-1.000 I-1.068 J2.721 K0.000 F200.000
G0 Z5.000
G0 X99.496 Y41.984 Z5.000
G0 X99.496 Y41.984 Z3.000
G1 X99.496 Y41.984 Z-1.000 F120.000
G1 X63.086 Y41.985 Z-1.000 F200.000
G2 X53.245 Y46.201 Z-1.000 I0.260 J14.199 K0.000 F200.000
G2 X55.016 Y49.535 Z-1.000 I1.539 J1.320 K0.000 F200.000
G1 X94.520 Y49.535 Z-1.000 F200.000
G2 X105.924 Y45.307 Z-1.000 I0.987 J-14.831 K0.000 F200.000
G2 X106.138 Y43.835 Z-1.000 I-1.359 J-0.949 K0.000 F200.000
G2 X103.292 Y42.073 Z-1.000 I-3.965 J3.224 K0.000 F200.000
G2 X101.515 Y41.984 Z-1.000 I-1.144 J5.076 K0.000 F200.000
G1 X99.496 Y41.984 Z-1.000 F200.000
G0 Z5.000
G0 X102.451 Y52.786 Z5.000
G0 X102.451 Y52.786 Z3.000
G1 X102.451 Y52.786 Z-1.000 F120.000
G2 X101.594 Y53.208 Z-1.000 I0.665 J2.432 K0.000 F200.000
G3 X94.104 Y54.751 Z-1.000 I-7.968 J-19.733 K0.000 F200.000
G2 X54.012 Y54.746 Z-1.000 I-21.505 J12863.398 K0.000 F200.000
G2 X45.049 Y58.972 Z-1.000 I0.477 J12.628 K0.000 F200.000
G2 X47.516 Y63.385 Z-1.000 I2.160 J1.689 K0.000 F200.000
G1 X90.937 Y63.385 Z-1.000 F200.000
G2 X105.533 Y55.842 Z-1.000 I0.392 J-17.135 K0.000 F200.000
G2 X103.859 Y52.808 Z-1.000 I-2.409 J-0.649 K0.000 F200.000
G2 X102.451 Y52.786 Z-1.000 I-0.743 J2.409 K0.000 F200.000
G0 Z5.000
G0 X111.622 Z5.000
G0 X111.622 Z3.000
G1 X111.622 Y52.786 Z-1.000 F120.000
G1 X111.622 Y85.240 Z-1.000 F200.000
G3 X96.136 Y127.866 Z-1.000 I-81.821 J-5.599 K0.000 F200.000
G2 X96.917 Y130.999 Z-1.000 I2.492 J1.043 K0.000 F200.000
G2 X108.409 Y132.553 Z-1.000 I7.646 J-13.277 K0.000 F200.000
G2 X109.665 Y131.226 Z-1.000 I-0.937 J-2.145 K0.000 F200.000
G2 X117.945 Y85.369 Z-1.000 I-145.445 J-49.937 K0.000 F200.000
G1 X117.945 Y44.808 Z-1.000 F200.000
G2 X115.665 Y42.005 Z-1.000 I-2.674 J-0.153 K0.000 F200.000
G2 X114.554 Y41.965 Z-1.000 I-0.890 J9.202 K0.000 F200.000
G2 X111.622 Y44.808 Z-1.000 I-0.223 J2.704 K0.000 F200.000
G1 X111.622 Y52.786 Z-1.000 F200.000
G0 Z5.000
G0 X103.433 Y65.352 Z5.000
G0 X103.433 Y65.352 Z3.000
G1 X103.433 Y65.352 Z-1.000 F120.000
G2 X102.797 Y65.054 Z-1.000 I-1.392 J2.136 K0.000 F200.000
G2 X100.324 Y65.619 Z-1.000 I-0.747 J2.426 K0.000 F200.000
G3 X90.304 Y69.905 Z-1.000 I-9.871 J-9.220 K0.000 F200.000
G1 X45.940 Y69.905 Z-1.000 F200.000
G2 X38.166 Y75.796 Z-1.000 I-0.752 J7.082 K0.000 F200.000
G2 X41.111 Y79.595 Z-1.000 I2.701 J0.947 K0.000 F200.000
G1 X86.193 Y79.595 Z-1.000 F200.000
G2 X103.833 Y69.301 Z-1.000 I-1.503 J-22.836 K0.000 F200.000
G2 X103.433 Y65.352 Z-1.000 I-1.792 J-1.813 K0.000 F200.000
G0 Z5.000
G0 X102.772 Y79.148 Z5.000
G0 X102.772 Y79.148 Z3.000
G1 X102.772 Y79.148 Z-1.000 F120.000
G2 X100.751 Y80.120 Z-1.000 I-0.113 J2.353 K0.000 F200.000
G3 X84.843 Y86.824 Z-1.000 I-16.614 J-17.197 K0.000 F200.000
G1 X40.300 Y86.825 Z-1.000 F200.000
G2 X34.041 Y91.718 Z-1.000 I-0.541 J5.757 K0.000 F200.000
G3 X26.886 Y129.263 Z-1.000 I-146.249 J-8.415 K0.000 F200.000
G2 X29.423 Y132.515 Z-1.000 I2.525 J0.646 K0.000 F200.000
G1 X55.886 Y132.515 Z-1.000 F200.000
G2 X104.904 Y82.247 Z-1.000 I-1.396 J-50.395 K0.000 F200.000
G2 X103.515 Y79.306 Z-1.000 I-2.279 J-0.722 K0.000 F200.000
G2 X102.772 Y79.148 Z-1.000 I-0.856 J2.195 K0.000 F200.000
G1 X102.772 Y79.148 Z-1.500 F120.000
G2 X100.751 Y80.120 Z-1.500 I-0.113 J2.353 K0.000 F200.000
G3 X84.843 Y86.824 Z-1.500 I-16.614 J-17.197 K0.000 F200.000
G1 X40.300 Y86.825 Z-1.500 F200.000
G2 X34.041 Y91.718 Z-1.500 I-0.541 J5.757 K0.000 F200.000
G3 X26.886 Y129.263 Z-1.500 I-146.249 J-8.415 K0.000 F200.000
G2 X29.423 Y132.515 Z-1.500 I2.525 J0.646 K0.000 F200.000
G1 X55.886 Y132.515 Z-1.500 F200.000
G2 X104.904 Y82.247 Z-1.500 I-1.396 J-50.395 K0.000 F200.000
G2 X103.515 Y79.306 Z-1.500 I-2.279 J-0.722 K0.000 F200.000
G2 X102.772 Y79.148 Z-1.500 I-0.856 J2.195 K0.000 F200.000
G0 Z5.000
G0 X99.069 Y74.563 Z5.000
G0 X99.069 Y74.563 Z3.000
G1 X99.069 Y74.563 Z-1.500 F120.000
G2 X103.833 Y69.301 Z-1.500 I-14.379 J-17.804 K0.000 F200.000
G2 X102.797 Y65.054 Z-1.500 I-1.792 J-1.813 K0.000 F200.000
G2 X100.324 Y65.619 Z-1.500 I-0.747 J2.426 K0.000 F200.000
G3 X90.304 Y69.905 Z-1.500 I-9.871 J-9.220 K0.000 F200.000
G1 X45.940 Y69.905 Z-1.500 F200.000
G2 X38.166 Y75.796 Z-1.500 I-0.752 J7.082 K0.000 F200.000
G2 X41.111 Y79.595 Z-1.500 I2.701 J0.947 K0.000 F200.000
G1 X86.193 Y79.595 Z-1.500 F200.000
G2 X99.069 Y74.563 Z-1.500 I-1.503 J-22.836 K0.000 F200.000
G0 Z5.000
G0 X95.849 Y62.783 Z5.000
G0 X95.849 Y62.783 Z3.000
G1 X95.849 Y62.783 Z-1.500 F120.000
G2 X105.533 Y55.842 Z-1.500 I-4.520 J-16.533 K0.000 F200.000
G2 X103.859 Y52.808 Z-1.500 I-2.409 J-0.649 K0.000 F200.000
G2 X101.594 Y53.208 Z-1.500 I-0.743 J2.409 K0.000 F200.000
G3 X94.104 Y54.751 Z-1.500 I-7.968 J-19.733 K0.000 F200.000
G2 X54.012 Y54.746 Z-1.500 I-21.505 J12863.398 K0.000 F200.000
G2 X45.049 Y58.972 Z-1.500 I0.477 J12.628 K0.000 F200.000
G2 X47.516 Y63.385 Z-1.500 I2.160 J1.689 K0.000 F200.000
G1 X90.937 Y63.385 Z-1.500 F200.000
G2 X95.849 Y62.783 Z-1.500 I0.392 J-17.135 K0.000 F200.000
G0 Z5.000
G0 X95.688 Y49.567 Z5.000
G0 X95.688 Y49.567 Z3.000
G1 X95.688 Y49.567 Z-1.500 F120.000
G2 X105.924 Y45.307 Z-1.500 I-0.181 J-14.862 K0.000 F200.000
G2 X106.138 Y43.835 Z-1.500 I-1.359 J-0.949 K0.000 F200.000
G2 X103.292 Y42.073 Z-1.500 I-3.965 J3.224 K0.000 F200.000
G2 X101.515 Y41.984 Z-1.500 I-1.144 J5.076 K0.000 F200.000
G1 X63.086 Y41.985 Z-1.500 F200.000
G2 X53.245 Y46.201 Z-1.500 I0.260 J14.199 K0.000 F200.000
G2 X55.016 Y49.535 Z-1.500 I1.539 J1.320 K0.000 F200.000
G1 X94.520 Y49.535 Z-1.500 F200.000
G2 X95.688 Y49.567 Z-1.500 I0.987 J-14.831 K0.000 F200.000
G0 Z5.000
G0 X111.622 Z5.000
G0 X111.622 Z3.000
G1 X111.622 Y49.567 Z-1.500 F120.000
G1 X111.622 Y85.240 Z-1.500 F200.000
G3 X96.136 Y127.866 Z-1.500 I-81.821 J-5.599 K0.000 F200.000
G2 X96.917 Y130.999 Z-1.500 I2.492 J1.043 K0.000 F200.000
G2 X108.409 Y132.553 Z-1.500 I7.646 J-13.277 K0.000 F200.000
G2 X109.665 Y131.226 Z-1.500 I-0.937 J-2.145 K0.000 F200.000
G2 X117.945 Y85.369 Z-1.500 I-145.445 J-49.937 K0.000 F200.000
G1 X117.945 Y44.808 Z-1.500 F200.000
G2 X115.665 Y42.005 Z-1.500 I-2.674 J-0.153 K0.000 F200.000
G2 X114.554 Y41.965 Z-1.500 I-0.890 J9.202 K0.000 F200.000
G2 X111.622 Y44.808 Z-1.500 I-0.223 J2.704 K0.000 F200.000
G1 X111.622 Y49.567 Z-1.500 F200.000
G0 Z5.000
G0 X102.142 Y28.770 Z5.000
G0 X102.142 Y28.770 Z3.000
G1 X102.142 Y28.770 Z-1.500 F120.000
G2 X101.998 Y23.389 Z-1.500 I-1.212 J-2.660 K0.000 F200.000
G2 X99.862 Y28.831 Z-1.500 I-1.068 J2.721 K0.000 F200.000
G2 X102.142 Y28.770 Z-1.500 I1.068 J-2.721 K0.000 F200.000
G1 X102.142 Y28.770 Z-2.000 F120.000
G2 X101.998 Y23.389 Z-2.000 I-1.212 J-2.660 K0.000 F200.000
G2 X99.862 Y28.831 Z-2.000 I-1.068 J2.721 K0.000 F200.000
G2 X102.142 Y28.770 Z-2.000 I1.068 J-2.721 K0.000 F200.000
G0 Z5.000
G0 X102.146 Y41.945 Z5.000
G0 X102.146 Y41.945 Z3.000
G1 X102.146 Y41.945 Z-2.000 F120.000
G2 X101.515 Y41.984 Z-2.000 I0.001 J5.203 K0.000 F200.000
G1 X63.086 Y41.985 Z-2.000 F200.000
G2 X53.245 Y46.201 Z-2.000 I0.260 J14.199 K0.000 F200.000
G2 X55.016 Y49.535 Z-2.000 I1.539 J1.320 K0.000 F200.000
G1 X94.520 Y49.535 Z-2.000 F200.000
G2 X105.924 Y45.307 Z-2.000 I0.987 J-14.831 K0.000 F200.000
G2 X106.138 Y43.835 Z-2.000 I-1.359 J-0.949 K0.000 F200.000
G2 X103.292 Y42.073 Z-2.000 I-3.965 J3.224 K0.000 F200.000
G2 X102.146 Y41.945 Z-2.000 I-1.144 J5.076 K0.000 F200.000
G0 Z5.000
G0 X111.683 Y44.077 Z5.000
G0 X111.683 Y44.077 Z3.000
G1 X111.683 Y44.077 Z-2.000 F120.000
G2 X111.622 Y44.808 Z-2.000 I2.648 J0.592 K0.000 F200.000
G1 X111.622 Y85.240 Z-2.000 F200.000
G3 X96.136 Y127.866 Z-2.000 I-81.821 J-5.599 K0.000 F200.000
G2 X96.917 Y130.999 Z-2.000 I2.492 J1.043 K0.000 F200.000
G2 X108.409 Y132.553 Z-2.000 I7.646 J-13.277 K0.000 F200.000
G2 X109.665 Y131.226 Z-2.000 I-0.937 J-2.145 K0.000 F200.000
G2 X117.945 Y85.369 Z-2.000 I-145.445 J-49.937 K0.000 F200.000
G1 X117.945 Y44.808 Z-2.000 F200.000
G2 X115.665 Y42.005 Z-2.000 I-2.674 J-0.153 K0.000 F200.000
G2 X114.554 Y41.965 Z-2.000 I-0.890 J9.202 K0.000 F200.000
G2 X111.683 Y44.077 Z-2.000 I-0.223 J2.704 K0.000 F200.000
G0 Z5.000
G0 X104.646 Y53.216 Z5.000
G0 X104.646 Y53.216 Z3.000
G1 X104.646 Y53.216 Z-2.000 F120.000
G2 X103.859 Y52.808 Z-2.000 I-1.523 J1.977 K0.000 F200.000
G2 X101.594 Y53.208 Z-2.000 I-0.743 J2.409 K0.000 F200.000
G3 X94.104 Y54.751 Z-2.000 I-7.968 J-19.733 K0.000 F200.000
G2 X54.012 Y54.746 Z-2.000 I-21.505 J12863.398 K0.000 F200.000
G2 X45.049 Y58.972 Z-2.000 I0.477 J12.628 K0.000 F200.000
G2 X47.516 Y63.385 Z-2.000 I2.160 J1.689 K0.000 F200.000
G1 X90.937 Y63.385 Z-2.000 F200.000
G2 X105.533 Y55.842 Z-2.000 I0.392 J-17.135 K0.000 F200.000
G2 X104.646 Y53.216 Z-2.000 I-2.409 J-0.649 K0.000 F200.000
G0 Z5.000
G0 X102.504 Y64.982 Z5.000
G0 X102.504 Y64.982 Z3.000
G1 X102.504 Y64.982 Z-2.000 F120.000
G2 X100.324 Y65.619 Z-2.000 I-0.455 J2.497 K0.000 F200.000
G3 X90.304 Y69.905 Z-2.000 I-9.871 J-9.220 K0.000 F200.000
G1 X45.940 Y69.905 Z-2.000 F200.000
G2 X38.166 Y75.796 Z-2.000 I-0.752 J7.082 K0.000 F200.000
G2 X41.111 Y79.595 Z-2.000 I2.701 J0.947 K0.000 F200.000
G1 X86.193 Y79.595 Z-2.000 F200.000
G2 X103.833 Y69.301 Z-2.000 I-1.503 J-22.836 K0.000 F200.000
G2 X102.797 Y65.054 Z-2.000 I-1.792 J-1.813 K0.000 F200.000
G2 X102.504 Y64.982 Z-2.000 I-0.747 J2.426 K0.000 F200.000
G0 Z5.000
G0 X102.637 Y79.145 Z5.000
G0 X102.637 Y79.145 Z3.000
G1 X102.637 Y79.145 Z-2.000 F120.000
G2 X100.751 Y80.120 Z-2.000 I0.022 J2.356 K0.000 F200.000
G3 X84.843 Y86.824 Z-2.000 I-16.614 J-17.197 K0.000 F200.000
G1 X40.300 Y86.825 Z-2.000 F200.000
G2 X34.041 Y91.718 Z-2.000 I-0.541 J5.757 K0.000 F200.000
G3 X26.886 Y129.263 Z-2.000 I-146.249 J-8.415 K0.000 F200.000
G2 X29.423 Y132.515 Z-2.000 I2.525 J0.646 K0.000 F200.000
G1 X55.886 Y132.515 Z-2.000 F200.000
G2 X104.904 Y82.247 Z-2.000 I-1.396 J-50.395 K0.000 F200.000
G2 X103.515 Y79.306 Z-2.000 I-2.279 J-0.722 K0.000 F200.000
G2 X102.637 Y79.145 Z-2.000 I-0.856 J2.195 K0.000 F200.000
G1 X102.637 Y79.145 Z-2.500 F120.000
G2 X100.751 Y80.120 Z-2.500 I0.022 J2.356 K0.000 F200.000
G3 X84.843 Y86.824 Z-2.500 I-16.614 J-17.197 K0.000 F200.000
G1 X40.300 Y86.825 Z-2.500 F200.000
G2 X34.041 Y91.718 Z-2.500 I-0.541 J5.757 K0.000 F200.000
G3 X26.886 Y129.263 Z-2.500 I-146.249 J-8.415 K0.000 F200.000
G2 X29.423 Y132.515 Z-2.500 I2.525 J0.646 K0.000 F200.000
G1 X55.886 Y132.515 Z-2.500 F200.000
G2 X104.904 Y82.247 Z-2.500 I-1.396 J-50.395 K0.000 F200.000
G2 X103.515 Y79.306 Z-2.500 I-2.279 J-0.722 K0.000 F200.000
G2 X102.637 Y79.145 Z-2.500 I-0.856 J2.195 K0.000 F200.000
G0 Z5.000
G0 X99.005 Y74.615 Z5.000
G0 X99.005 Y74.615 Z3.000
G1 X99.005 Y74.615 Z-2.500 F120.000
G2 X103.833 Y69.301 Z-2.500 I-14.315 J-17.856 K0.000 F200.000
G2 X102.797 Y65.054 Z-2.500 I-1.792 J-1.813 K0.000 F200.000
G2 X100.324 Y65.619 Z-2.500 I-0.747 J2.426 K0.000 F200.000
G3 X90.304 Y69.905 Z-2.500 I-9.871 J-9.220 K0.000 F200.000
G1 X45.940 Y69.905 Z-2.500 F200.000
G2 X38.166 Y75.796 Z-2.500 I-0.752 J7.082 K0.000 F200.000
G2 X41.111 Y79.595 Z-2.500 I2.701 J0.947 K0.000 F200.000
G1 X86.193 Y79.595 Z-2.500 F200.000
G2 X99.005 Y74.615 Z-2.500 I-1.503 J-22.836 K0.000 F200.000
G0 Z5.000
G0 X95.806 Y62.794 Z5.000
G0 X95.806 Y62.794 Z3.000
G1 X95.806 Y62.794 Z-2.500 F120.000
G2 X105.533 Y55.842 Z-2.500 I-4.477 J-16.544 K0.000 F200.000
G2 X103.859 Y52.808 Z-2.500 I-2.409 J-0.649 K0.000 F200.000
G2 X101.594 Y53.208 Z-2.500 I-0.743 J2.409 K0.000 F200.000
G3 X94.104 Y54.751 Z-2.500 I-7.968 J-19.733 K0.000 F200.000
G2 X54.012 Y54.746 Z-2.500 I-21.505 J12863.398 K0.000 F200.000
G2 X45.049 Y58.972 Z-2.500 I0.477 J12.628 K0.000 F200.000
G2 X47.516 Y63.385 Z-2.500 I2.160 J1.689 K0.000 F200.000
G1 X90.937 Y63.385 Z-2.500 F200.000
G2 X95.806 Y62.794 Z-2.500 I0.392 J-17.135 K0.000 F200.000
G0 Z5.000
G0 X95.665 Y49.567 Z5.000
G0 X95.665 Y49.567 Z3.000
G1 X95.665 Y49.567 Z-2.500 F120.000
G2 X105.924 Y45.307 Z-2.500 I-0.159 J-14.863 K0.000 F200.000
G2 X106.138 Y43.835 Z-2.500 I-1.359 J-0.949 K0.000 F200.000
G2 X103.292 Y42.073 Z-2.500 I-3.965 J3.224 K0.000 F200.000
G2 X101.515 Y41.984 Z-2.500 I-1.144 J5.076 K0.000 F200.000
G1 X63.086 Y41.985 Z-2.500 F200.000
G2 X53.245 Y46.201 Z-2.500 I0.260 J14.199 K0.000 F200.000
G2 X55.016 Y49.535 Z-2.500 I1.539 J1.320 K0.000 F200.000
G1 X94.520 Y49.535 Z-2.500 F200.000
G2 X95.665 Y49.567 Z-2.500 I0.987 J-14.831 K0.000 F200.000
G0 Z5.000
G0 X111.622 Z5.000
G0 X111.622 Z3.000
G1 X111.622 Y49.567 Z-2.500 F120.000
G1 X111.622 Y85.240 Z-2.500 F200.000
G3 X96.136 Y127.866 Z-2.500 I-81.821 J-5.599 K0.000 F200.000
G2 X96.917 Y130.999 Z-2.500 I2.492 J1.043 K0.000 F200.000
G2 X108.409 Y132.553 Z-2.500 I7.646 J-13.277 K0.000 F200.000
G2 X109.665 Y131.226 Z-2.500 I-0.937 J-2.145 K0.000 F200.000
G2 X117.945 Y85.369 Z-2.500 I-145.445 J-49.937 K0.000 F200.000
G1 X117.945 Y44.808 Z-2.500 F200.000
G2 X115.665 Y42.005 Z-2.500 I-2.674 J-0.153 K0.000 F200.000
G2 X114.554 Y41.965 Z-2.500 I-0.890 J9.202 K0.000 F200.000
G2 X111.622 Y44.808 Z-2.500 I-0.223 J2.704 K0.000 F200.000
G1 X111.622 Y49.567 Z-2.500 F200.000
G0 Z5.000
G0 X102.142 Y28.770 Z5.000
G0 X102.142 Y28.770 Z3.000
G1 X102.142 Y28.770 Z-2.500 F120.000
G2 X101.998 Y23.389 Z-2.500 I-1.212 J-2.660 K0.000 F200.000
G2 X99.862 Y28.831 Z-2.500 I-1.068 J2.721 K0.000 F200.000
G2 X102.142 Y28.770 Z-2.500 I1.068 J-2.721 K0.000 F200.000
G1 X102.142 Y28.770 Z-3.000 F120.000
G2 X101.998 Y23.389 Z-3.000 I-1.212 J-2.660 K0.000 F200.000
G2 X99.862 Y28.831 Z-3.000 I-1.068 J2.721 K0.000 F200.000
G2 X102.142 Y28.770 Z-3.000 I1.068 J-2.721 K0.000 F200.000
G0 Z5.000
G0 X102.146 Y41.945 Z5.000
G0 X102.146 Y41.945 Z3.000
G1 X102.146 Y41.945 Z-3.000 F120.000
G2 X101.515 Y41.984 Z-3.000 I0.002 J5.203 K0.000 F200.000
G1 X63.086 Y41.985 Z-3.000 F200.000
G2 X53.245 Y46.201 Z-3.000 I0.260 J14.199 K0.000 F200.000
G2 X55.016 Y49.535 Z-3.000 I1.539 J1.320 K0.000 F200.000
G1 X94.520 Y49.535 Z-3.000 F200.000
G2 X105.924 Y45.307 Z-3.000 I0.987 J-14.831 K0.000 F200.000
G2 X106.138 Y43.835 Z-3.000 I-1.359 J-0.949 K0.000 F200.000
G2 X103.292 Y42.073 Z-3.000 I-3.965 J3.224 K0.000 F200.000
G2 X102.146 Y41.945 Z-3.000 I-1.144 J5.076 K0.000 F200.000
G0 Z5.000
G0 X111.683 Y44.077 Z5.000
G0 X111.683 Y44.077 Z3.000
G1 X111.683 Y44.077 Z-3.000 F120.000
G2 X111.622 Y44.808 Z-3.000 I2.648 J0.592 K0.000 F200.000
G1 X111.622 Y85.240 Z-3.000 F200.000
G3 X96.136 Y127.866 Z-3.000 I-81.821 J-5.599 K0.000 F200.000
G2 X96.917 Y130.999 Z-3.000 I2.492 J1.043 K0.000 F200.000
G2 X108.409 Y132.553 Z-3.000 I7.646 J-13.277 K0.000 F200.000
G2 X109.665 Y131.226 Z-3.000 I-0.937 J-2.145 K0.000 F200.000
G2 X117.945 Y85.369 Z-3.000 I-145.445 J-49.937 K0.000 F200.000
G1 X117.945 Y44.808 Z-3.000 F200.000
G2 X115.665 Y42.005 Z-3.000 I-2.674 J-0.153 K0.000 F200.000
G2 X114.554 Y41.965 Z-3.000 I-0.890 J9.202 K0.000 F200.000
G2 X111.683 Y44.077 Z-3.000 I-0.223 J2.704 K0.000 F200.000
G0 Z5.000
G0 X104.646 Y53.216 Z5.000
G0 X104.646 Y53.216 Z3.000
G1 X104.646 Y53.216 Z-3.000 F120.000
G2 X103.859 Y52.808 Z-3.000 I-1.523 J1.977 K0.000 F200.000
G2 X101.594 Y53.208 Z-3.000 I-0.743 J2.409 K0.000 F200.000
G3 X94.104 Y54.751 Z-3.000 I-7.968 J-19.733 K0.000 F200.000
G2 X54.012 Y54.746 Z-3.000 I-21.505 J12863.398 K0.000 F200.000
G2 X45.049 Y58.972 Z-3.000 I0.477 J12.628 K0.000 F200.000
G2 X47.516 Y63.385 Z-3.000 I2.160 J1.689 K0.000 F200.000
G1 X90.937 Y63.385 Z-3.000 F200.000
G2 X105.533 Y55.842 Z-3.000 I0.392 J-17.135 K0.000 F200.000
G2 X104.646 Y53.216 Z-3.000 I-2.409 J-0.649 K0.000 F200.000
G0 Z5.000
G0 X102.504 Y64.982 Z5.000
G0 X102.504 Y64.982 Z3.000
G1 X102.504 Y64.982 Z-3.000 F120.000
G2 X100.324 Y65.619 Z-3.000 I-0.455 J2.497 K0.000 F200.000
G3 X90.304 Y69.905 Z-3.000 I-9.871 J-9.220 K0.000 F200.000
G1 X45.940 Y69.905 Z-3.000 F200.000
G2 X38.166 Y75.796 Z-3.000 I-0.752 J7.082 K0.000 F200.000
G2 X41.111 Y79.595 Z-3.000 I2.701 J0.947 K0.000 F200.000
G1 X86.193 Y79.595 Z-3.000 F200.000
G2 X103.833 Y69.301 Z-3.000 I-1.503 J-22.836 K0.000 F200.000
G2 X102.797 Y65.054 Z-3.000 I-1.792 J-1.813 K0.000 F200.000
G2 X102.504 Y64.982 Z-3.000 I-0.747 J2.426 K0.000 F200.000
G0 Z5.000
G0 X102.637 Y79.145 Z5.000
G0 X102.637 Y79.145 Z3.000
G1 X102.637 Y79.145 Z-3.000 F120.000
G2 X100.751 Y80.120 Z-3.000 I0.022 J2.356 K0.000 F200.000
G3 X84.843 Y86.824 Z-3.000 I-16.614 J-17.197 K0.000 F200.000
G1 X40.300 Y86.825 Z-3.000 F200.000
G2 X34.041 Y91.718 Z-3.000 I-0.541 J5.757 K0.000 F200.000
G3 X26.886 Y129.263 Z-3.000 I-146.249 J-8.415 K0.000 F200.000
G2 X29.423 Y132.515 Z-3.000 I2.525 J0.646 K0.000 F200.000
G1 X55.886 Y132.515 Z-3.000 F200.000
G2 X104.904 Y82.247 Z-3.000 I-1.396 J-50.395 K0.000 F200.000
G2 X103.515 Y79.306 Z-3.000 I-2.279 J-0.722 K0.000 F200.000
G2 X102.637 Y79.145 Z-3.000 I-0.856 J2.195 K0.000 F200.000
G0 Z5.000
G0 Z5.000
(Finish operation: Ausschnitte)
(Begin operation: Profile002)
(Path: Profile002)
(Profile002)
(Compensated Tool Path. Diameter: 1.15)
G0 Z5.000
G0 X141.407 Y148.407
G0 Z3.000
G1 X141.407 Y148.407 Z-0.500 F120.000
G2 X141.575 Y148.000 Z-0.500 I-0.407 J-0.407 K0.000 F200.000
G1 X141.575 Y113.400 Z-0.500 F200.000
G2 X141.000 Y112.825 Z-0.500 I-0.575 J0.000 K0.000 F200.000
G1 X129.075 Y112.825 Z-0.500 F200.000
G1 X129.075 Y85.975 Z-0.500 F200.000
G1 X141.000 Y85.975 Z-0.500 F200.000
G2 X141.575 Y85.400 Z-0.500 I-0.000 J-0.575 K0.000 F200.000
G1 X141.575 Y57.300 Z-0.500 F200.000
G2 X141.247 Y56.781 Z-0.500 I-0.575 J0.000 K0.000 F200.000
G2 X140.564 Y56.691 Z-0.500 I-0.582 J1.782 K0.000 F200.000
G3 X141.043 Y50.873 Z-0.500 I0.438 J-2.892 K0.000 F200.000
G2 X141.575 Y50.300 Z-0.500 I-0.043 J-0.573 K0.000 F200.000
G1 X141.575 Y29.610 Z-0.500 F200.000
G2 X141.247 Y29.091 Z-0.500 I-0.575 J0.000 K0.000 F200.000
G2 X140.564 Y29.001 Z-0.500 I-0.582 J1.782 K0.000 F200.000
G3 X141.043 Y23.183 Z-0.500 I0.438 J-2.892 K0.000 F200.000
G2 X141.575 Y22.610 Z-0.500 I-0.043 J-0.573 K0.000 F200.000
G1 X141.575 Y1.000 Z-0.500 F200.000
G2 X141.000 Y0.425 Z-0.500 I-0.575 J0.000 K0.000 F200.000
G1 X7.000 Y0.425 Z-0.500 F200.000
G2 X0.426 Y6.968 Z-0.500 I0.001 J6.576 K0.000 F200.000
G1 X0.425 Y142.000 Z-0.500 F200.000
G2 X6.968 Y148.574 Z-0.500 I6.576 J-0.001 K0.000 F200.000
G1 X141.000 Y148.575 Z-0.500 F200.000
G2 X141.407 Y148.407 Z-0.500 I-0.000 J-0.575 K0.000 F200.000
G1 X141.407 Y148.407 Z-1.000 F120.000
G2 X141.575 Y148.000 Z-1.000 I-0.407 J-0.407 K0.000 F200.000
G1 X141.575 Y113.400 Z-1.000 F200.000
G2 X141.000 Y112.825 Z-1.000 I-0.575 J0.000 K0.000 F200.000
G1 X129.075 Y112.825 Z-1.000 F200.000
G1 X129.075 Y85.975 Z-1.000 F200.000
G1 X141.000 Y85.975 Z-1.000 F200.000
G2 X141.575 Y85.400 Z-1.000 I-0.000 J-0.575 K0.000 F200.000
G1 X141.575 Y57.300 Z-1.000 F200.000
G2 X141.247 Y56.781 Z-1.000 I-0.575 J0.000 K0.000 F200.000
G2 X140.564 Y56.691 Z-1.000 I-0.582 J1.782 K0.000 F200.000
G3 X141.043 Y50.873 Z-1.000 I0.438 J-2.892 K0.000 F200.000
G2 X141.575 Y50.300 Z-1.000 I-0.043 J-0.573 K0.000 F200.000
G1 X141.575 Y29.610 Z-1.000 F200.000
G2 X141.247 Y29.091 Z-1.000 I-0.575 J0.000 K0.000 F200.000
G2 X140.564 Y29.001 Z-1.000 I-0.582 J1.782 K0.000 F200.000
G3 X141.043 Y23.183 Z-1.000 I0.438 J-2.892 K0.000 F200.000
G2 X141.575 Y22.610 Z-1.000 I-0.043 J-0.573 K0.000 F200.000
G1 X141.575 Y1.000 Z-1.000 F200.000
G2 X141.000 Y0.425 Z-1.000 I-0.575 J0.000 K0.000 F200.000
G1 X7.000 Y0.425 Z-1.000 F200.000
G2 X0.426 Y6.968 Z-1.000 I0.001 J6.576 K0.000 F200.000
G1 X0.425 Y142.000 Z-1.000 F200.000
G2 X6.968 Y148.574 Z-1.000 I6.576 J-0.001 K0.000 F200.000
G1 X141.000 Y148.575 Z-1.000 F200.000
G2 X141.407 Y148.407 Z-1.000 I-0.000 J-0.575 K0.000 F200.000
G1 X141.407 Y148.407 Z-1.500 F120.000
G2 X141.575 Y148.000 Z-1.500 I-0.407 J-0.407 K0.000 F200.000
G1 X141.575 Y113.400 Z-1.500 F200.000
G2 X141.000 Y112.825 Z-1.500 I-0.575 J0.000 K0.000 F200.000
G1 X129.075 Y112.825 Z-1.500 F200.000
G1 X129.075 Y85.975 Z-1.500 F200.000
G1 X141.000 Y85.975 Z-1.500 F200.000
G2 X141.575 Y85.400 Z-1.500 I-0.000 J-0.575 K0.000 F200.000
G1 X141.575 Y57.300 Z-1.500 F200.000
G2 X141.247 Y56.781 Z-1.500 I-0.575 J0.000 K0.000 F200.000
G2 X140.564 Y56.691 Z-1.500 I-0.582 J1.782 K0.000 F200.000
G3 X141.043 Y50.873 Z-1.500 I0.438 J-2.892 K0.000 F200.000
G2 X141.575 Y50.300 Z-1.500 I-0.043 J-0.573 K0.000 F200.000
G1 X141.575 Y29.610 Z-1.500 F200.000
G2 X141.247 Y29.091 Z-1.500 I-0.575 J0.000 K0.000 F200.000
G2 X140.564 Y29.001 Z-1.500 I-0.582 J1.782 K0.000 F200.000
G3 X141.043 Y23.183 Z-1.500 I0.438 J-2.892 K0.000 F200.000
G2 X141.575 Y22.610 Z-1.500 I-0.043 J-0.573 K0.000 F200.000
G1 X141.575 Y1.000 Z-1.500 F200.000
G2 X141.000 Y0.425 Z-1.500 I-0.575 J0.000 K0.000 F200.000
G1 X7.000 Y0.425 Z-1.500 F200.000
G2 X0.426 Y6.968 Z-1.500 I0.001 J6.576 K0.000 F200.000
G1 X0.425 Y142.000 Z-1.500 F200.000
G2 X6.968 Y148.574 Z-1.500 I6.576 J-0.001 K0.000 F200.000
G1 X141.000 Y148.575 Z-1.500 F200.000
G2 X141.407 Y148.407 Z-1.500 I-0.000 J-0.575 K0.000 F200.000
G1 X141.407 Y148.407 Z-2.000 F120.000
G2 X141.575 Y148.000 Z-2.000 I-0.407 J-0.407 K0.000 F200.000
G1 X141.575 Y113.400 Z-2.000 F200.000
G2 X141.000 Y112.825 Z-2.000 I-0.575 J0.000 K0.000 F200.000
G1 X129.075 Y112.825 Z-2.000 F200.000
G1 X129.075 Y85.975 Z-2.000 F200.000
G1 X141.000 Y85.975 Z-2.000 F200.000
G2 X141.575 Y85.400 Z-2.000 I-0.000 J-0.575 K0.000 F200.000
G1 X141.575 Y57.300 Z-2.000 F200.000
G2 X141.247 Y56.781 Z-2.000 I-0.575 J0.000 K0.000 F200.000
G2 X140.564 Y56.691 Z-2.000 I-0.582 J1.782 K0.000 F200.000
G3 X141.043 Y50.873 Z-2.000 I0.438 J-2.892 K0.000 F200.000
G2 X141.575 Y50.300 Z-2.000 I-0.043 J-0.573 K0.000 F200.000
G1 X141.575 Y29.610 Z-2.000 F200.000
G2 X141.247 Y29.091 Z-2.000 I-0.575 J0.000 K0.000 F200.000
G2 X140.564 Y29.001 Z-2.000 I-0.582 J1.782 K0.000 F200.000
G3 X141.043 Y23.183 Z-2.000 I0.438 J-2.892 K0.000 F200.000
G2 X141.575 Y22.610 Z-2.000 I-0.043 J-0.573 K0.000 F200.000
G1 X141.575 Y1.000 Z-2.000 F200.000
G2 X141.000 Y0.425 Z-2.000 I-0.575 J0.000 K0.000 F200.000
G1 X7.000 Y0.425 Z-2.000 F200.000
G2 X0.426 Y6.968 Z-2.000 I0.001 J6.576 K0.000 F200.000
G1 X0.425 Y142.000 Z-2.000 F200.000
G2 X6.968 Y148.574 Z-2.000 I6.576 J-0.001 K0.000 F200.000
G1 X141.000 Y148.575 Z-2.000 F200.000
G2 X141.407 Y148.407 Z-2.000 I-0.000 J-0.575 K0.000 F200.000
G1 X141.407 Y148.407 Z-2.500 F120.000
G2 X141.575 Y148.000 Z-2.500 I-0.407 J-0.407 K0.000 F200.000
G1 X141.575 Y113.400 Z-2.500 F200.000
G2 X141.000 Y112.825 Z-2.500 I-0.575 J0.000 K0.000 F200.000
G1 X129.075 Y112.825 Z-2.500 F200.000
G1 X129.075 Y85.975 Z-2.500 F200.000
G1 X141.000 Y85.975 Z-2.500 F200.000
G2 X141.575 Y85.400 Z-2.500 I-0.000 J-0.575 K0.000 F200.000
G1 X141.575 Y57.300 Z-2.500 F200.000
G2 X141.247 Y56.781 Z-2.500 I-0.575 J0.000 K0.000 F200.000
G2 X140.564 Y56.691 Z-2.500 I-0.582 J1.782 K0.000 F200.000
G3 X141.043 Y50.873 Z-2.500 I0.438 J-2.892 K0.000 F200.000
G2 X141.575 Y50.300 Z-2.500 I-0.043 J-0.573 K0.000 F200.000
G1 X141.575 Y29.610 Z-2.500 F200.000
G2 X141.247 Y29.091 Z-2.500 I-0.575 J0.000 K0.000 F200.000
G2 X140.564 Y29.001 Z-2.500 I-0.582 J1.782 K0.000 F200.000
G3 X141.043 Y23.183 Z-2.500 I0.438 J-2.892 K0.000 F200.000
G2 X141.575 Y22.610 Z-2.500 I-0.043 J-0.573 K0.000 F200.000
G1 X141.575 Y1.000 Z-2.500 F200.000
G2 X141.000 Y0.425 Z-2.500 I-0.575 J0.000 K0.000 F200.000
G1 X7.000 Y0.425 Z-2.500 F200.000
G2 X0.426 Y6.968 Z-2.500 I0.001 J6.576 K0.000 F200.000
G1 X0.425 Y142.000 Z-2.500 F200.000
G2 X6.968 Y148.574 Z-2.500 I6.576 J-0.001 K0.000 F200.000
G1 X141.000 Y148.575 Z-2.500 F200.000
G2 X141.407 Y148.407 Z-2.500 I-0.000 J-0.575 K0.000 F200.000
G1 X141.407 Y148.407 Z-3.000 F120.000
G2 X141.575 Y148.000 Z-3.000 I-0.407 J-0.407 K0.000 F200.000
G1 X141.575 Y113.400 Z-3.000 F200.000
G2 X141.000 Y112.825 Z-3.000 I-0.575 J0.000 K0.000 F200.000
G1 X129.075 Y112.825 Z-3.000 F200.000
G1 X129.075 Y85.975 Z-3.000 F200.000
G1 X141.000 Y85.975 Z-3.000 F200.000
G2 X141.575 Y85.400 Z-3.000 I-0.000 J-0.575 K0.000 F200.000
G1 X141.575 Y57.300 Z-3.000 F200.000
G2 X141.247 Y56.781 Z-3.000 I-0.575 J0.000 K0.000 F200.000
G2 X140.564 Y56.691 Z-3.000 I-0.582 J1.782 K0.000 F200.000
G3 X141.043 Y50.873 Z-3.000 I0.438 J-2.892 K0.000 F200.000
G2 X141.575 Y50.300 Z-3.000 I-0.043 J-0.573 K0.000 F200.000
G1 X141.575 Y29.610 Z-3.000 F200.000
G2 X141.247 Y29.091 Z-3.000 I-0.575 J0.000 K0.000 F200.000
G2 X140.564 Y29.001 Z-3.000 I-0.582 J1.782 K0.000 F200.000
G3 X141.043 Y23.183 Z-3.000 I0.438 J-2.892 K0.000 F200.000
G2 X141.575 Y22.610 Z-3.000 I-0.043 J-0.573 K0.000 F200.000
G1 X141.575 Y1.000 Z-3.000 F200.000
G2 X141.000 Y0.425 Z-3.000 I-0.575 J0.000 K0.000 F200.000
G1 X7.000 Y0.425 Z-3.000 F200.000
G2 X0.426 Y6.968 Z-3.000 I0.001 J6.576 K0.000 F200.000
G1 X0.425 Y142.000 Z-3.000 F200.000
G2 X6.968 Y148.574 Z-3.000 I6.576 J-0.001 K0.000 F200.000
G1 X141.000 Y148.575 Z-3.000 F200.000
G2 X141.407 Y148.407 Z-3.000 I-0.000 J-0.575 K0.000 F200.000
G0 Z5.000
G0 Z5.000
(Finish operation: Profile002)
(Begin postamble)
M5
G17 G90
M2
M30
