(Exported by FreeCAD)
(Post Processor: grbl_post)
(Output Time:2021-05-08 19:36:14.796226)
(Begin preamble)
G17 G90
G21
(Begin operation: Fixture)
(Path: Fixture)
G54
(Finish operation: Fixture)
(Begin operation: 1,15mm Endmill005)
(Path: 1,15mm Endmill005)
(1,15mm Endmill005)
(Begin toolchange)
( M6 T1.0 )
M3 S10000.0
(Finish operation: 1,15mm Endmill005)
(Begin operation: Nut 3)
(Path: Nut 3)
(Pocket_Shape002)
G0 Z5.000
G0 X-8.315 Y-12.655
G0 Z3.000
G1 X-8.315 Y-12.655 Z-0.300 F120.000
G1 X-8.315 Y-13.505 Z-0.300 F200.000
G1 X-140.425 Y-13.505 Z-0.300 F200.000
G1 X-140.425 Y-12.655 Z-0.300 F200.000
G1 X-8.315 Y-12.655 Z-0.300 F200.000
G0 Z5.000
G0 Z5.000
G0 X-8.315 Y-12.655
G0 X-98.345 Y-131.585
G0 X-98.345 Y-131.585 Z3.000
G1 X-98.345 Y-131.585 Z-0.300 F120.000
G1 X-98.345 Y-132.435 Z-0.300 F200.000
G1 X-140.425 Y-132.435 Z-0.300 F200.000
G1 X-140.425 Y-131.585 Z-0.300 F200.000
G1 X-98.345 Y-131.585 Z-0.300 F200.000
G0 Z5.000
G0 Z5.000
(Finish operation: Nut 3)
(Begin operation: Nut 4)
(Path: Nut 4)
(Pocket_Shape003)
G0 Z5.000
G0 X-44.585 Y-109.965
G0 Z3.000
G1 X-44.585 Y-109.965 Z-0.300 F120.000
G1 X-44.585 Y-110.815 Z-0.300 F200.000
G1 X-140.425 Y-110.815 Z-0.300 F200.000
G1 X-140.425 Y-109.965 Z-0.300 F200.000
G1 X-44.585 Y-109.965 Z-0.300 F200.000
G0 Z5.000
G0 Z5.000
(Finish operation: Nut 4)
(Begin operation: Ausschnitte 2)
(Path: Ausschnitte 2)
(Ausschnitte 2)
(Compensated Tool Path. Diameter: 1.15)
G0 Z5.000
G0 X-27.745 Y-17.087
G0 Z3.000
G1 X-27.745 Y-17.087 Z-0.500 F120.000
G2 X-26.885 Y-19.732 Z-0.500 I-1.666 J-2.004 K0.000 F200.000
G3 X-34.041 Y-57.282 Z-0.500 I139.139 J-45.972 K0.000 F200.000
G2 X-40.281 Y-62.175 Z-0.500 I-5.715 J0.863 K0.000 F200.000
G1 X-84.810 Y-62.175 Z-0.500 F200.000
G3 X-100.707 Y-68.835 Z-0.500 I0.676 J-23.915 K0.000 F200.000
G2 X-102.017 Y-69.766 Z-0.500 I-2.006 J1.437 K0.000 F200.000
G2 X-104.914 Y-66.846 Z-0.500 I-0.642 J2.260 K0.000 F200.000
G2 X-55.886 Y-16.485 Z-0.500 I50.432 J-0.051 K0.000 F200.000
G1 X-29.423 Y-16.485 Z-0.500 F200.000
G2 X-27.745 Y-17.087 Z-0.500 I0.012 J-2.605 K0.000 F200.000
G0 Z5.000
G0 X-40.204 Y-69.472 Z5.000
G0 X-40.204 Y-69.472 Z3.000
G1 X-40.204 Y-69.472 Z-0.500 F120.000
G2 X-38.163 Y-73.191 Z-0.500 I-0.662 J-2.783 K0.000 F200.000
G2 X-45.912 Y-79.096 Z-0.500 I-7.021 J1.177 K0.000 F200.000
G1 X-90.290 Y-79.095 Z-0.500 F200.000
G3 X-100.315 Y-83.375 Z-0.500 I-0.163 J-13.500 K0.000 F200.000
G2 X-101.281 Y-83.940 Z-0.500 I-1.746 J1.877 K0.000 F200.000
G2 X-103.859 Y-79.733 Z-0.500 I-0.768 J2.422 K0.000 F200.000
G2 X-86.193 Y-69.405 Z-0.500 I19.172 J-12.521 K0.000 F200.000
G1 X-41.111 Y-69.405 Z-0.500 F200.000
G2 X-40.204 Y-69.472 Z-0.500 I0.245 J-2.850 K0.000 F200.000
G0 Z5.000
G0 X-46.256 Y-85.768 Z5.000
G0 X-46.256 Y-85.768 Z3.000
G1 X-46.256 Y-85.768 Z-0.500 F120.000
G2 X-45.049 Y-90.028 Z-0.500 I-0.955 J-2.571 K0.000 F200.000
G2 X-54.012 Y-94.254 Z-0.500 I-9.439 J8.401 K0.000 F200.000
G2 X-92.839 Y-94.255 Z-0.500 I-19.888 J17019.568 K0.000 F200.000
G3 X-101.485 Y-95.739 Z-0.500 I-0.729 J-21.684 K0.000 F200.000
G1 X-101.594 Y-95.792 Z-0.500 F200.000
G2 X-102.323 Y-96.174 Z-0.500 I-1.580 J2.125 K0.000 F200.000
G2 X-105.533 Y-93.158 Z-0.500 I-0.796 J2.369 K0.000 F200.000
G2 X-90.937 Y-85.615 Z-0.500 I14.203 J-9.590 K0.000 F200.000
G1 X-47.530 Y-85.615 Z-0.500 F200.000
G2 X-46.256 Y-85.768 Z-0.500 I0.319 J-2.724 K0.000 F200.000
G0 Z5.000
G0 X-53.817 Y-99.697 Z5.000
G0 X-53.817 Y-99.697 Z3.000
G1 X-53.817 Y-99.697 Z-0.500 F120.000
G2 X-53.245 Y-102.799 Z-0.500 I-0.967 J-1.782 K0.000 F200.000
G2 X-63.086 Y-107.015 Z-0.500 I-10.100 J9.982 K0.000 F200.000
G1 X-101.480 Y-107.015 Z-0.500 F200.000
G2 X-106.138 Y-105.165 Z-0.500 I-0.664 J5.117 K0.000 F200.000
G2 X-105.924 Y-103.693 Z-0.500 I1.573 J0.523 K0.000 F200.000
G2 X-94.537 Y-99.465 Z-0.500 I10.414 J-10.598 K0.000 F200.000
G1 X-55.020 Y-99.465 Z-0.500 F200.000
G2 X-53.817 Y-99.697 Z-0.500 I0.235 J-2.014 K0.000 F200.000
G0 Z5.000
G0 X-98.307 Y-121.599 Z5.000
G0 X-98.307 Y-121.599 Z3.000
G1 X-98.307 Y-121.599 Z-0.500 F120.000
G2 X-99.862 Y-125.611 Z-0.500 I-2.623 J-1.291 K0.000 F200.000
G2 X-101.998 Y-120.169 Z-0.500 I-1.068 J2.721 K0.000 F200.000
G2 X-98.307 Y-121.599 Z-0.500 I1.068 J-2.721 K0.000 F200.000
G0 Z5.000
G0 X-112.475 Y-106.310 Z5.000
G0 X-112.475 Y-106.310 Z3.000
G1 X-112.475 Y-106.310 Z-0.500 F120.000
G2 X-113.894 Y-106.994 Z-0.500 I-1.821 J1.965 K0.000 F200.000
G2 X-115.349 Y-107.020 Z-0.500 I-0.891 J9.060 K0.000 F200.000
G2 X-117.945 Y-104.192 Z-0.500 I0.072 J2.672 K0.000 F200.000
G1 X-117.945 Y-63.631 Z-0.500 F200.000
G2 X-109.665 Y-17.774 Z-0.500 I153.725 J-4.081 K0.000 F200.000
G2 X-108.409 Y-16.447 Z-0.500 I2.200 J-0.823 K0.000 F200.000
G2 X-96.917 Y-18.001 Z-0.500 I3.845 J-14.831 K0.000 F200.000
G2 X-96.136 Y-21.134 Z-0.500 I-1.711 J-2.091 K0.000 F200.000
G3 X-111.620 Y-63.711 Z-0.500 I66.351 J-48.232 K0.000 F200.000
G1 X-111.622 Y-104.192 Z-0.500 F200.000
G2 X-112.475 Y-106.310 Z-0.500 I-2.674 J-0.153 K0.000 F200.000
G1 X-112.475 Y-106.310 Z-1.000 F120.000
G2 X-113.894 Y-106.994 Z-1.000 I-1.821 J1.965 K0.000 F200.000
G2 X-115.349 Y-107.020 Z-1.000 I-0.891 J9.060 K0.000 F200.000
G2 X-117.945 Y-104.192 Z-1.000 I0.072 J2.672 K0.000 F200.000
G1 X-117.945 Y-63.631 Z-1.000 F200.000
G2 X-109.665 Y-17.774 Z-1.000 I153.725 J-4.081 K0.000 F200.000
G2 X-108.409 Y-16.447 Z-1.000 I2.200 J-0.823 K0.000 F200.000
G2 X-96.917 Y-18.001 Z-1.000 I3.845 J-14.831 K0.000 F200.000
G2 X-96.136 Y-21.134 Z-1.000 I-1.711 J-2.091 K0.000 F200.000
G3 X-111.620 Y-63.711 Z-1.000 I66.351 J-48.232 K0.000 F200.000
G1 X-111.622 Y-104.192 Z-1.000 F200.000
G2 X-112.475 Y-106.310 Z-1.000 I-2.674 J-0.153 K0.000 F200.000
G0 Z5.000
G0 X-106.187 Y-104.984 Z5.000
G0 X-106.187 Y-104.984 Z3.000
G1 X-106.187 Y-104.984 Z-1.000 F120.000
G2 X-105.924 Y-103.693 Z-1.000 I1.622 J0.342 K0.000 F200.000
G2 X-94.537 Y-99.465 Z-1.000 I10.414 J-10.598 K0.000 F200.000
G1 X-55.020 Y-99.465 Z-1.000 F200.000
G2 X-53.245 Y-102.799 Z-1.000 I0.235 J-2.014 K0.000 F200.000
G2 X-63.086 Y-107.015 Z-1.000 I-10.100 J9.982 K0.000 F200.000
G1 X-101.480 Y-107.015 Z-1.000 F200.000
G2 X-106.138 Y-105.165 Z-1.000 I-0.664 J5.117 K0.000 F200.000
G2 X-106.187 Y-104.984 Z-1.000 I1.573 J0.523 K0.000 F200.000
G0 Z5.000
G0 X-103.780 Y-96.215 Z5.000
G0 X-103.780 Y-96.215 Z3.000
G1 X-103.780 Y-96.215 Z-1.000 F120.000
G2 X-105.533 Y-93.158 Z-1.000 I0.661 J2.410 K0.000 F200.000
G2 X-90.937 Y-85.615 Z-1.000 I14.203 J-9.590 K0.000 F200.000
G1 X-47.530 Y-85.615 Z-1.000 F200.000
G2 X-45.049 Y-90.028 Z-1.000 I0.319 J-2.724 K0.000 F200.000
G2 X-54.012 Y-94.254 Z-1.000 I-9.439 J8.401 K0.000 F200.000
G2 X-92.839 Y-94.255 Z-1.000 I-19.888 J17019.568 K0.000 F200.000
G3 X-101.485 Y-95.739 Z-1.000 I-0.729 J-21.684 K0.000 F200.000
G1 X-101.594 Y-95.792 Z-1.000 F200.000
G2 X-102.323 Y-96.174 Z-1.000 I-1.580 J2.125 K0.000 F200.000
G2 X-103.780 Y-96.215 Z-1.000 I-0.796 J2.369 K0.000 F200.000
G0 Z5.000
G0 X-102.346 Y-84.041 Z5.000
G0 X-102.346 Y-84.041 Z3.000
G1 X-102.346 Y-84.041 Z-1.000 F120.000
G2 X-103.859 Y-79.733 Z-1.000 I0.297 J2.524 K0.000 F200.000
G2 X-86.193 Y-69.405 Z-1.000 I19.172 J-12.521 K0.000 F200.000
G1 X-41.111 Y-69.405 Z-1.000 F200.000
G2 X-38.163 Y-73.191 Z-1.000 I0.245 J-2.850 K0.000 F200.000
G2 X-45.912 Y-79.096 Z-1.000 I-7.021 J1.177 K0.000 F200.000
G1 X-90.290 Y-79.095 Z-1.000 F200.000
G3 X-100.315 Y-83.375 Z-1.000 I-0.163 J-13.500 K0.000 F200.000
G2 X-101.281 Y-83.940 Z-1.000 I-1.746 J1.877 K0.000 F200.000
G2 X-102.346 Y-84.041 Z-1.000 I-0.768 J2.422 K0.000 F200.000
G0 Z5.000
G0 X-102.615 Y-69.855 Z5.000
G0 X-102.615 Y-69.855 Z3.000
G1 X-102.615 Y-69.855 Z-1.000 F120.000
G2 X-104.914 Y-66.846 Z-1.000 I-0.044 J2.349 K0.000 F200.000
G2 X-55.886 Y-16.485 Z-1.000 I50.432 J-0.051 K0.000 F200.000
G1 X-29.423 Y-16.485 Z-1.000 F200.000
G2 X-26.885 Y-19.732 Z-1.000 I0.012 J-2.605 K0.000 F200.000
G3 X-34.041 Y-57.282 Z-1.000 I139.139 J-45.972 K0.000 F200.000
G2 X-40.281 Y-62.175 Z-1.000 I-5.715 J0.863 K0.000 F200.000
G1 X-84.810 Y-62.175 Z-1.000 F200.000
G3 X-100.707 Y-68.835 Z-1.000 I0.676 J-23.915 K0.000 F200.000
G2 X-102.017 Y-69.766 Z-1.000 I-2.006 J1.437 K0.000 F200.000
G2 X-102.615 Y-69.855 Z-1.000 I-0.642 J2.260 K0.000 F200.000
G0 Z5.000
G0 X-101.023 Y-119.968 Z5.000
G0 X-101.023 Y-119.968 Z3.000
G1 X-101.023 Y-119.968 Z-1.000 F120.000
G2 X-99.862 Y-125.611 Z-1.000 I0.093 J-2.922 K0.000 F200.000
G2 X-101.998 Y-120.169 Z-1.000 I-1.068 J2.721 K0.000 F200.000
G2 X-101.023 Y-119.968 Z-1.000 I1.068 J-2.721 K0.000 F200.000
G1 X-101.023 Y-119.968 Z-1.500 F120.000
G2 X-99.862 Y-125.611 Z-1.500 I0.093 J-2.922 K0.000 F200.000
G2 X-101.998 Y-120.169 Z-1.500 I-1.068 J2.721 K0.000 F200.000
G2 X-101.023 Y-119.968 Z-1.500 I1.068 J-2.721 K0.000 F200.000
G0 Z5.000
G0 X-101.824 Y-107.048 Z5.000
G0 X-101.824 Y-107.048 Z3.000
G1 X-101.824 Y-107.048 Z-1.500 F120.000
G2 X-106.138 Y-105.165 Z-1.500 I-0.320 J5.150 K0.000 F200.000
G2 X-105.924 Y-103.693 Z-1.500 I1.573 J0.523 K0.000 F200.000
G2 X-94.537 Y-99.465 Z-1.500 I10.414 J-10.598 K0.000 F200.000
G1 X-55.020 Y-99.465 Z-1.500 F200.000
G2 X-53.245 Y-102.799 Z-1.500 I0.235 J-2.014 K0.000 F200.000
G2 X-63.086 Y-107.015 Z-1.500 I-10.100 J9.982 K0.000 F200.000
G1 X-101.480 Y-107.015 Z-1.500 F200.000
G2 X-101.824 Y-107.048 Z-1.500 I-0.664 J5.117 K0.000 F200.000
G0 Z5.000
G0 X-111.678 Y-104.913 Z5.000
G0 X-111.678 Y-104.913 Z3.000
G1 X-111.678 Y-104.913 Z-1.500 F120.000
G2 X-113.894 Y-106.994 Z-1.500 I-2.618 J0.567 K0.000 F200.000
G2 X-115.349 Y-107.020 Z-1.500 I-0.891 J9.060 K0.000 F200.000
G2 X-117.945 Y-104.192 Z-1.500 I0.072 J2.672 K0.000 F200.000
G1 X-117.945 Y-63.631 Z-1.500 F200.000
G2 X-109.665 Y-17.774 Z-1.500 I153.725 J-4.081 K0.000 F200.000
G2 X-108.409 Y-16.447 Z-1.500 I2.200 J-0.823 K0.000 F200.000
G2 X-96.917 Y-18.001 Z-1.500 I3.845 J-14.831 K0.000 F200.000
G2 X-96.136 Y-21.134 Z-1.500 I-1.711 J-2.091 K0.000 F200.000
G3 X-111.620 Y-63.711 Z-1.500 I66.351 J-48.232 K0.000 F200.000
G1 X-111.622 Y-104.192 Z-1.500 F200.000
G2 X-111.678 Y-104.913 Z-1.500 I-2.674 J-0.153 K0.000 F200.000
G0 Z5.000
G0 X-104.644 Y-95.785 Z5.000
G0 X-104.644 Y-95.785 Z3.000
G1 X-104.644 Y-95.785 Z-1.500 F120.000
G2 X-105.533 Y-93.158 Z-1.500 I1.526 J1.980 K0.000 F200.000
G2 X-90.937 Y-85.615 Z-1.500 I14.203 J-9.590 K0.000 F200.000
G1 X-47.530 Y-85.615 Z-1.500 F200.000
G2 X-45.049 Y-90.028 Z-1.500 I0.319 J-2.724 K0.000 F200.000
G2 X-54.012 Y-94.254 Z-1.500 I-9.439 J8.401 K0.000 F200.000
G2 X-92.839 Y-94.255 Z-1.500 I-19.888 J17019.568 K0.000 F200.000
G3 X-101.485 Y-95.739 Z-1.500 I-0.729 J-21.684 K0.000 F200.000
G1 X-101.594 Y-95.792 Z-1.500 F200.000
G2 X-102.323 Y-96.174 Z-1.500 I-1.580 J2.125 K0.000 F200.000
G2 X-104.644 Y-95.785 Z-1.500 I-0.796 J2.369 K0.000 F200.000
G0 Z5.000
G0 X-102.504 Y-84.017 Z5.000
G0 X-102.504 Y-84.017 Z3.000
G1 X-102.504 Y-84.017 Z-1.500 F120.000
G2 X-103.859 Y-79.733 Z-1.500 I0.455 J2.500 K0.000 F200.000
G2 X-86.193 Y-69.405 Z-1.500 I19.172 J-12.521 K0.000 F200.000
G1 X-41.111 Y-69.405 Z-1.500 F200.000
G2 X-38.163 Y-73.191 Z-1.500 I0.245 J-2.850 K0.000 F200.000
G2 X-45.912 Y-79.096 Z-1.500 I-7.021 J1.177 K0.000 F200.000
G1 X-90.290 Y-79.095 Z-1.500 F200.000
G3 X-100.315 Y-83.375 Z-1.500 I-0.163 J-13.500 K0.000 F200.000
G2 X-101.281 Y-83.940 Z-1.500 I-1.746 J1.877 K0.000 F200.000
G2 X-102.504 Y-84.017 Z-1.500 I-0.768 J2.422 K0.000 F200.000
G0 Z5.000
G0 X-102.637 Y-69.855 Z5.000
G0 X-102.637 Y-69.855 Z3.000
G1 X-102.637 Y-69.855 Z-1.500 F120.000
G2 X-104.914 Y-66.846 Z-1.500 I-0.022 J2.349 K0.000 F200.000
G2 X-55.886 Y-16.485 Z-1.500 I50.432 J-0.051 K0.000 F200.000
G1 X-29.423 Y-16.485 Z-1.500 F200.000
G2 X-26.885 Y-19.732 Z-1.500 I0.012 J-2.605 K0.000 F200.000
G3 X-34.041 Y-57.282 Z-1.500 I139.139 J-45.972 K0.000 F200.000
G2 X-40.281 Y-62.175 Z-1.500 I-5.715 J0.863 K0.000 F200.000
G1 X-84.810 Y-62.175 Z-1.500 F200.000
G3 X-100.707 Y-68.835 Z-1.500 I0.676 J-23.915 K0.000 F200.000
G2 X-102.017 Y-69.766 Z-1.500 I-2.006 J1.437 K0.000 F200.000
G2 X-102.637 Y-69.855 Z-1.500 I-0.642 J2.260 K0.000 F200.000
G1 X-102.637 Y-69.855 Z-2.000 F120.000
G2 X-104.914 Y-66.846 Z-2.000 I-0.022 J2.349 K0.000 F200.000
G2 X-55.886 Y-16.485 Z-2.000 I50.432 J-0.051 K0.000 F200.000
G1 X-29.423 Y-16.485 Z-2.000 F200.000
G2 X-26.885 Y-19.732 Z-2.000 I0.012 J-2.605 K0.000 F200.000
G3 X-34.041 Y-57.282 Z-2.000 I139.139 J-45.972 K0.000 F200.000
G2 X-40.281 Y-62.175 Z-2.000 I-5.715 J0.863 K0.000 F200.000
G1 X-84.810 Y-62.175 Z-2.000 F200.000
G3 X-100.707 Y-68.835 Z-2.000 I0.676 J-23.915 K0.000 F200.000
G2 X-102.017 Y-69.766 Z-2.000 I-2.006 J1.437 K0.000 F200.000
G2 X-102.637 Y-69.855 Z-2.000 I-0.642 J2.260 K0.000 F200.000
G0 Z5.000
G0 X-99.006 Y-74.385 Z5.000
G0 X-99.006 Y-74.385 Z3.000
G1 X-99.006 Y-74.385 Z-2.000 F120.000
G2 X-86.193 Y-69.405 Z-2.000 I14.320 J-17.869 K0.000 F200.000
G1 X-41.111 Y-69.405 Z-2.000 F200.000
G2 X-38.163 Y-73.191 Z-2.000 I0.245 J-2.850 K0.000 F200.000
G2 X-45.912 Y-79.096 Z-2.000 I-7.021 J1.177 K0.000 F200.000
G1 X-90.290 Y-79.095 Z-2.000 F200.000
G3 X-100.315 Y-83.375 Z-2.000 I-0.163 J-13.500 K0.000 F200.000
G2 X-101.281 Y-83.940 Z-2.000 I-1.746 J1.877 K0.000 F200.000
G2 X-103.859 Y-79.733 Z-2.000 I-0.768 J2.422 K0.000 F200.000
G2 X-99.006 Y-74.385 Z-2.000 I19.172 J-12.521 K0.000 F200.000
G0 Z5.000
G0 X-95.807 Y-86.206 Z5.000
G0 X-95.807 Y-86.206 Z3.000
G1 X-95.807 Y-86.206 Z-2.000 F120.000
G2 X-90.937 Y-85.615 Z-2.000 I4.477 J-16.542 K0.000 F200.000
G1 X-47.530 Y-85.615 Z-2.000 F200.000
G2 X-45.049 Y-90.028 Z-2.000 I0.319 J-2.724 K0.000 F200.000
G2 X-54.012 Y-94.254 Z-2.000 I-9.439 J8.401 K0.000 F200.000
G2 X-92.839 Y-94.255 Z-2.000 I-19.888 J17019.568 K0.000 F200.000
G3 X-101.485 Y-95.739 Z-2.000 I-0.729 J-21.684 K0.000 F200.000
G1 X-101.594 Y-95.792 Z-2.000 F200.000
G2 X-102.323 Y-96.174 Z-2.000 I-1.580 J2.125 K0.000 F200.000
G2 X-105.533 Y-93.158 Z-2.000 I-0.796 J2.369 K0.000 F200.000
G2 X-95.807 Y-86.206 Z-2.000 I14.203 J-9.590 K0.000 F200.000
G0 Z5.000
G0 X-95.667 Y-99.434 Z5.000
G0 X-95.667 Y-99.434 Z3.000
G1 X-95.667 Y-99.434 Z-2.000 F120.000
G2 X-94.537 Y-99.465 Z-2.000 I0.158 J-14.858 K0.000 F200.000
G1 X-55.020 Y-99.465 Z-2.000 F200.000
G2 X-53.245 Y-102.799 Z-2.000 I0.235 J-2.014 K0.000 F200.000
G2 X-63.086 Y-107.015 Z-2.000 I-10.100 J9.982 K0.000 F200.000
G1 X-101.480 Y-107.015 Z-2.000 F200.000
G2 X-106.138 Y-105.165 Z-2.000 I-0.664 J5.117 K0.000 F200.000
G2 X-105.924 Y-103.693 Z-2.000 I1.573 J0.523 K0.000 F200.000
G2 X-95.667 Y-99.434 Z-2.000 I10.414 J-10.598 K0.000 F200.000
G0 Z5.000
G0 X-111.621 Y-99.433 Z5.000
G0 X-111.621 Y-99.433 Z3.000
G1 X-111.621 Y-99.433 Z-2.000 F120.000
G1 X-111.622 Y-104.192 Z-2.000 F200.000
G2 X-113.894 Y-106.994 Z-2.000 I-2.674 J-0.153 K0.000 F200.000
G2 X-115.349 Y-107.020 Z-2.000 I-0.891 J9.060 K0.000 F200.000
G2 X-117.945 Y-104.192 Z-2.000 I0.072 J2.672 K0.000 F200.000
G1 X-117.945 Y-63.631 Z-2.000 F200.000
G2 X-109.665 Y-17.774 Z-2.000 I153.725 J-4.081 K0.000 F200.000
G2 X-108.409 Y-16.447 Z-2.000 I2.200 J-0.823 K0.000 F200.000
G2 X-96.917 Y-18.001 Z-2.000 I3.845 J-14.831 K0.000 F200.000
G2 X-96.136 Y-21.134 Z-2.000 I-1.711 J-2.091 K0.000 F200.000
G3 X-111.620 Y-63.711 Z-2.000 I66.351 J-48.232 K0.000 F200.000
G1 X-111.621 Y-99.433 Z-2.000 F200.000
G0 Z5.000
G0 X-102.142 Y-120.230 Z5.000
G0 X-102.142 Y-120.230 Z3.000
G1 X-102.142 Y-120.230 Z-2.000 F120.000
G2 X-101.998 Y-120.169 Z-2.000 I1.212 J-2.660 K0.000 F200.000
G2 X-99.862 Y-125.611 Z-2.000 I1.068 J-2.721 K0.000 F200.000
G2 X-102.142 Y-120.230 Z-2.000 I-1.068 J2.721 K0.000 F200.000
G1 X-102.142 Y-120.230 Z-2.500 F120.000
G2 X-101.998 Y-120.169 Z-2.500 I1.212 J-2.660 K0.000 F200.000
G2 X-99.862 Y-125.611 Z-2.500 I1.068 J-2.721 K0.000 F200.000
G2 X-102.142 Y-120.230 Z-2.500 I-1.068 J2.721 K0.000 F200.000
G0 Z5.000
G0 X-102.144 Y-107.058 Z5.000
G0 X-102.144 Y-107.058 Z3.000
G1 X-102.144 Y-107.058 Z-2.500 F120.000
G2 X-106.138 Y-105.165 Z-2.500 I-0.000 J5.160 K0.000 F200.000
G2 X-105.924 Y-103.693 Z-2.500 I1.573 J0.523 K0.000 F200.000
G2 X-94.537 Y-99.465 Z-2.500 I10.414 J-10.598 K0.000 F200.000
G1 X-55.020 Y-99.465 Z-2.500 F200.000
G2 X-53.245 Y-102.799 Z-2.500 I0.235 J-2.014 K0.000 F200.000
G2 X-63.086 Y-107.015 Z-2.500 I-10.100 J9.982 K0.000 F200.000
G1 X-101.480 Y-107.015 Z-2.500 F200.000
G2 X-102.144 Y-107.058 Z-2.500 I-0.664 J5.117 K0.000 F200.000
G0 Z5.000
G0 X-111.682 Y-104.929 Z5.000
G0 X-111.682 Y-104.929 Z3.000
G1 X-111.682 Y-104.929 Z-2.500 F120.000
G2 X-113.894 Y-106.994 Z-2.500 I-2.614 J0.584 K0.000 F200.000
G2 X-115.349 Y-107.020 Z-2.500 I-0.891 J9.060 K0.000 F200.000
G2 X-117.945 Y-104.192 Z-2.500 I0.072 J2.672 K0.000 F200.000
G1 X-117.945 Y-63.631 Z-2.500 F200.000
G2 X-109.665 Y-17.774 Z-2.500 I153.725 J-4.081 K0.000 F200.000
G2 X-108.409 Y-16.447 Z-2.500 I2.200 J-0.823 K0.000 F200.000
G2 X-96.917 Y-18.001 Z-2.500 I3.845 J-14.831 K0.000 F200.000
G2 X-96.136 Y-21.134 Z-2.500 I-1.711 J-2.091 K0.000 F200.000
G3 X-111.620 Y-63.711 Z-2.500 I66.351 J-48.232 K0.000 F200.000
G1 X-111.622 Y-104.192 Z-2.500 F200.000
G2 X-111.682 Y-104.929 Z-2.500 I-2.674 J-0.153 K0.000 F200.000
G0 Z5.000
G0 X-104.643 Y-95.786 Z5.000
G0 X-104.643 Y-95.786 Z3.000
G1 X-104.643 Y-95.786 Z-2.500 F120.000
G2 X-105.533 Y-93.158 Z-2.500 I1.525 J1.981 K0.000 F200.000
G2 X-90.937 Y-85.615 Z-2.500 I14.203 J-9.590 K0.000 F200.000
G1 X-47.530 Y-85.615 Z-2.500 F200.000
G2 X-45.049 Y-90.028 Z-2.500 I0.319 J-2.724 K0.000 F200.000
G2 X-54.012 Y-94.254 Z-2.500 I-9.439 J8.401 K0.000 F200.000
G2 X-92.839 Y-94.255 Z-2.500 I-19.888 J17019.568 K0.000 F200.000
G3 X-101.485 Y-95.739 Z-2.500 I-0.729 J-21.684 K0.000 F200.000
G1 X-101.594 Y-95.792 Z-2.500 F200.000
G2 X-102.323 Y-96.174 Z-2.500 I-1.580 J2.125 K0.000 F200.000
G2 X-104.643 Y-95.786 Z-2.500 I-0.796 J2.369 K0.000 F200.000
G0 Z5.000
G0 X-102.504 Y-84.017 Z5.000
G0 X-102.504 Y-84.017 Z3.000
G1 X-102.504 Y-84.017 Z-2.500 F120.000
G2 X-103.859 Y-79.733 Z-2.500 I0.455 J2.500 K0.000 F200.000
G2 X-86.193 Y-69.405 Z-2.500 I19.172 J-12.521 K0.000 F200.000
G1 X-41.111 Y-69.405 Z-2.500 F200.000
G2 X-38.163 Y-73.191 Z-2.500 I0.245 J-2.850 K0.000 F200.000
G2 X-45.912 Y-79.096 Z-2.500 I-7.021 J1.177 K0.000 F200.000
G1 X-90.290 Y-79.095 Z-2.500 F200.000
G3 X-100.315 Y-83.375 Z-2.500 I-0.163 J-13.500 K0.000 F200.000
G2 X-101.281 Y-83.940 Z-2.500 I-1.746 J1.877 K0.000 F200.000
G2 X-102.504 Y-84.017 Z-2.500 I-0.768 J2.422 K0.000 F200.000
G0 Z5.000
G0 X-102.637 Y-69.855 Z5.000
G0 X-102.637 Y-69.855 Z3.000
G1 X-102.637 Y-69.855 Z-2.500 F120.000
G2 X-104.914 Y-66.846 Z-2.500 I-0.022 J2.349 K0.000 F200.000
G2 X-55.886 Y-16.485 Z-2.500 I50.432 J-0.051 K0.000 F200.000
G1 X-29.423 Y-16.485 Z-2.500 F200.000
G2 X-26.885 Y-19.732 Z-2.500 I0.012 J-2.605 K0.000 F200.000
G3 X-34.041 Y-57.282 Z-2.500 I139.139 J-45.972 K0.000 F200.000
G2 X-40.281 Y-62.175 Z-2.500 I-5.715 J0.863 K0.000 F200.000
G1 X-84.810 Y-62.175 Z-2.500 F200.000
G3 X-100.707 Y-68.835 Z-2.500 I0.676 J-23.915 K0.000 F200.000
G2 X-102.017 Y-69.766 Z-2.500 I-2.006 J1.437 K0.000 F200.000
G2 X-102.637 Y-69.855 Z-2.500 I-0.642 J2.260 K0.000 F200.000
G1 X-102.637 Y-69.855 Z-3.000 F120.000
G2 X-104.914 Y-66.846 Z-3.000 I-0.022 J2.349 K0.000 F200.000
G2 X-55.886 Y-16.485 Z-3.000 I50.432 J-0.051 K0.000 F200.000
G1 X-29.423 Y-16.485 Z-3.000 F200.000
G2 X-26.885 Y-19.732 Z-3.000 I0.012 J-2.605 K0.000 F200.000
G3 X-34.041 Y-57.282 Z-3.000 I139.139 J-45.972 K0.000 F200.000
G2 X-40.281 Y-62.175 Z-3.000 I-5.715 J0.863 K0.000 F200.000
G1 X-84.810 Y-62.175 Z-3.000 F200.000
G3 X-100.707 Y-68.835 Z-3.000 I0.676 J-23.915 K0.000 F200.000
G2 X-102.017 Y-69.766 Z-3.000 I-2.006 J1.437 K0.000 F200.000
G2 X-102.637 Y-69.855 Z-3.000 I-0.642 J2.260 K0.000 F200.000
G0 Z5.000
G0 X-99.006 Y-74.385 Z5.000
G0 X-99.006 Y-74.385 Z3.000
G1 X-99.006 Y-74.385 Z-3.000 F120.000
G2 X-86.193 Y-69.405 Z-3.000 I14.320 J-17.869 K0.000 F200.000
G1 X-41.111 Y-69.405 Z-3.000 F200.000
G2 X-38.163 Y-73.191 Z-3.000 I0.245 J-2.850 K0.000 F200.000
G2 X-45.912 Y-79.096 Z-3.000 I-7.021 J1.177 K0.000 F200.000
G1 X-90.290 Y-79.095 Z-3.000 F200.000
G3 X-100.315 Y-83.375 Z-3.000 I-0.163 J-13.500 K0.000 F200.000
G2 X-101.281 Y-83.940 Z-3.000 I-1.746 J1.877 K0.000 F200.000
G2 X-103.859 Y-79.733 Z-3.000 I-0.768 J2.422 K0.000 F200.000
G2 X-99.006 Y-74.385 Z-3.000 I19.172 J-12.521 K0.000 F200.000
G0 Z5.000
G0 X-95.807 Y-86.206 Z5.000
G0 X-95.807 Y-86.206 Z3.000
G1 X-95.807 Y-86.206 Z-3.000 F120.000
G2 X-90.937 Y-85.615 Z-3.000 I4.477 J-16.542 K0.000 F200.000
G1 X-47.530 Y-85.615 Z-3.000 F200.000
G2 X-45.049 Y-90.028 Z-3.000 I0.319 J-2.724 K0.000 F200.000
G2 X-54.012 Y-94.254 Z-3.000 I-9.439 J8.401 K0.000 F200.000
G2 X-92.839 Y-94.255 Z-3.000 I-19.888 J17019.568 K0.000 F200.000
G3 X-101.485 Y-95.739 Z-3.000 I-0.729 J-21.684 K0.000 F200.000
G1 X-101.594 Y-95.792 Z-3.000 F200.000
G2 X-102.323 Y-96.174 Z-3.000 I-1.580 J2.125 K0.000 F200.000
G2 X-105.533 Y-93.158 Z-3.000 I-0.796 J2.369 K0.000 F200.000
G2 X-95.807 Y-86.206 Z-3.000 I14.203 J-9.590 K0.000 F200.000
G0 Z5.000
G0 X-95.667 Y-99.434 Z5.000
G0 X-95.667 Y-99.434 Z3.000
G1 X-95.667 Y-99.434 Z-3.000 F120.000
G2 X-94.537 Y-99.465 Z-3.000 I0.158 J-14.858 K0.000 F200.000
G1 X-55.020 Y-99.465 Z-3.000 F200.000
G2 X-53.245 Y-102.799 Z-3.000 I0.235 J-2.014 K0.000 F200.000
G2 X-63.086 Y-107.015 Z-3.000 I-10.100 J9.982 K0.000 F200.000
G1 X-101.480 Y-107.015 Z-3.000 F200.000
G2 X-106.138 Y-105.165 Z-3.000 I-0.664 J5.117 K0.000 F200.000
G2 X-105.924 Y-103.693 Z-3.000 I1.573 J0.523 K0.000 F200.000
G2 X-95.667 Y-99.434 Z-3.000 I10.414 J-10.598 K0.000 F200.000
G0 Z5.000
G0 X-111.621 Y-99.433 Z5.000
G0 X-111.621 Y-99.433 Z3.000
G1 X-111.621 Y-99.433 Z-3.000 F120.000
G1 X-111.622 Y-104.192 Z-3.000 F200.000
G2 X-113.894 Y-106.994 Z-3.000 I-2.674 J-0.153 K0.000 F200.000
G2 X-115.349 Y-107.020 Z-3.000 I-0.891 J9.060 K0.000 F200.000
G2 X-117.945 Y-104.192 Z-3.000 I0.072 J2.672 K0.000 F200.000
G1 X-117.945 Y-63.631 Z-3.000 F200.000
G2 X-109.665 Y-17.774 Z-3.000 I153.725 J-4.081 K0.000 F200.000
G2 X-108.409 Y-16.447 Z-3.000 I2.200 J-0.823 K0.000 F200.000
G2 X-96.917 Y-18.001 Z-3.000 I3.845 J-14.831 K0.000 F200.000
G2 X-96.136 Y-21.134 Z-3.000 I-1.711 J-2.091 K0.000 F200.000
G3 X-111.620 Y-63.711 Z-3.000 I66.351 J-48.232 K0.000 F200.000
G1 X-111.621 Y-99.433 Z-3.000 F200.000
G0 Z5.000
G0 X-102.142 Y-120.230 Z5.000
G0 X-102.142 Y-120.230 Z3.000
G1 X-102.142 Y-120.230 Z-3.000 F120.000
G2 X-101.998 Y-120.169 Z-3.000 I1.212 J-2.660 K0.000 F200.000
G2 X-99.862 Y-125.611 Z-3.000 I1.068 J-2.721 K0.000 F200.000
G2 X-102.142 Y-120.230 Z-3.000 I-1.068 J2.721 K0.000 F200.000
G0 Z5.000
G0 Z5.000
(Finish operation: Ausschnitte 2)
(Begin operation: Profile004)
(Path: Profile004)
(Profile004)
(Compensated Tool Path. Diameter: 1.15)
G0 Z5.000
G0 X-2.351 Y-2.351
G0 Z3.000
G1 X-2.351 Y-2.351 Z-0.500 F120.000
G2 X-0.426 Y-6.968 Z-0.500 I-4.650 J-4.649 K0.000 F200.000
G1 X-0.425 Y-142.000 Z-0.500 F200.000
G2 X-6.968 Y-148.574 Z-0.500 I-6.576 J0.001 K0.000 F200.000
G1 X-141.000 Y-148.575 Z-0.500 F200.000
G2 X-141.575 Y-148.000 Z-0.500 I0.000 J0.575 K0.000 F200.000
G1 X-141.575 Y-126.390 Z-0.500 F200.000
G2 X-141.247 Y-125.871 Z-0.500 I0.575 J0.000 K0.000 F200.000
G2 X-140.564 Y-125.781 Z-0.500 I0.582 J-1.782 K0.000 F200.000
G3 X-141.043 Y-119.963 Z-0.500 I-0.438 J2.892 K0.000 F200.000
G2 X-141.575 Y-119.390 Z-0.500 I0.043 J0.573 K0.000 F200.000
G1 X-141.575 Y-98.700 Z-0.500 F200.000
G2 X-141.247 Y-98.181 Z-0.500 I0.575 J0.000 K0.000 F200.000
G2 X-140.564 Y-98.091 Z-0.500 I0.582 J-1.782 K0.000 F200.000
G3 X-141.043 Y-92.273 Z-0.500 I-0.438 J2.892 K0.000 F200.000
G2 X-141.575 Y-91.700 Z-0.500 I0.043 J0.573 K0.000 F200.000
G1 X-141.575 Y-63.600 Z-0.500 F200.000
G2 X-141.000 Y-63.025 Z-0.500 I0.575 J-0.000 K0.000 F200.000
G1 X-129.075 Y-63.025 Z-0.500 F200.000
G1 X-129.075 Y-36.175 Z-0.500 F200.000
G1 X-141.000 Y-36.175 Z-0.500 F200.000
G2 X-141.575 Y-35.600 Z-0.500 I0.000 J0.575 K0.000 F200.000
G1 X-141.575 Y-1.000 Z-0.500 F200.000
G2 X-141.000 Y-0.425 Z-0.500 I0.575 J-0.000 K0.000 F200.000
G1 X-7.000 Y-0.425 Z-0.500 F200.000
G2 X-2.351 Y-2.351 Z-0.500 I-0.001 J-6.576 K0.000 F200.000
G1 X-2.351 Y-2.351 Z-1.000 F120.000
G2 X-0.426 Y-6.968 Z-1.000 I-4.650 J-4.649 K0.000 F200.000
G1 X-0.425 Y-142.000 Z-1.000 F200.000
G2 X-6.968 Y-148.574 Z-1.000 I-6.576 J0.001 K0.000 F200.000
G1 X-141.000 Y-148.575 Z-1.000 F200.000
G2 X-141.575 Y-148.000 Z-1.000 I0.000 J0.575 K0.000 F200.000
G1 X-141.575 Y-126.390 Z-1.000 F200.000
G2 X-141.247 Y-125.871 Z-1.000 I0.575 J0.000 K0.000 F200.000
G2 X-140.564 Y-125.781 Z-1.000 I0.582 J-1.782 K0.000 F200.000
G3 X-141.043 Y-119.963 Z-1.000 I-0.438 J2.892 K0.000 F200.000
G2 X-141.575 Y-119.390 Z-1.000 I0.043 J0.573 K0.000 F200.000
G1 X-141.575 Y-98.700 Z-1.000 F200.000
G2 X-141.247 Y-98.181 Z-1.000 I0.575 J0.000 K0.000 F200.000
G2 X-140.564 Y-98.091 Z-1.000 I0.582 J-1.782 K0.000 F200.000
G3 X-141.043 Y-92.273 Z-1.000 I-0.438 J2.892 K0.000 F200.000
G2 X-141.575 Y-91.700 Z-1.000 I0.043 J0.573 K0.000 F200.000
G1 X-141.575 Y-63.600 Z-1.000 F200.000
G2 X-141.000 Y-63.025 Z-1.000 I0.575 J-0.000 K0.000 F200.000
G1 X-129.075 Y-63.025 Z-1.000 F200.000
G1 X-129.075 Y-36.175 Z-1.000 F200.000
G1 X-141.000 Y-36.175 Z-1.000 F200.000
G2 X-141.575 Y-35.600 Z-1.000 I0.000 J0.575 K0.000 F200.000
G1 X-141.575 Y-1.000 Z-1.000 F200.000
G2 X-141.000 Y-0.425 Z-1.000 I0.575 J-0.000 K0.000 F200.000
G1 X-7.000 Y-0.425 Z-1.000 F200.000
G2 X-2.351 Y-2.351 Z-1.000 I-0.001 J-6.576 K0.000 F200.000
G1 X-2.351 Y-2.351 Z-1.500 F120.000
G2 X-0.426 Y-6.968 Z-1.500 I-4.650 J-4.649 K0.000 F200.000
G1 X-0.425 Y-142.000 Z-1.500 F200.000
G2 X-6.968 Y-148.574 Z-1.500 I-6.576 J0.001 K0.000 F200.000
G1 X-141.000 Y-148.575 Z-1.500 F200.000
G2 X-141.575 Y-148.000 Z-1.500 I0.000 J0.575 K0.000 F200.000
G1 X-141.575 Y-126.390 Z-1.500 F200.000
G2 X-141.247 Y-125.871 Z-1.500 I0.575 J0.000 K0.000 F200.000
G2 X-140.564 Y-125.781 Z-1.500 I0.582 J-1.782 K0.000 F200.000
G3 X-141.043 Y-119.963 Z-1.500 I-0.438 J2.892 K0.000 F200.000
G2 X-141.575 Y-119.390 Z-1.500 I0.043 J0.573 K0.000 F200.000
G1 X-141.575 Y-98.700 Z-1.500 F200.000
G2 X-141.247 Y-98.181 Z-1.500 I0.575 J0.000 K0.000 F200.000
G2 X-140.564 Y-98.091 Z-1.500 I0.582 J-1.782 K0.000 F200.000
G3 X-141.043 Y-92.273 Z-1.500 I-0.438 J2.892 K0.000 F200.000
G2 X-141.575 Y-91.700 Z-1.500 I0.043 J0.573 K0.000 F200.000
G1 X-141.575 Y-63.600 Z-1.500 F200.000
G2 X-141.000 Y-63.025 Z-1.500 I0.575 J-0.000 K0.000 F200.000
G1 X-129.075 Y-63.025 Z-1.500 F200.000
G1 X-129.075 Y-36.175 Z-1.500 F200.000
G1 X-141.000 Y-36.175 Z-1.500 F200.000
G2 X-141.575 Y-35.600 Z-1.500 I0.000 J0.575 K0.000 F200.000
G1 X-141.575 Y-1.000 Z-1.500 F200.000
G2 X-141.000 Y-0.425 Z-1.500 I0.575 J-0.000 K0.000 F200.000
G1 X-7.000 Y-0.425 Z-1.500 F200.000
G2 X-2.351 Y-2.351 Z-1.500 I-0.001 J-6.576 K0.000 F200.000
G1 X-2.351 Y-2.351 Z-2.000 F120.000
G2 X-0.426 Y-6.968 Z-2.000 I-4.650 J-4.649 K0.000 F200.000
G1 X-0.425 Y-142.000 Z-2.000 F200.000
G2 X-6.968 Y-148.574 Z-2.000 I-6.576 J0.001 K0.000 F200.000
G1 X-141.000 Y-148.575 Z-2.000 F200.000
G2 X-141.575 Y-148.000 Z-2.000 I0.000 J0.575 K0.000 F200.000
G1 X-141.575 Y-126.390 Z-2.000 F200.000
G2 X-141.247 Y-125.871 Z-2.000 I0.575 J0.000 K0.000 F200.000
G2 X-140.564 Y-125.781 Z-2.000 I0.582 J-1.782 K0.000 F200.000
G3 X-141.043 Y-119.963 Z-2.000 I-0.438 J2.892 K0.000 F200.000
G2 X-141.575 Y-119.390 Z-2.000 I0.043 J0.573 K0.000 F200.000
G1 X-141.575 Y-98.700 Z-2.000 F200.000
G2 X-141.247 Y-98.181 Z-2.000 I0.575 J0.000 K0.000 F200.000
G2 X-140.564 Y-98.091 Z-2.000 I0.582 J-1.782 K0.000 F200.000
G3 X-141.043 Y-92.273 Z-2.000 I-0.438 J2.892 K0.000 F200.000
G2 X-141.575 Y-91.700 Z-2.000 I0.043 J0.573 K0.000 F200.000
G1 X-141.575 Y-63.600 Z-2.000 F200.000
G2 X-141.000 Y-63.025 Z-2.000 I0.575 J-0.000 K0.000 F200.000
G1 X-129.075 Y-63.025 Z-2.000 F200.000
G1 X-129.075 Y-36.175 Z-2.000 F200.000
G1 X-141.000 Y-36.175 Z-2.000 F200.000
G2 X-141.575 Y-35.600 Z-2.000 I0.000 J0.575 K0.000 F200.000
G1 X-141.575 Y-1.000 Z-2.000 F200.000
G2 X-141.000 Y-0.425 Z-2.000 I0.575 J-0.000 K0.000 F200.000
G1 X-7.000 Y-0.425 Z-2.000 F200.000
G2 X-2.351 Y-2.351 Z-2.000 I-0.001 J-6.576 K0.000 F200.000
G1 X-2.351 Y-2.351 Z-2.500 F120.000
G2 X-0.426 Y-6.968 Z-2.500 I-4.650 J-4.649 K0.000 F200.000
G1 X-0.425 Y-142.000 Z-2.500 F200.000
G2 X-6.968 Y-148.574 Z-2.500 I-6.576 J0.001 K0.000 F200.000
G1 X-141.000 Y-148.575 Z-2.500 F200.000
G2 X-141.575 Y-148.000 Z-2.500 I0.000 J0.575 K0.000 F200.000
G1 X-141.575 Y-126.390 Z-2.500 F200.000
G2 X-141.247 Y-125.871 Z-2.500 I0.575 J0.000 K0.000 F200.000
G2 X-140.564 Y-125.781 Z-2.500 I0.582 J-1.782 K0.000 F200.000
G3 X-141.043 Y-119.963 Z-2.500 I-0.438 J2.892 K0.000 F200.000
G2 X-141.575 Y-119.390 Z-2.500 I0.043 J0.573 K0.000 F200.000
G1 X-141.575 Y-98.700 Z-2.500 F200.000
G2 X-141.247 Y-98.181 Z-2.500 I0.575 J0.000 K0.000 F200.000
G2 X-140.564 Y-98.091 Z-2.500 I0.582 J-1.782 K0.000 F200.000
G3 X-141.043 Y-92.273 Z-2.500 I-0.438 J2.892 K0.000 F200.000
G2 X-141.575 Y-91.700 Z-2.500 I0.043 J0.573 K0.000 F200.000
G1 X-141.575 Y-63.600 Z-2.500 F200.000
G2 X-141.000 Y-63.025 Z-2.500 I0.575 J-0.000 K0.000 F200.000
G1 X-129.075 Y-63.025 Z-2.500 F200.000
G1 X-129.075 Y-36.175 Z-2.500 F200.000
G1 X-141.000 Y-36.175 Z-2.500 F200.000
G2 X-141.575 Y-35.600 Z-2.500 I0.000 J0.575 K0.000 F200.000
G1 X-141.575 Y-1.000 Z-2.500 F200.000
G2 X-141.000 Y-0.425 Z-2.500 I0.575 J-0.000 K0.000 F200.000
G1 X-7.000 Y-0.425 Z-2.500 F200.000
G2 X-2.351 Y-2.351 Z-2.500 I-0.001 J-6.576 K0.000 F200.000
G1 X-2.351 Y-2.351 Z-3.000 F120.000
G2 X-0.426 Y-6.968 Z-3.000 I-4.650 J-4.649 K0.000 F200.000
G1 X-0.425 Y-142.000 Z-3.000 F200.000
G2 X-6.968 Y-148.574 Z-3.000 I-6.576 J0.001 K0.000 F200.000
G1 X-141.000 Y-148.575 Z-3.000 F200.000
G2 X-141.575 Y-148.000 Z-3.000 I0.000 J0.575 K0.000 F200.000
G1 X-141.575 Y-126.390 Z-3.000 F200.000
G2 X-141.247 Y-125.871 Z-3.000 I0.575 J0.000 K0.000 F200.000
G2 X-140.564 Y-125.781 Z-3.000 I0.582 J-1.782 K0.000 F200.000
G3 X-141.043 Y-119.963 Z-3.000 I-0.438 J2.892 K0.000 F200.000
G2 X-141.575 Y-119.390 Z-3.000 I0.043 J0.573 K0.000 F200.000
G1 X-141.575 Y-98.700 Z-3.000 F200.000
G2 X-141.247 Y-98.181 Z-3.000 I0.575 J0.000 K0.000 F200.000
G2 X-140.564 Y-98.091 Z-3.000 I0.582 J-1.782 K0.000 F200.000
G3 X-141.043 Y-92.273 Z-3.000 I-0.438 J2.892 K0.000 F200.000
G2 X-141.575 Y-91.700 Z-3.000 I0.043 J0.573 K0.000 F200.000
G1 X-141.575 Y-63.600 Z-3.000 F200.000
G2 X-141.000 Y-63.025 Z-3.000 I0.575 J-0.000 K0.000 F200.000
G1 X-129.075 Y-63.025 Z-3.000 F200.000
G1 X-129.075 Y-36.175 Z-3.000 F200.000
G1 X-141.000 Y-36.175 Z-3.000 F200.000
G2 X-141.575 Y-35.600 Z-3.000 I0.000 J0.575 K0.000 F200.000
G1 X-141.575 Y-1.000 Z-3.000 F200.000
G2 X-141.000 Y-0.425 Z-3.000 I0.575 J-0.000 K0.000 F200.000
G1 X-7.000 Y-0.425 Z-3.000 F200.000
G2 X-2.351 Y-2.351 Z-3.000 I-0.001 J-6.576 K0.000 F200.000
G0 Z5.000
G0 Z5.000
(Finish operation: Profile004)
(Begin postamble)
M5
G17 G90
M2
M30
