
;Exported by FreeCAD
;Post Processor: centroid_post
;CAM file: /home/stl/Arduino/Projekte/ESP32_Web_Radio_Philco/philco_45c/Philco_45c_Platten.FCStd
;Output Time: 2021-05-10 14:34:07.601452
G90 G80 G40 G49
;T1=__8_Straight004
;begin preamble
G53 G00 G17
G21
;begin operation
G54
;end operation: Fixture
;begin operation
;1/8 Straight005
M6 T1
M3 S10000
;end operation: 1/8 Straight005
;begin operation
;Profile002
;Compensated Tool Path. Diameter: 3.175
G0 Z5.0000
G0 X104.1225 Y79.1225
G0 Z3.0000
G1 X104.1225 Y79.1225 Z-0.6000 F120.0
G2 X104.5875 Y78.0000 Z-0.6000 I-1.1225 J-1.1225 F300.0
G1 X104.5875 Y0.0000 Z-0.6000 F300.0
G2 X103.0000 Y-1.5875 Z-0.6000 I-1.5875 J-0.0000 F300.0
G1 X0.0000 Y-1.5875 Z-0.6000 F300.0
G2 X-1.5875 Y0.0000 Z-0.6000 I-0.0000 J1.5875 F300.0
G1 X-1.5875 Y78.0000 Z-0.6000 F300.0
G2 X0.0000 Y79.5875 Z-0.6000 I1.5875 J0.0000 F300.0
G1 X103.0000 Y79.5875 Z-0.6000 F300.0
G2 X104.1225 Y79.1225 Z-0.6000 I0.0000 J-1.5875 F300.0
G1 X104.1225 Y79.1225 Z-1.2000 F120.0
G2 X104.5875 Y78.0000 Z-1.2000 I-1.1225 J-1.1225 F300.0
G1 X104.5875 Y0.0000 Z-1.2000 F300.0
G2 X103.0000 Y-1.5875 Z-1.2000 I-1.5875 J-0.0000 F300.0
G1 X0.0000 Y-1.5875 Z-1.2000 F300.0
G2 X-1.5875 Y0.0000 Z-1.2000 I-0.0000 J1.5875 F300.0
G1 X-1.5875 Y78.0000 Z-1.2000 F300.0
G2 X0.0000 Y79.5875 Z-1.2000 I1.5875 J0.0000 F300.0
G1 X103.0000 Y79.5875 Z-1.2000 F300.0
G2 X104.1225 Y79.1225 Z-1.2000 I0.0000 J-1.5875 F300.0
G1 X104.1225 Y79.1225 Z-1.8000 F120.0
G2 X104.5875 Y78.0000 Z-1.8000 I-1.1225 J-1.1225 F300.0
G1 X104.5875 Y0.0000 Z-1.8000 F300.0
G2 X103.0000 Y-1.5875 Z-1.8000 I-1.5875 J-0.0000 F300.0
G1 X0.0000 Y-1.5875 Z-1.8000 F300.0
G2 X-1.5875 Y0.0000 Z-1.8000 I-0.0000 J1.5875 F300.0
G1 X-1.5875 Y78.0000 Z-1.8000 F300.0
G2 X0.0000 Y79.5875 Z-1.8000 I1.5875 J0.0000 F300.0
G1 X103.0000 Y79.5875 Z-1.8000 F300.0
G2 X104.1225 Y79.1225 Z-1.8000 I0.0000 J-1.5875 F300.0
G1 X104.1225 Y79.1225 Z-2.4000 F120.0
G2 X104.5875 Y78.0000 Z-2.4000 I-1.1225 J-1.1225 F300.0
G1 X104.5875 Y0.0000 Z-2.4000 F300.0
G2 X103.0000 Y-1.5875 Z-2.4000 I-1.5875 J-0.0000 F300.0
G1 X0.0000 Y-1.5875 Z-2.4000 F300.0
G2 X-1.5875 Y0.0000 Z-2.4000 I-0.0000 J1.5875 F300.0
G1 X-1.5875 Y78.0000 Z-2.4000 F300.0
G2 X0.0000 Y79.5875 Z-2.4000 I1.5875 J0.0000 F300.0
G1 X103.0000 Y79.5875 Z-2.4000 F300.0
G2 X104.1225 Y79.1225 Z-2.4000 I0.0000 J-1.5875 F300.0
G1 X104.1225 Y79.1225 Z-3.0000 F120.0
G2 X104.5875 Y78.0000 Z-3.0000 I-1.1225 J-1.1225 F300.0
G1 X104.5875 Y0.0000 Z-3.0000 F300.0
G2 X103.0000 Y-1.5875 Z-3.0000 I-1.5875 J-0.0000 F300.0
G1 X0.0000 Y-1.5875 Z-3.0000 F300.0
G2 X-1.5875 Y0.0000 Z-3.0000 I-0.0000 J1.5875 F300.0
G1 X-1.5875 Y78.0000 Z-3.0000 F300.0
G2 X0.0000 Y79.5875 Z-3.0000 I1.5875 J0.0000 F300.0
G1 X103.0000 Y79.5875 Z-3.0000 F300.0
G2 X104.1225 Y79.1225 Z-3.0000 I0.0000 J-1.5875 F300.0
G1 X104.1225 Y79.1225 Z-3.6000 F120.0
G2 X104.5875 Y78.0000 Z-3.6000 I-1.1225 J-1.1225 F300.0
G1 X104.5875 Y0.0000 Z-3.6000 F300.0
G2 X103.0000 Y-1.5875 Z-3.6000 I-1.5875 J-0.0000 F300.0
G1 X0.0000 Y-1.5875 Z-3.6000 F300.0
G2 X-1.5875 Y0.0000 Z-3.6000 I-0.0000 J1.5875 F300.0
G1 X-1.5875 Y78.0000 Z-3.6000 F300.0
G2 X0.0000 Y79.5875 Z-3.6000 I1.5875 J0.0000 F300.0
G1 X103.0000 Y79.5875 Z-3.6000 F300.0
G2 X104.1225 Y79.1225 Z-3.6000 I0.0000 J-1.5875 F300.0
G1 X104.1225 Y79.1225 Z-4.2000 F120.0
G2 X104.5875 Y78.0000 Z-4.2000 I-1.1225 J-1.1225 F300.0
G1 X104.5875 Y0.0000 Z-4.2000 F300.0
G2 X103.0000 Y-1.5875 Z-4.2000 I-1.5875 J-0.0000 F300.0
G1 X0.0000 Y-1.5875 Z-4.2000 F300.0
G2 X-1.5875 Y0.0000 Z-4.2000 I-0.0000 J1.5875 F300.0
G1 X-1.5875 Y78.0000 Z-4.2000 F300.0
G2 X0.0000 Y79.5875 Z-4.2000 I1.5875 J0.0000 F300.0
G1 X103.0000 Y79.5875 Z-4.2000 F300.0
G2 X104.1225 Y79.1225 Z-4.2000 I0.0000 J-1.5875 F300.0
G1 X104.1225 Y79.1225 Z-4.8000 F120.0
G2 X104.5875 Y78.0000 Z-4.8000 I-1.1225 J-1.1225 F300.0
G1 X104.5875 Y0.0000 Z-4.8000 F300.0
G2 X103.0000 Y-1.5875 Z-4.8000 I-1.5875 J-0.0000 F300.0
G1 X0.0000 Y-1.5875 Z-4.8000 F300.0
G2 X-1.5875 Y0.0000 Z-4.8000 I-0.0000 J1.5875 F300.0
G1 X-1.5875 Y78.0000 Z-4.8000 F300.0
G2 X0.0000 Y79.5875 Z-4.8000 I1.5875 J0.0000 F300.0
G1 X103.0000 Y79.5875 Z-4.8000 F300.0
G2 X104.1225 Y79.1225 Z-4.8000 I0.0000 J-1.5875 F300.0
G1 X104.1225 Y79.1225 Z-5.4000 F120.0
G2 X104.5875 Y78.0000 Z-5.4000 I-1.1225 J-1.1225 F300.0
G1 X104.5875 Y0.0000 Z-5.4000 F300.0
G2 X103.0000 Y-1.5875 Z-5.4000 I-1.5875 J-0.0000 F300.0
G1 X0.0000 Y-1.5875 Z-5.4000 F300.0
G2 X-1.5875 Y0.0000 Z-5.4000 I-0.0000 J1.5875 F300.0
G1 X-1.5875 Y78.0000 Z-5.4000 F300.0
G2 X0.0000 Y79.5875 Z-5.4000 I1.5875 J0.0000 F300.0
G1 X103.0000 Y79.5875 Z-5.4000 F300.0
G2 X104.1225 Y79.1225 Z-5.4000 I0.0000 J-1.5875 F300.0
G1 X104.1225 Y79.1225 Z-6.0000 F120.0
G2 X104.5875 Y78.0000 Z-6.0000 I-1.1225 J-1.1225 F300.0
G1 X104.5875 Y0.0000 Z-6.0000 F300.0
G2 X103.0000 Y-1.5875 Z-6.0000 I-1.5875 J-0.0000 F300.0
G1 X0.0000 Y-1.5875 Z-6.0000 F300.0
G2 X-1.5875 Y0.0000 Z-6.0000 I-0.0000 J1.5875 F300.0
G1 X-1.5875 Y78.0000 Z-6.0000 F300.0
G2 X0.0000 Y79.5875 Z-6.0000 I1.5875 J0.0000 F300.0
G1 X103.0000 Y79.5875 Z-6.0000 F300.0
G2 X104.1225 Y79.1225 Z-6.0000 I0.0000 J-1.5875 F300.0
G0 Z5.0000
G0 Z5.0000
;end operation: Profile002
;begin postamble
M5
M25
G49 H0
G90 G80 G40 G49
M99
M30
