(Exported by FreeCAD)
(Post Processor: grbl_post)
(Output Time:2021-05-10 14:03:25.872143)
(Begin preamble)
G17 G90
G21
(Begin operation: Fixture)
(Path: Fixture)
G54
(Finish operation: Fixture)
(Begin operation: 1/8 Straight003)
(Path: 1/8 Straight003)
(1/8 Straight003)
(Begin toolchange)
( M6 T1.0 )
M3 S10000.0
(Finish operation: 1/8 Straight003)
(Begin operation: Profile001)
(Path: Profile001)
(Profile001)
(Compensated Tool Path. Diameter: 3.175)
G0 Z5.000
G0 X207.123 Y76.123
G0 Z3.000
G1 X207.123 Y76.123 Z-0.600 F120.000
G2 X207.587 Y75.000 Z-0.600 I-1.123 J-1.123 K0.000 F300.000
G1 X207.587 Y0.000 Z-0.600 F300.000
G2 X206.000 Y-1.587 Z-0.600 I-1.587 J-0.000 K0.000 F300.000
G1 X0.000 Y-1.587 Z-0.600 F300.000
G2 X-1.587 Y0.000 Z-0.600 I-0.000 J1.587 K0.000 F300.000
G1 X-1.587 Y75.000 Z-0.600 F300.000
G2 X0.000 Y76.588 Z-0.600 I1.587 J0.000 K0.000 F300.000
G1 X206.000 Y76.588 Z-0.600 F300.000
G2 X207.123 Y76.123 Z-0.600 I0.000 J-1.587 K0.000 F300.000
G1 X207.123 Y76.123 Z-1.200 F120.000
G2 X207.587 Y75.000 Z-1.200 I-1.123 J-1.123 K0.000 F300.000
G1 X207.587 Y0.000 Z-1.200 F300.000
G2 X206.000 Y-1.587 Z-1.200 I-1.587 J-0.000 K0.000 F300.000
G1 X0.000 Y-1.587 Z-1.200 F300.000
G2 X-1.587 Y0.000 Z-1.200 I-0.000 J1.587 K0.000 F300.000
G1 X-1.587 Y75.000 Z-1.200 F300.000
G2 X0.000 Y76.588 Z-1.200 I1.587 J0.000 K0.000 F300.000
G1 X206.000 Y76.588 Z-1.200 F300.000
G2 X207.123 Y76.123 Z-1.200 I0.000 J-1.587 K0.000 F300.000
G1 X207.123 Y76.123 Z-1.800 F120.000
G2 X207.587 Y75.000 Z-1.800 I-1.123 J-1.123 K0.000 F300.000
G1 X207.587 Y0.000 Z-1.800 F300.000
G2 X206.000 Y-1.587 Z-1.800 I-1.587 J-0.000 K0.000 F300.000
G1 X0.000 Y-1.587 Z-1.800 F300.000
G2 X-1.587 Y0.000 Z-1.800 I-0.000 J1.587 K0.000 F300.000
G1 X-1.587 Y75.000 Z-1.800 F300.000
G2 X0.000 Y76.588 Z-1.800 I1.587 J0.000 K0.000 F300.000
G1 X206.000 Y76.588 Z-1.800 F300.000
G2 X207.123 Y76.123 Z-1.800 I0.000 J-1.587 K0.000 F300.000
G1 X207.123 Y76.123 Z-2.400 F120.000
G2 X207.587 Y75.000 Z-2.400 I-1.123 J-1.123 K0.000 F300.000
G1 X207.587 Y0.000 Z-2.400 F300.000
G2 X206.000 Y-1.587 Z-2.400 I-1.587 J-0.000 K0.000 F300.000
G1 X0.000 Y-1.587 Z-2.400 F300.000
G2 X-1.587 Y0.000 Z-2.400 I-0.000 J1.587 K0.000 F300.000
G1 X-1.587 Y75.000 Z-2.400 F300.000
G2 X0.000 Y76.588 Z-2.400 I1.587 J0.000 K0.000 F300.000
G1 X206.000 Y76.588 Z-2.400 F300.000
G2 X207.123 Y76.123 Z-2.400 I0.000 J-1.587 K0.000 F300.000
G1 X207.123 Y76.123 Z-3.000 F120.000
G2 X207.587 Y75.000 Z-3.000 I-1.123 J-1.123 K0.000 F300.000
G1 X207.587 Y0.000 Z-3.000 F300.000
G2 X206.000 Y-1.587 Z-3.000 I-1.587 J-0.000 K0.000 F300.000
G1 X0.000 Y-1.587 Z-3.000 F300.000
G2 X-1.587 Y0.000 Z-3.000 I-0.000 J1.587 K0.000 F300.000
G1 X-1.587 Y75.000 Z-3.000 F300.000
G2 X0.000 Y76.588 Z-3.000 I1.587 J0.000 K0.000 F300.000
G1 X206.000 Y76.588 Z-3.000 F300.000
G2 X207.123 Y76.123 Z-3.000 I0.000 J-1.587 K0.000 F300.000
G1 X207.123 Y76.123 Z-3.600 F120.000
G2 X207.587 Y75.000 Z-3.600 I-1.123 J-1.123 K0.000 F300.000
G1 X207.587 Y0.000 Z-3.600 F300.000
G2 X206.000 Y-1.587 Z-3.600 I-1.587 J-0.000 K0.000 F300.000
G1 X0.000 Y-1.587 Z-3.600 F300.000
G2 X-1.587 Y0.000 Z-3.600 I-0.000 J1.587 K0.000 F300.000
G1 X-1.587 Y75.000 Z-3.600 F300.000
G2 X0.000 Y76.588 Z-3.600 I1.587 J0.000 K0.000 F300.000
G1 X206.000 Y76.588 Z-3.600 F300.000
G2 X207.123 Y76.123 Z-3.600 I0.000 J-1.587 K0.000 F300.000
G1 X207.123 Y76.123 Z-4.200 F120.000
G2 X207.587 Y75.000 Z-4.200 I-1.123 J-1.123 K0.000 F300.000
G1 X207.587 Y0.000 Z-4.200 F300.000
G2 X206.000 Y-1.587 Z-4.200 I-1.587 J-0.000 K0.000 F300.000
G1 X0.000 Y-1.587 Z-4.200 F300.000
G2 X-1.587 Y0.000 Z-4.200 I-0.000 J1.587 K0.000 F300.000
G1 X-1.587 Y75.000 Z-4.200 F300.000
G2 X0.000 Y76.588 Z-4.200 I1.587 J0.000 K0.000 F300.000
G1 X206.000 Y76.588 Z-4.200 F300.000
G2 X207.123 Y76.123 Z-4.200 I0.000 J-1.587 K0.000 F300.000
G1 X207.123 Y76.123 Z-4.800 F120.000
G2 X207.587 Y75.000 Z-4.800 I-1.123 J-1.123 K0.000 F300.000
G1 X207.587 Y0.000 Z-4.800 F300.000
G2 X206.000 Y-1.587 Z-4.800 I-1.587 J-0.000 K0.000 F300.000
G1 X0.000 Y-1.587 Z-4.800 F300.000
G2 X-1.587 Y0.000 Z-4.800 I-0.000 J1.587 K0.000 F300.000
G1 X-1.587 Y75.000 Z-4.800 F300.000
G2 X0.000 Y76.588 Z-4.800 I1.587 J0.000 K0.000 F300.000
G1 X206.000 Y76.588 Z-4.800 F300.000
G2 X207.123 Y76.123 Z-4.800 I0.000 J-1.587 K0.000 F300.000
G1 X207.123 Y76.123 Z-5.400 F120.000
G2 X207.587 Y75.000 Z-5.400 I-1.123 J-1.123 K0.000 F300.000
G1 X207.587 Y0.000 Z-5.400 F300.000
G2 X206.000 Y-1.587 Z-5.400 I-1.587 J-0.000 K0.000 F300.000
G1 X0.000 Y-1.587 Z-5.400 F300.000
G2 X-1.587 Y0.000 Z-5.400 I-0.000 J1.587 K0.000 F300.000
G1 X-1.587 Y75.000 Z-5.400 F300.000
G2 X0.000 Y76.588 Z-5.400 I1.587 J0.000 K0.000 F300.000
G1 X206.000 Y76.588 Z-5.400 F300.000
G2 X207.123 Y76.123 Z-5.400 I0.000 J-1.587 K0.000 F300.000
G1 X207.123 Y76.123 Z-6.000 F120.000
G2 X207.587 Y75.000 Z-6.000 I-1.123 J-1.123 K0.000 F300.000
G1 X207.587 Y0.000 Z-6.000 F300.000
G2 X206.000 Y-1.587 Z-6.000 I-1.587 J-0.000 K0.000 F300.000
G1 X0.000 Y-1.587 Z-6.000 F300.000
G2 X-1.587 Y0.000 Z-6.000 I-0.000 J1.587 K0.000 F300.000
G1 X-1.587 Y75.000 Z-6.000 F300.000
G2 X0.000 Y76.588 Z-6.000 I1.587 J0.000 K0.000 F300.000
G1 X206.000 Y76.588 Z-6.000 F300.000
G2 X207.123 Y76.123 Z-6.000 I0.000 J-1.587 K0.000 F300.000
G0 Z5.000
G0 Z5.000
(Finish operation: Profile001)
(Begin postamble)
M5
G17 G90
M2
M30