;FLAVOR:UltiGCode
;TIME:1646
;MATERIAL:1772
;MATERIAL2:0
;NOZZLE_DIAMETER:0.8
;MINX:90.45
;MINY:84.45
;MINZ:0.2
;MAXX:132.55
;MAXY:138.55
;MAXZ:2.5
;Generated with Cura_SteamEngine 4.8.0
M82 ;absolute extrusion mode
G0 F3000 Y50 ;avoid prime blob
G92 E0
G92 E0
G10
;LAYER_COUNT:24
;LAYER:0
M107
G0 F5280 X92.862 Y90.378 Z0.2
;TYPE:SKIRT
G11
G1 F1320 X93.409 Y89.834 E0.108
G1 X93.731 Y89.542 E0.16886
G1 X94.466 Y88.935 E0.30231
G1 X95.072 Y88.45 E0.41098
G1 X96.474 Y87.272 E0.66735
G1 X96.874 Y86.93 E0.74103
G1 X97.331 Y86.592 E0.8206
G1 X97.832 Y86.321 E0.90035
G1 X98.592 Y86.063 E1.01271
G1 X99.953 Y85.748 E1.20829
G1 X102.501 Y85.122 E1.57562
G1 X103.541 Y84.836 E1.72662
G1 X104.493 Y84.589 E1.86431
G1 X105.052 Y84.485 E1.94392
G1 X105.716 Y84.452 E2.03699
G1 X105.83 Y84.45 E2.05295
G1 X116.851 Y84.45 E3.59589
G1 X117.555 Y84.46 E3.69446
G1 X118.121 Y84.508 E3.77399
G1 X118.569 Y84.604 E3.83813
G1 X119.305 Y84.806 E3.94498
G1 X121.989 Y85.504 E4.33324
G1 X124.275 Y86.03 E4.66164
G1 X124.472 Y86.079 E4.69006
G1 X125.013 Y86.254 E4.76967
G1 X125.524 Y86.504 E4.84931
G1 X126.076 Y86.888 E4.94345
G1 X126.567 Y87.296 E5.03283
G1 X127.704 Y88.269 E5.24234
G1 X128.875 Y89.216 E5.45318
G1 X129.345 Y89.608 E5.53886
G1 X129.625 Y89.865 E5.59207
G1 X130.172 Y90.416 E5.70076
G1 X130.782 Y91.152 E5.83459
G1 X131.065 Y91.567 E5.90492
G1 X131.473 Y92.256 E6.01702
G1 X131.86 Y93.076 E6.14396
G1 X132.033 Y93.547 E6.21421
G1 X132.255 Y94.289 E6.32264
G1 X132.442 Y95.211 E6.45435
G1 X132.506 Y95.747 E6.52992
G1 X132.525 Y96.021 E6.56837
G1 X132.547 Y96.66 E6.65789
G1 X132.55 Y96.988 E6.70381
G1 X132.55 Y125.836 E10.74253
G1 X132.54 Y126.349 E10.81436
G1 X132.493 Y127.305 E10.94836
G1 X132.435 Y127.818 E11.02064
G1 X132.338 Y128.361 E11.09787
G1 X132.224 Y128.832 E11.16571
G1 X132.045 Y129.418 E11.25149
G1 X131.845 Y129.96 E11.33237
G1 X131.651 Y130.396 E11.39918
G1 X131.417 Y130.845 E11.47007
G1 X131.047 Y131.457 E11.57019
G1 X130.738 Y131.906 E11.6465
G1 X130.138 Y132.622 E11.77728
G1 X129.591 Y133.166 E11.88528
G1 X129.271 Y133.457 E11.94584
G1 X128.547 Y134.055 E12.0773
G1 X127.922 Y134.555 E12.18936
G1 X126.526 Y135.728 E12.44463
G1 X126.126 Y136.07 E12.51831
G1 X125.669 Y136.408 E12.59789
G1 X125.168 Y136.679 E12.67763
G1 X124.408 Y136.937 E12.78999
G1 X123.047 Y137.252 E12.98557
G1 X120.499 Y137.878 E13.3529
G1 X119.459 Y138.164 E13.5039
G1 X118.507 Y138.411 E13.6416
G1 X117.948 Y138.515 E13.7212
G1 X117.284 Y138.548 E13.81427
G1 X117.17 Y138.55 E13.83024
G1 X106.149 Y138.55 E15.37318
G1 X105.447 Y138.54 E15.47147
G1 X104.88 Y138.492 E15.55113
G1 X104.436 Y138.396 E15.61473
G1 X103.714 Y138.199 E15.7195
G1 X101.011 Y137.496 E16.11051
G1 X98.736 Y136.973 E16.43732
G1 X98.537 Y136.924 E16.46601
G1 X97.995 Y136.749 E16.54575
G1 X97.484 Y136.5 E16.62533
G1 X96.917 Y136.107 E16.72191
G1 X96.393 Y135.671 E16.81735
G1 X95.278 Y134.717 E17.02279
G1 X94.124 Y133.784 E17.23054
G1 X93.653 Y133.391 E17.31642
G1 X93.371 Y133.132 E17.37003
G1 X92.821 Y132.577 E17.47942
G1 X92.218 Y131.848 E17.61187
G1 X91.934 Y131.432 E17.68239
G1 X91.578 Y130.833 E17.77994
G1 X91.327 Y130.349 E17.85627
G1 X90.966 Y129.453 E17.99151
G1 X90.758 Y128.759 E18.09294
G1 X90.63 Y128.216 E18.17104
G1 X90.519 Y127.507 E18.27151
G1 X90.475 Y126.979 E18.34569
G1 X90.453 Y126.338 E18.43548
G1 X90.45 Y125.989 E18.48434
G1 X90.45 Y97.122 E22.52572
G1 X90.46 Y96.651 E22.59168
G1 X90.507 Y95.695 E22.72568
G1 X90.565 Y95.182 E22.79795
G1 X90.662 Y94.639 E22.87518
G1 X90.776 Y94.166 E22.94329
G1 X90.956 Y93.578 E23.02939
G1 X91.16 Y93.028 E23.11151
G1 X91.351 Y92.6 E23.17713
G1 X91.583 Y92.155 E23.24739
G1 X91.953 Y91.543 E23.34751
G1 X92.266 Y91.089 E23.42471
G1 X92.862 Y90.378 E23.55459
G0 F5280 X93.356 Y90.875
G1 F1320 X93.981 Y90.255 E23.67784
G1 X94.176 Y90.082 E23.71434
G1 X94.904 Y89.481 E23.8465
G1 X95.513 Y88.994 E23.95567
G1 X96.924 Y87.808 E24.21372
G1 X97.329 Y87.462 E24.2883
G1 X97.747 Y87.157 E24.36074
G1 X98.207 Y86.921 E24.43312
G1 X98.75 Y86.745 E24.51304
G1 X100.111 Y86.43 E24.70861
G1 X102.676 Y85.801 E25.07835
G1 X103.717 Y85.513 E25.22957
G1 X104.669 Y85.266 E25.36726
G1 X105.416 Y85.16 E25.47289
G1 X105.83 Y85.15 E25.53086
G1 X116.841 Y85.15 E27.0724
G1 X117.545 Y85.16 E27.17097
G1 X118.06 Y85.208 E27.24339
G1 X118.383 Y85.279 E27.28969
G1 X119.152 Y85.49 E27.40133
G1 X121.792 Y86.177 E27.78323
G1 X124.106 Y86.709 E28.11565
G1 X124.303 Y86.758 E28.14407
G1 X124.793 Y86.921 E28.21636
G1 X125.253 Y87.158 E28.28881
G1 X125.629 Y87.428 E28.35361
G1 X126.112 Y87.828 E28.44141
G1 X127.267 Y88.817 E28.65429
G1 X128.427 Y89.753 E28.86297
G1 X128.897 Y90.145 E28.94865
G1 X129.128 Y90.358 E28.99264
G1 X129.675 Y90.909 E29.10134
G1 X130.229 Y91.581 E29.22326
G1 X130.463 Y91.925 E29.28151
G1 X130.862 Y92.597 E29.39092
G1 X131.219 Y93.358 E29.50861
G1 X131.362 Y93.748 E29.56676
G1 X131.584 Y94.49 E29.67519
G1 X131.752 Y95.328 E29.79484
G1 X131.826 Y96.046 E29.8959
G1 X131.847 Y96.666 E29.98275
G1 X131.85 Y96.994 E30.02867
G1 X131.85 Y125.826 E34.06515
G1 X131.841 Y126.314 E34.13348
G1 X131.794 Y127.27 E34.26748
G1 X131.746 Y127.695 E34.32736
G1 X131.649 Y128.238 E34.40458
G1 X131.555 Y128.628 E34.46075
G1 X131.376 Y129.214 E34.54653
G1 X131.012 Y130.112 E34.68218
G1 X130.818 Y130.483 E34.7408
G1 X130.448 Y131.095 E34.84092
G1 X129.918 Y131.817 E34.96631
G1 X129.644 Y132.125 E35.02402
G1 X129.019 Y132.745 E35.14727
G1 X128.825 Y132.917 E35.18357
G1 X128.11 Y133.508 E35.31344
G1 X127.487 Y134.006 E35.4251
G1 X126.076 Y135.192 E35.68315
G1 X125.671 Y135.538 E35.75773
G1 X125.253 Y135.843 E35.83017
G1 X124.793 Y136.079 E35.90255
G1 X124.25 Y136.255 E35.98246
G1 X122.889 Y136.57 E36.17804
G1 X120.324 Y137.199 E36.54778
G1 X119.283 Y137.487 E36.69899
G1 X118.331 Y137.734 E36.83669
G1 X117.584 Y137.84 E36.94232
G1 X117.17 Y137.85 E37.00029
G1 X106.159 Y137.85 E38.54183
G1 X105.457 Y137.84 E38.64012
G1 X104.942 Y137.792 E38.71253
G1 X104.621 Y137.721 E38.75856
G1 X103.875 Y137.517 E38.86684
G1 X101.208 Y136.823 E39.25265
G1 X98.903 Y136.293 E39.58377
G1 X98.704 Y136.244 E39.61246
G1 X98.213 Y136.082 E39.68485
G1 X97.752 Y135.846 E39.75735
G1 X97.365 Y135.568 E39.82406
G1 X96.849 Y135.139 E39.91801
G1 X95.732 Y134.183 E40.12384
G1 X94.573 Y133.246 E40.3325
G1 X94.102 Y132.853 E40.41838
G1 X93.868 Y132.639 E40.46277
G1 X93.318 Y132.084 E40.57216
G1 X92.77 Y131.418 E40.69291
G1 X92.536 Y131.075 E40.75104
G1 X92.18 Y130.476 E40.84859
G1 X91.78 Y129.64 E40.97834
G1 X91.637 Y129.252 E41.03623
G1 X91.402 Y128.463 E41.15149
G1 X91.246 Y127.662 E41.26573
G1 X91.174 Y126.954 E41.36536
G1 X91.153 Y126.332 E41.45249
G1 X91.15 Y125.983 E41.50135
G1 X91.15 Y97.133 E45.54035
G1 X91.159 Y96.686 E45.60295
G1 X91.206 Y95.73 E45.73695
G1 X91.254 Y95.305 E45.79683
G1 X91.351 Y94.762 E45.87405
G1 X91.446 Y94.37 E45.93052
G1 X91.658 Y93.681 E46.03144
G1 X91.99 Y92.885 E46.15219
G1 X92.182 Y92.517 E46.2103
G1 X92.552 Y91.905 E46.31042
G1 X93.083 Y91.181 E46.43612
G1 X93.356 Y90.875 E46.49353
G10
;MESH:Rahmen.stl
G0 F5280 X96.576 Y93.876
G0 X97.75 Y96.75
;TYPE:WALL-INNER
G11
G1 F1320 X97.75 Y126.25 E50.62353
G1 X125.25 Y126.25 E54.47353
G1 X125.25 Y96.75 E58.60353
G1 X97.75 Y96.75 E62.45353
G0 F5280 X98.45 Y97.45
G1 F1320 X98.45 Y125.55 E66.38753
G1 X124.55 Y125.55 E70.04153
G1 X124.55 Y97.45 E73.97553
G1 X98.45 Y97.45 E77.62953
G0 F5280 X99.1 Y98.1
;TYPE:WALL-OUTER
G1 F1320 X99.1 Y124.9 E81.38153
G1 X123.9 Y124.9 E84.85353
G1 X123.9 Y98.1 E88.60553
G1 X99.1 Y98.1 E92.07753
G0 F5280 X99.1 Y98.5
G0 X98.33 Y98.5
G0 X115.75 Y90.25
;TYPE:WALL-INNER
G1 F1320 X115.75 Y91.75 E92.28753
G1 X121.75 Y91.75 E93.12753
G1 X121.75 Y93.132 E93.32101
G1 X123.969 Y93.287 E93.63243
G1 X124.744 Y93.502 E93.74502
G1 X125.434 Y93.892 E93.85599
G1 X125.661 Y94.077 E93.89698
G1 X126.014 Y94.446 E93.96848
G1 X126.185 Y94.676 E94.0086
G1 X126.434 Y95.113 E94.07901
G1 X126.674 Y95.828 E94.1846
G1 X126.75 Y96.593 E94.29223
G1 X126.75 Y126.444 E98.47137
G1 X126.713 Y126.968 E98.54491
G1 X126.498 Y127.744 E98.65765
G1 X126.108 Y128.434 E98.76861
G1 X125.923 Y128.661 E98.80961
G1 X125.554 Y129.014 E98.8811
G1 X124.894 Y129.43 E98.99032
G1 X124.279 Y129.65 E99.08176
G1 X123.811 Y129.73 E99.14823
G1 X121.75 Y129.842 E99.4372
G1 X121.75 Y131.25 E99.63432
G1 X115.75 Y131.25 E100.47432
G1 X115.75 Y132.75 E100.68432
G1 X107.25 Y132.75 E101.87432
G1 X107.25 Y131.25 E102.08432
G1 X101.25 Y131.25 E102.92432
G1 X101.25 Y129.838 E103.122
G1 X99.189 Y129.731 E103.41093
G1 X98.688 Y129.644 E103.48212
G1 X98.424 Y129.563 E103.52078
G1 X97.967 Y129.36 E103.59079
G1 X97.339 Y128.923 E103.6979
G1 X96.986 Y128.554 E103.76939
G1 X96.815 Y128.324 E103.80952
G1 X96.566 Y127.887 E103.87993
G1 X96.326 Y127.172 E103.98552
G1 X96.25 Y126.407 E104.09315
G1 X96.25 Y96.551 E108.27299
G1 X96.287 Y96.032 E108.34583
G1 X96.502 Y95.256 E108.45856
G1 X96.892 Y94.566 E108.56953
G1 X97.077 Y94.339 E108.61052
G1 X97.446 Y93.986 E108.68201
G1 X97.676 Y93.815 E108.72214
G1 X98.113 Y93.566 E108.79255
G1 X98.86 Y93.317 E108.90279
G1 X99.185 Y93.267 E108.94883
G1 X101.25 Y93.167 E109.23826
G1 X101.25 Y91.75 E109.43664
G1 X107.25 Y91.75 E110.27664
G1 X107.25 Y90.25 E110.48664
G1 X115.75 Y90.25 E111.67664
G0 F5280 X116.45 Y91.05
G1 F1320 X122.45 Y91.05 E112.51664
G1 X122.45 Y92.479 E112.7167
G1 X124.064 Y92.592 E112.94322
G1 X124.446 Y92.667 E112.99772
G1 X125.006 Y92.851 E113.08024
G1 X125.356 Y93.014 E113.1343
G1 X125.845 Y93.324 E113.21535
G1 X126.137 Y93.562 E113.26809
G1 X126.546 Y93.989 E113.35087
G1 X126.774 Y94.295 E113.4043
G1 X127.064 Y94.804 E113.48631
G1 X127.217 Y95.17 E113.54185
G1 X127.347 Y95.64 E113.61012
G1 X127.365 Y95.702 E113.61916
G1 X127.45 Y96.554 E113.73903
G1 X127.45 Y126.464 E117.92643
G1 X127.408 Y127.064 E118.01063
G1 X127.333 Y127.446 E118.06513
G1 X127.149 Y128.006 E118.14766
G1 X126.986 Y128.356 E118.20171
G1 X126.676 Y128.845 E118.28277
G1 X126.438 Y129.137 E118.33551
G1 X126.011 Y129.546 E118.41829
G1 X125.705 Y129.774 E118.47171
G1 X125.189 Y130.068 E118.55485
G1 X124.514 Y130.308 E118.65515
G1 X124.454 Y130.33 E118.6641
G1 X123.891 Y130.427 E118.74408
G1 X122.45 Y130.505 E118.94611
G1 X122.45 Y131.95 E119.14841
G1 X116.45 Y131.95 E119.98841
G1 X116.45 Y133.45 E120.19841
G1 X106.55 Y133.45 E121.58441
G1 X106.55 Y131.95 E121.79441
G1 X100.55 Y131.95 E122.63441
G1 X100.55 Y130.503 E122.83699
G1 X99.107 Y130.428 E123.03929
G1 X98.527 Y130.327 E123.12171
G1 X98.173 Y130.218 E123.17356
G1 X97.638 Y129.98 E123.25554
G1 X97.149 Y129.671 E123.33652
G1 X96.863 Y129.438 E123.38817
G1 X96.454 Y129.011 E123.47095
G1 X96.226 Y128.705 E123.52437
G1 X95.936 Y128.196 E123.60639
G1 X95.783 Y127.83 E123.66192
G1 X95.653 Y127.36 E123.73019
G1 X95.635 Y127.298 E123.73923
G1 X95.55 Y126.446 E123.8591
G1 X95.55 Y96.53 E128.04734
G1 X95.592 Y95.936 E128.13071
G1 X95.667 Y95.554 E128.18521
G1 X95.851 Y94.994 E128.26774
G1 X96.014 Y94.644 E128.32179
G1 X96.324 Y94.155 E128.40285
G1 X96.562 Y93.863 E128.45559
G1 X96.989 Y93.454 E128.53837
G1 X97.295 Y93.226 E128.59179
G1 X97.804 Y92.936 E128.6738
G1 X98.17 Y92.783 E128.72934
G1 X98.715 Y92.631 E128.80855
G1 X99.112 Y92.57 E128.86479
G1 X99.15 Y92.569 E128.87011
G1 X100.55 Y92.5 E129.06635
G1 X100.55 Y91.05 E129.26935
G1 X106.55 Y91.05 E130.10935
G1 X106.55 Y89.55 E130.31935
G1 X116.45 Y89.55 E131.70535
G1 X116.45 Y91.05 E131.91535
G0 F5280 X117.1 Y90.4
;TYPE:WALL-OUTER
G1 F1320 X123.1 Y90.4 E132.75535
G1 X123.1 Y91.873 E132.96157
G1 X124.158 Y91.947 E133.11005
G1 X124.611 Y92.037 E133.17471
G1 X125.242 Y92.244 E133.26768
G1 X125.664 Y92.441 E133.33288
G1 X126.227 Y92.797 E133.42613
G1 X126.581 Y93.085 E133.49002
G1 X127.044 Y93.57 E133.5839
G1 X127.32 Y93.939 E133.64841
G1 X127.649 Y94.517 E133.74152
G1 X127.831 Y94.952 E133.80753
G1 X128.007 Y95.584 E133.89938
G1 X128.1 Y96.52 E134.03107
G1 X128.1 Y126.48 E138.22547
G1 X128.053 Y127.158 E138.32061
G1 X127.963 Y127.611 E138.38527
G1 X127.756 Y128.242 E138.47825
G1 X127.559 Y128.664 E138.54345
G1 X127.203 Y129.227 E138.6367
G1 X126.915 Y129.581 E138.70059
G1 X126.43 Y130.044 E138.79446
G1 X126.061 Y130.32 E138.85898
G1 X125.483 Y130.649 E138.95209
G1 X125.044 Y130.833 E139.01873
G1 X124.601 Y130.965 E139.08344
G1 X123.968 Y131.074 E139.17337
G1 X123.1 Y131.121 E139.29506
G1 X123.1 Y132.6 E139.50212
G1 X117.1 Y132.6 E140.34212
G1 X117.1 Y134.1 E140.55212
G1 X105.9 Y134.1 E142.12012
G1 X105.9 Y132.6 E142.33012
G1 X99.9 Y132.6 E143.17012
G1 X99.9 Y131.12 E143.37732
G1 X99.035 Y131.075 E143.49859
G1 X98.375 Y130.96 E143.59238
G1 X97.942 Y130.827 E143.6558
G1 X97.329 Y130.554 E143.74974
G1 X96.773 Y130.203 E143.84179
G1 X96.419 Y129.915 E143.90568
G1 X95.956 Y129.43 E143.99956
G1 X95.68 Y129.061 E144.06407
G1 X95.351 Y128.483 E144.15718
G1 X95.169 Y128.048 E144.22319
G1 X94.993 Y127.416 E144.31504
G1 X94.9 Y126.48 E144.44673
G1 X94.9 Y96.514 E148.64197
G1 X94.947 Y95.842 E148.73628
G1 X95.037 Y95.389 E148.80094
G1 X95.244 Y94.758 E148.89391
G1 X95.441 Y94.336 E148.95911
G1 X95.797 Y93.773 E149.05236
G1 X96.085 Y93.419 E149.11625
G1 X96.57 Y92.956 E149.21013
G1 X96.939 Y92.68 E149.27464
G1 X97.517 Y92.351 E149.36775
G1 X97.952 Y92.169 E149.43376
G1 X98.584 Y91.993 E149.52561
G1 X99.041 Y91.923 E149.59034
G1 X99.9 Y91.881 E149.71074
G1 X99.9 Y90.4 E149.91808
G1 X105.9 Y90.4 E150.75808
G1 X105.9 Y88.9 E150.96808
G1 X117.1 Y88.9 E152.53608
G1 X117.1 Y90.4 E152.74608
G0 F5280 X117.5 Y90.4
G0 X117.5 Y91.17
G0 X115.06 Y90.94
;TYPE:SKIN
G1 F1320 X115.06 Y92.44 E152.95608
G1 X121.06 Y92.44 E153.79608
G1 X121.06 Y93.775 E153.98298
G1 X123.848 Y93.969 E154.37425
G1 X124.477 Y94.144 E154.46565
G1 X125.049 Y94.468 E154.55768
G1 X125.484 Y94.892 E154.64273
G1 X125.802 Y95.396 E154.72616
G1 X125.996 Y95.974 E154.81152
G1 X126.06 Y96.622 E154.90268
G1 X126.06 Y126.423 E159.07482
G1 X126.03 Y126.849 E159.1346
G1 X125.856 Y127.478 E159.22597
G1 X125.534 Y128.046 E159.31738
G1 X125.128 Y128.468 E159.39936
G1 X124.591 Y128.805 E159.48812
G1 X124.099 Y128.981 E159.56128
G1 X123.727 Y129.044 E159.6141
G1 X121.06 Y129.189 E159.98803
G1 X121.06 Y130.56 E160.17997
G1 X115.06 Y130.56 E161.01997
G1 X115.06 Y132.06 E161.22997
G1 X107.94 Y132.06 E162.22677
G1 X107.94 Y130.56 E162.43677
G1 X101.94 Y130.56 E163.27677
G1 X101.94 Y129.183 E163.46955
G1 X99.26 Y129.043 E163.84526
G1 X98.665 Y128.914 E163.9305
G1 X98.304 Y128.754 E163.98578
G1 X97.793 Y128.399 E164.07289
G1 X97.391 Y127.941 E164.1582
G1 X97.198 Y127.603 E164.21269
G1 X97.004 Y127.026 E164.29792
G1 X96.94 Y126.378 E164.38908
G1 X96.94 Y96.572 E168.56192
G1 X96.97 Y96.151 E168.62101
G1 X97.144 Y95.522 E168.71238
G1 X97.466 Y94.954 E168.80379
G1 X97.892 Y94.516 E168.88933
G1 X98.394 Y94.2 E168.97237
G1 X99.021 Y93.99 E169.06494
G1 X99.247 Y93.955 E169.09696
G1 X101.94 Y93.824 E169.47443
G1 X101.94 Y92.44 E169.66819
G1 X107.94 Y92.44 E170.50819
G1 X107.94 Y90.94 E170.71819
G1 X115.06 Y90.94 E171.71499
G0 F5280 X125.94 Y96.06
G1 F1320 X97.06 Y96.06 E175.75819
G1 X97.06 Y126.94 E180.08139
G1 X125.94 Y126.94 E184.12459
G1 X125.94 Y96.06 E188.44779
G0 F5280 X125.443 Y95.745
G1 F1320 X124.051 Y94.353 E188.72339
G0 F5280 X122.929 Y94.221
G1 F1320 X124.453 Y95.745 E189.02512
G0 F5280 X123.463 Y95.745
G1 F1320 X121.865 Y94.147 E189.34151
G0 F5280 X120.8 Y94.072
G1 F1320 X122.473 Y95.745 E189.67275
G0 F5280 X121.483 Y95.745
G1 F1320 X118.494 Y92.755 E190.26464
G0 F5280 X117.504 Y92.755
G1 F1320 X120.493 Y95.745 E190.85653
G0 F5280 X119.503 Y95.745
G1 F1320 X116.514 Y92.755 E191.44842
G0 F5280 X115.524 Y92.755
G1 F1320 X118.513 Y95.745 E192.04031
G0 F5280 X117.523 Y95.745
G1 F1320 X113.033 Y91.254 E192.92939
G0 F5280 X112.043 Y91.254
G1 F1320 X116.534 Y95.745 E193.81856
G0 F5280 X115.544 Y95.745
G1 F1320 X111.053 Y91.254 E194.70773
G0 F5280 X110.063 Y91.254
G1 F1320 X114.554 Y95.745 E195.5969
G0 F5280 X113.564 Y95.745
G1 F1320 X109.074 Y91.254 E196.48598
G0 F5280 X108.253 Y91.424
G1 F1320 X112.574 Y95.745 E197.34149
G0 F5280 X111.584 Y95.745
G1 F1320 X108.253 Y92.414 E198.001
G0 F5280 X107.603 Y92.754
G1 F1320 X110.594 Y95.745 E198.59318
G0 F5280 X109.604 Y95.745
G1 F1320 X106.614 Y92.754 E199.18527
