(Exported by FreeCAD)
(Post Processor: grbl_post)
(Output Time:2021-04-29 15:17:24.497054)
(Begin preamble)
G17 G90
G21
(Begin operation: Fixture)
(Path: Fixture)
G54
(Finish operation: Fixture)
(Begin operation: 1,15mm Endmill007)
(Path: 1,15mm Endmill007)
(1,15mm Endmill007)
(Begin toolchange)
( M6 T1.0 )
M3 S10000.0
(Finish operation: 1,15mm Endmill007)
(Begin operation: Profile005)
(Path: Profile005)
(Profile005)
(Compensated Tool Path. Diameter: 1.15)
G0 Z5.000
G0 X-0.593 Y136.407
G0 Z3.000
G1 X-0.593 Y136.407 Z-0.500 F120.000
G2 X-0.425 Y136.000 Z-0.500 I-0.407 J-0.407 K0.000 F200.000
G1 X-0.425 Y4.000 Z-0.500 F200.000
G2 X-3.955 Y0.427 Z-0.500 I-3.576 J0.003 K0.000 F200.000
G1 X-86.010 Y0.425 Z-0.500 F200.000
G2 X-105.372 Y14.388 Z-0.500 I-1.258 J18.662 K0.000 F200.000
G2 X-104.821 Y15.125 Z-0.500 I0.552 J0.162 K0.000 F200.000
G3 X-28.572 Y83.162 Z-0.500 I1.068 J75.548 K0.000 F200.000
G2 X-21.052 Y121.892 Z-0.500 I192.170 J-17.217 K0.000 F200.000
G2 X-1.039 Y136.574 Z-0.500 I20.896 J-7.503 K0.000 F200.000
G2 X-0.593 Y136.407 Z-0.500 I0.039 J-0.574 K0.000 F200.000
G1 X-0.593 Y136.407 Z-1.000 F120.000
G2 X-0.425 Y136.000 Z-1.000 I-0.407 J-0.407 K0.000 F200.000
G1 X-0.425 Y4.000 Z-1.000 F200.000
G2 X-3.955 Y0.427 Z-1.000 I-3.576 J0.003 K0.000 F200.000
G1 X-86.010 Y0.425 Z-1.000 F200.000
G2 X-105.372 Y14.388 Z-1.000 I-1.258 J18.662 K0.000 F200.000
G2 X-104.821 Y15.125 Z-1.000 I0.552 J0.162 K0.000 F200.000
G3 X-28.572 Y83.162 Z-1.000 I1.068 J75.548 K0.000 F200.000
G2 X-21.052 Y121.892 Z-1.000 I192.170 J-17.217 K0.000 F200.000
G2 X-1.039 Y136.574 Z-1.000 I20.896 J-7.503 K0.000 F200.000
G2 X-0.593 Y136.407 Z-1.000 I0.039 J-0.574 K0.000 F200.000
G0 Z5.000
G0 Z5.000
(Finish operation: Profile005)
(Begin postamble)
M5
G17 G90
M2
M30
