(Exported by FreeCAD)
(Post Processor: grbl_post)
(Output Time:2021-04-29 12:28:22.409673)
(Begin preamble)
G17 G90
G21
(Begin operation: Fixture)
(Path: Fixture)
G54
(Finish operation: Fixture)
(Begin operation: 1,15mm Endmill001)
(Path: 1,15mm Endmill001)
(1,15mm Endmill001)
(Begin toolchange)
( M6 T1.0 )
M3 S10000.0
(Finish operation: 1,15mm Endmill001)
(Begin operation: Profile)
(Path: Profile)
(Profile)
(Compensated Tool Path. Diameter: 1.15)
G0 Z5.000
G0 X23.016 Y114.938
G0 Z3.000
G1 X23.016 Y114.938 Z-0.500 F120.000
G2 X28.572 Y83.162 Z-0.500 I-186.420 J-48.965 K0.000 F200.000
G3 X104.821 Y15.125 Z-0.500 I75.181 J7.511 K0.000 F200.000
G2 X105.372 Y14.388 Z-0.500 I-0.001 J-0.575 K0.000 F200.000
G2 X89.697 Y0.541 Z-0.500 I-18.105 J4.699 K0.000 F200.000
G2 X86.010 Y0.425 Z-0.500 I-2.427 J18.520 K0.000 F200.000
G1 X4.000 Y0.425 Z-0.500 F200.000
G2 X0.427 Y3.955 Z-0.500 I0.003 J3.576 K0.000 F200.000
G1 X0.425 Y136.000 Z-0.500 F200.000
G2 X1.039 Y136.574 Z-0.500 I0.575 J-0.000 K0.000 F200.000
G2 X21.035 Y121.941 Z-0.500 I-0.885 J-22.187 K0.000 F200.000
G2 X23.016 Y114.938 Z-0.500 I-184.439 J-55.968 K0.000 F200.000
G1 X23.016 Y114.938 Z-1.000 F120.000
G2 X28.572 Y83.162 Z-1.000 I-186.420 J-48.965 K0.000 F200.000
G3 X104.821 Y15.125 Z-1.000 I75.181 J7.511 K0.000 F200.000
G2 X105.372 Y14.388 Z-1.000 I-0.001 J-0.575 K0.000 F200.000
G2 X89.697 Y0.541 Z-1.000 I-18.105 J4.699 K0.000 F200.000
G2 X86.010 Y0.425 Z-1.000 I-2.427 J18.520 K0.000 F200.000
G1 X4.000 Y0.425 Z-1.000 F200.000
G2 X0.427 Y3.955 Z-1.000 I0.003 J3.576 K0.000 F200.000
G1 X0.425 Y136.000 Z-1.000 F200.000
G2 X1.039 Y136.574 Z-1.000 I0.575 J-0.000 K0.000 F200.000
G2 X21.035 Y121.941 Z-1.000 I-0.885 J-22.187 K0.000 F200.000
G2 X23.016 Y114.938 Z-1.000 I-184.439 J-55.968 K0.000 F200.000
G0 Z5.000
G0 Z5.000
(Finish operation: Profile)
(Begin postamble)
M5
G17 G90
M2
M30
